;FLAVOR:Marlin
;TIME:1419
;Filament used: 0.356863m
;Layer height: 0.2
;MINX:96.247
;MINY:92.457
;MINZ:0.2
;MAXX:126.093
;MAXY:126.348
;MAXZ:37
;Generated with Cura_SteamEngine 4.13.1
M140 S60
M105
M190 S60
M104 S200
M105
M109 S200
M82 ;absolute extrusion mode
; Ender 3 Custom Start G-code
G92 E0 ; Reset Extruder
G28 ; Home all axes
G1 Z2.0 F3000 ; Move Z Axis up little to prevent scratching of Heat Bed
G1 X0.1 Y20 Z0.3 F5000.0 ; Move to start position
G1 X0.1 Y200.0 Z0.3 F1500.0 E15 ; Draw the first line
G1 X0.4 Y200.0 Z0.3 F5000.0 ; Move to side a little
G1 X0.4 Y20 Z0.3 F1500.0 E30 ; Draw the second line
G92 E0 ; Reset Extruder
G1 Z2.0 F3000 ; Move Z Axis up little to prevent scratching of Heat Bed
G1 X5 Y20 Z0.3 F5000.0 ; Move over to prevent blob squish
G92 E0
G92 E0
G1 F1500 E-6.5
;LAYER_COUNT:185
;LAYER:0
M107
G0 F6000 X101.223 Y96.167 Z0.2
;TYPE:SKIRT
G1 F1500 E0
G1 F1200 X101.9 Y95.518 E0.03119
G1 X102.549 Y94.988 E0.05906
G1 X102.773 Y94.819 E0.06839
G1 X103.545 Y94.286 E0.0996
G1 X104.373 Y93.815 E0.13128
G1 X105.224 Y93.42 E0.16248
G1 X105.991 Y93.135 E0.1897
G1 X106.21 Y93.063 E0.19737
G1 X107.242 Y92.779 E0.23297
G1 X107.492 Y92.723 E0.24149
G1 X108.415 Y92.557 E0.27268
G1 X109.349 Y92.471 E0.30388
G1 X109.948 Y92.457 E0.3238
G1 X110.161 Y92.458 E0.33089
G1 X110.623 Y92.47 E0.34626
G1 X110.858 Y92.481 E0.35409
G1 X111.792 Y92.565 E0.38528
G1 X112.328 Y92.649 E0.40332
G1 X112.557 Y92.691 E0.41106
G1 X113.472 Y92.9 E0.44228
G1 X114.365 Y93.185 E0.47346
G1 X115.231 Y93.546 E0.50466
G1 X115.323 Y93.589 E0.50804
G1 X116.494 Y94.226 E0.55238
G1 X117.703 Y94.981 E0.59979
G1 X120.001 Y96.37 E0.6891
G1 X120.738 Y96.81 E0.71765
G1 X121.521 Y97.326 E0.74883
G1 X122.257 Y97.906 E0.78
G1 X122.941 Y98.548 E0.8112
G1 X123.568 Y99.245 E0.84238
G1 X124.134 Y99.994 E0.87361
G1 X124.634 Y100.787 E0.90479
G1 X125.064 Y101.621 E0.936
G1 X125.421 Y102.488 E0.96718
G1 X125.704 Y103.382 E0.99837
G1 X125.909 Y104.297 E1.02956
G1 X126.061 Y105.549 E1.07151
G1 X126.074 Y105.754 E1.07834
G1 X126.093 Y106.692 E1.10954
G1 X126.033 Y107.627 E1.14071
G1 X125.893 Y108.555 E1.17192
G1 X125.674 Y109.467 E1.20312
G1 X125.379 Y110.357 E1.2343
G1 X125.009 Y111.219 E1.2655
G1 X124.394 Y112.327 E1.30765
G1 X123.499 Y113.743 E1.36337
G1 X122.132 Y115.975 E1.45042
G1 X120.893 Y118.132 E1.53315
G1 X119.755 Y120.261 E1.61345
G1 X119.598 Y120.543 E1.62418
G1 X119.107 Y121.342 E1.65537
G1 X118.496 Y122.164 E1.68944
G1 X118.369 Y122.319 E1.6961
G1 X117.744 Y123.018 E1.72729
G1 X117.062 Y123.662 E1.75849
G1 X116.327 Y124.245 E1.78969
G1 X115.546 Y124.764 E1.82088
G1 X114.723 Y125.214 E1.85208
G1 X113.865 Y125.592 E1.88326
G1 X112.978 Y125.896 E1.91445
G1 X112.068 Y126.123 E1.94564
G1 X111.142 Y126.272 E1.97684
G1 X109.958 Y126.347 E2.0163
G1 X109.846 Y126.348 E2.02002
G1 X108.909 Y126.316 E2.0512
G1 X107.911 Y126.194 E2.08464
G1 X107.108 Y126.058 E2.11173
G1 X106.349 Y125.917 E2.13741
G1 X105.756 Y125.814 E2.15743
G1 X104.84 Y125.613 E2.18862
G1 X103.944 Y125.336 E2.21981
G1 X103.017 Y124.956 E2.25313
G1 X102.81 Y124.86 E2.26072
G1 X101.977 Y124.43 E2.2919
G1 X101.183 Y123.93 E2.32311
G1 X100.435 Y123.364 E2.35431
G1 X99.738 Y122.737 E2.38549
G1 X99.328 Y122.312 E2.40513
G1 X99.142 Y122.109 E2.41429
G1 X98.538 Y121.391 E2.4455
G1 X97.998 Y120.625 E2.47667
G1 X97.525 Y119.815 E2.50787
G1 X97.123 Y118.967 E2.53908
G1 X96.794 Y118.089 E2.57026
G1 X96.542 Y117.186 E2.60145
G1 X96.367 Y116.264 E2.63266
G1 X96.281 Y115.481 E2.65886
G1 X96.275 Y115.399 E2.66159
G1 X96.247 Y114.461 E2.6928
G1 X96.298 Y113.525 E2.72398
G1 X96.48 Y112.337 E2.76396
G1 X96.751 Y111.053 E2.8076
G1 X96.839 Y110.664 E2.82087
G1 X97.316 Y108.224 E2.90356
G1 X97.724 Y105.77 E2.9863
G1 X97.977 Y103.841 E3.05101
G1 X98.176 Y102.426 E3.09853
G1 X98.346 Y101.504 E3.12972
G1 X98.594 Y100.599 E3.16093
G1 X98.918 Y99.719 E3.19212
G1 X99.453 Y98.616 E3.23289
G1 X99.558 Y98.427 E3.24008
G1 X100.048 Y97.627 E3.27128
G1 X100.605 Y96.872 E3.30249
G1 X101.223 Y96.167 E3.33367
G0 F6000 X101.548 Y96.407
G1 F1200 X102.215 Y95.773 E3.36428
G1 X102.79 Y95.307 E3.3889
G1 X103.014 Y95.138 E3.39823
G1 X103.772 Y94.616 E3.42884
G1 X104.557 Y94.17 E3.45887
G1 X105.392 Y93.783 E3.48948
G1 X106.116 Y93.515 E3.51516
G1 X106.335 Y93.443 E3.52282
G1 X107.329 Y93.169 E3.55712
G1 X107.579 Y93.113 E3.56564
G1 X108.485 Y92.951 E3.59625
G1 X109.402 Y92.869 E3.62687
G1 X109.946 Y92.857 E3.64497
G1 X110.159 Y92.858 E3.65205
G1 X110.605 Y92.87 E3.66689
G1 X110.84 Y92.881 E3.67472
G1 X111.757 Y92.964 E3.70534
G1 X112.256 Y93.043 E3.72215
G1 X112.485 Y93.085 E3.72989
G1 X113.383 Y93.29 E3.76053
G1 X114.259 Y93.573 E3.79114
G1 X115.061 Y93.908 E3.82005
G1 X115.153 Y93.951 E3.82343
G1 X116.282 Y94.565 E3.86617
G1 X117.538 Y95.35 E3.91544
G1 X119.783 Y96.706 E4.00267
G1 X120.532 Y97.153 E4.03168
G1 X121.3 Y97.66 E4.06229
G1 X122.022 Y98.232 E4.09293
G1 X122.691 Y98.864 E4.12353
G1 X123.303 Y99.552 E4.15416
G1 X123.853 Y100.291 E4.1848
G1 X124.336 Y101.074 E4.2154
G1 X124.75 Y101.896 E4.24601
G1 X125.091 Y102.752 E4.27666
G1 X125.356 Y103.633 E4.30726
G1 X125.544 Y104.534 E4.33787
G1 X125.662 Y105.574 E4.37268
G1 X125.675 Y105.779 E4.37951
G1 X125.693 Y106.7 E4.41015
G1 X125.631 Y107.618 E4.44075
G1 X125.49 Y108.528 E4.47138
G1 X125.271 Y109.422 E4.502
G1 X124.975 Y110.294 E4.53262
G1 X124.604 Y111.136 E4.56323
G1 X124.056 Y112.114 E4.60051
G1 X123.163 Y113.527 E4.65611
G1 X121.794 Y115.762 E4.74328
G1 X120.531 Y117.96 E4.8276
G1 X119.495 Y119.902 E4.90081
G1 X119.248 Y120.348 E4.91776
G1 X118.766 Y121.132 E4.94837
G1 X118.186 Y121.91 E4.98065
G1 X118.059 Y122.065 E4.98731
G1 X117.445 Y122.751 E5.01793
G1 X116.774 Y123.381 E5.04855
G1 X116.051 Y123.951 E5.07917
G1 X115.281 Y124.456 E5.1098
G1 X114.47 Y124.892 E5.14042
G1 X113.625 Y125.256 E5.17102
G1 X112.751 Y125.545 E5.20164
G1 X111.855 Y125.758 E5.23227
G1 X110.944 Y125.891 E5.26289
G1 X109.955 Y125.947 E5.29584
G1 X109.843 Y125.948 E5.29956
G1 X108.923 Y125.916 E5.33018
G1 X107.978 Y125.799 E5.36185
G1 X106.998 Y125.632 E5.39492
G1 X106.398 Y125.52 E5.41522
G1 X105.825 Y125.42 E5.43456
G1 X104.925 Y125.222 E5.46521
G1 X104.047 Y124.948 E5.49581
G1 X103.185 Y124.593 E5.52681
G1 X102.978 Y124.497 E5.5344
G1 X102.161 Y124.074 E5.565
G1 X101.383 Y123.581 E5.59564
G1 X100.651 Y123.023 E5.62625
G1 X99.97 Y122.403 E5.65688
G1 X99.623 Y122.042 E5.67353
G1 X99.437 Y121.839 E5.68269
G1 X98.845 Y121.134 E5.71331
G1 X98.316 Y120.38 E5.74395
G1 X97.855 Y119.583 E5.77457
G1 X97.465 Y118.749 E5.80519
G1 X97.149 Y117.885 E5.83579
G1 X96.908 Y116.996 E5.86642
G1 X96.746 Y116.089 E5.89707
G1 X96.68 Y115.452 E5.91837
G1 X96.674 Y115.37 E5.9211
G1 X96.647 Y114.449 E5.95175
G1 X96.7 Y113.53 E5.98237
G1 X96.872 Y112.419 E6.01976
G1 X97.141 Y111.141 E6.0632
G1 X97.228 Y110.757 E6.07629
G1 X97.716 Y108.261 E6.16088
G1 X98.12 Y105.831 E6.24281
G1 X98.373 Y103.897 E6.30769
G1 X98.572 Y102.482 E6.35521
G1 X98.74 Y101.577 E6.38583
G1 X98.986 Y100.689 E6.41647
G1 X99.307 Y99.827 E6.44707
G1 X99.803 Y98.81 E6.4847
G1 X99.908 Y98.621 E6.49189
G1 X100.39 Y97.837 E6.5225
G1 X100.937 Y97.097 E6.55311
G1 X101.548 Y96.407 E6.58376
G0 F6000 X101.871 Y96.648
G1 F1200 X102.53 Y96.03 E6.61381
G1 X103.031 Y95.626 E6.63522
G1 X103.255 Y95.457 E6.64455
G1 X103.999 Y94.946 E6.67457
G1 X104.741 Y94.525 E6.70295
G1 X105.561 Y94.146 E6.73299
G1 X106.241 Y93.895 E6.7571
G1 X106.46 Y93.823 E6.76477
G1 X107.416 Y93.56 E6.79775
G1 X107.666 Y93.504 E6.80627
G1 X108.556 Y93.345 E6.83634
G1 X109.455 Y93.267 E6.86635
G1 X109.944 Y93.257 E6.88262
G1 X110.157 Y93.258 E6.8897
G1 X110.586 Y93.269 E6.90398
G1 X110.821 Y93.28 E6.9118
G1 X111.72 Y93.362 E6.94182
G1 X112.184 Y93.436 E6.95745
G1 X112.413 Y93.478 E6.9652
G1 X113.293 Y93.68 E6.99523
G1 X114.152 Y93.96 E7.02528
G1 X114.892 Y94.27 E7.05196
G1 X114.984 Y94.313 E7.05534
G1 X116.07 Y94.904 E7.09646
G1 X117.325 Y95.688 E7.14568
G1 X119.584 Y97.053 E7.23346
G1 X120.326 Y97.496 E7.26221
G1 X121.08 Y97.994 E7.29226
G1 X121.786 Y98.557 E7.3223
G1 X122.44 Y99.18 E7.35234
G1 X123.036 Y99.858 E7.38236
G1 X123.57 Y100.587 E7.41242
G1 X124.037 Y101.36 E7.44246
G1 X124.434 Y102.171 E7.47249
G1 X124.758 Y103.014 E7.50253
G1 X125.006 Y103.882 E7.53255
G1 X125.176 Y104.769 E7.56259
G1 X125.263 Y105.599 E7.59035
G1 X125.276 Y105.804 E7.59718
G1 X125.293 Y106.707 E7.62722
G1 X125.23 Y107.608 E7.65726
G1 X125.088 Y108.5 E7.6873
G1 X124.867 Y109.376 E7.71735
G1 X124.57 Y110.229 E7.74739
G1 X124.199 Y111.052 E7.77742
G1 X123.718 Y111.9 E7.80984
G1 X122.827 Y113.31 E7.86532
G1 X121.44 Y115.575 E7.95365
G1 X120.183 Y117.763 E8.03758
G1 X119.056 Y119.872 E8.11711
G1 X118.899 Y120.154 E8.12785
G1 X118.425 Y120.922 E8.15787
G1 X117.877 Y121.657 E8.18836
G1 X117.75 Y121.812 E8.19502
G1 X117.147 Y122.484 E8.22505
G1 X116.487 Y123.101 E8.2551
G1 X115.775 Y123.657 E8.28515
G1 X115.017 Y124.147 E8.31517
G1 X114.219 Y124.569 E8.3452
G1 X113.386 Y124.918 E8.37523
G1 X112.525 Y125.193 E8.4053
G1 X111.644 Y125.39 E8.43532
G1 X110.749 Y125.508 E8.46535
G1 X109.951 Y125.547 E8.49192
G1 X109.839 Y125.548 E8.49565
G1 X108.937 Y125.516 E8.52567
G1 X108.045 Y125.405 E8.55556
G1 X107.242 Y125.269 E8.58265
G1 X106.475 Y125.127 E8.6086
G1 X105.893 Y125.025 E8.62825
G1 X105.011 Y124.831 E8.65828
G1 X104.15 Y124.56 E8.68831
G1 X103.354 Y124.23 E8.71697
G1 X103.147 Y124.134 E8.72456
G1 X102.345 Y123.718 E8.75461
G1 X101.583 Y123.233 E8.78465
G1 X100.867 Y122.683 E8.81468
G1 X99.917 Y121.772 E8.85845
G1 X99.731 Y121.569 E8.86761
G1 X99.151 Y120.876 E8.89767
G1 X98.635 Y120.136 E8.92767
G1 X98.186 Y119.352 E8.95772
G1 X97.808 Y118.532 E8.98775
G1 X97.504 Y117.681 E9.01781
G1 X97.277 Y116.807 E9.04784
G1 X97.127 Y115.917 E9.07786
G1 X97.079 Y115.422 E9.0944
G1 X97.073 Y115.34 E9.09714
G1 X97.047 Y114.438 E9.12715
G1 X97.101 Y113.536 E9.15721
G1 X97.263 Y112.501 E9.19205
G1 X97.498 Y111.381 E9.23011
G1 X97.618 Y110.85 E9.24822
G1 X98.102 Y108.372 E9.3322
G1 X98.515 Y105.888 E9.41595
G1 X98.769 Y103.952 E9.48089
G1 X98.968 Y102.537 E9.52842
G1 X99.134 Y101.65 E9.55843
G1 X99.377 Y100.78 E9.58847
G1 X99.696 Y99.935 E9.61852
G1 X100.153 Y99.004 E9.65301
G1 X100.258 Y98.815 E9.6602
G1 X100.731 Y98.046 E9.69023
G1 X101.27 Y97.322 E9.72025
G1 X101.871 Y96.648 E9.75029
G1 F1500 E3.25029
;MESH:pose1_34.stl
G0 F6000 X108.314 Y113.183
G0 X108.566 Y114.147
G0 X109.709 Y114.859
G1 F1500 E9.75029
G0 F6000 X109.798 Y115.142
;TYPE:WALL-OUTER
G1 F1200 X109.542 Y114.909 E9.7618
G1 X109.33 Y114.771 E9.77021
G1 X109.062 Y114.686 E9.77956
G1 X108.76 Y114.669 E9.78962
G1 X108.481 Y114.705 E9.79898
G1 X108.163 Y114.779 E9.80984
G1 X107.794 Y114.812 E9.82216
G1 X107.598 Y114.761 E9.8289
G1 X107.442 Y114.633 E9.83561
G1 X107.577 Y114.509 E9.84171
G1 X107.849 Y114.353 E9.85214
G1 X108.136 Y114.187 E9.86316
G1 X108.405 Y114.053 E9.87316
G1 X108.573 Y114.026 E9.87882
G1 X108.858 Y114.103 E9.88864
G1 X109.098 Y114.191 E9.89714
G1 X109.421 Y114.437 E9.91064
G1 X109.76 Y114.662 E9.92418
G1 X109.88 Y114.853 E9.93168
G1 X109.817 Y115.11 E9.94048
G1 X109.798 Y115.142 E9.94172
G0 F6000 X109.047 Y114.421
;TYPE:SKIN
G1 F1200 X108.695 Y114.351 E9.95038
G1 X108.038 Y114.544 E9.96692
G1 F1500 E3.46692
G0 F6000 X108.101 Y114.583
G0 X108.566 Y114.147
G0 X108.672 Y113.167
G0 X110.178 Y106.416
G0 X110.762 Y105.496
G0 X110.425 Y104.828
;TYPE:WALL-INNER
G1 F1500 E9.96692
G1 F1200 X110.255 Y104.648 E9.97516
G1 X110.049 Y104.383 E9.98632
G1 X109.795 Y104.088 E9.99927
G1 X110.042 Y104.041 E10.00229
G1 X110.32 Y104.067 E10.00847
G1 X110.396 Y104.672 E10.02211
G1 X110.425 Y104.828
G0 F6000 X110.72 Y105.428
G0 X110.957 Y105.769
;TYPE:WALL-OUTER
G1 F1200 X110.815 Y105.778 E10.02684
G1 X110.573 Y105.622 E10.03642
G1 X110.408 Y105.422 E10.04504
G1 X110.233 Y105.208 E10.05424
G1 X109.954 Y104.913 E10.06774
G1 X109.739 Y104.636 E10.0794
G1 X109.554 Y104.421 E10.08884
G1 X109.353 Y104.188 E10.09907
G1 X109.256 Y104.028 E10.1053
G1 X109.303 Y103.91 E10.10952
G1 X109.498 Y103.762 E10.11766
G1 X109.85 Y103.653 E10.12992
G1 X110.04 Y103.641 E10.13625
G1 X110.327 Y103.65 E10.1458
G1 X110.607 Y103.739 E10.15557
G1 X110.701 Y103.893 E10.16157
G1 X110.753 Y104.292 E10.17496
G1 X110.792 Y104.612 E10.18568
G1 X110.844 Y104.895 E10.19525
G1 X110.964 Y105.422 E10.21323
G1 X110.991 Y105.692 E10.22225
G1 X110.957 Y105.769 E10.22505
G0 F6000 X110.588 Y105.213
;TYPE:SKIN
G1 F1200 X110.64 Y104.983 E10.23683
G1 F1500 E3.73683
G0 F6000 X110.576 Y105.066
G0 X110.762 Y105.496
G0 X111.854 Y105.504
G0 X112.879 Y106.189
G0 X113.649 Y106.825
G0 X114.575 Y106.622
G1 F1500 E10.23683
G0 F6000 X114.908 Y106.41
;TYPE:WALL-OUTER
G1 F1200 X114.686 Y106.722 E10.24957
G1 X114.451 Y106.965 E10.26081
G1 X114.238 Y107.079 E10.26885
G1 X113.913 Y107.08 E10.27966
G1 X113.627 Y106.965 E10.28991
G1 X113.483 Y106.823 E10.29664
G1 X113.583 Y106.723 E10.30134
G1 X113.828 Y106.633 E10.31002
G1 X113.97 Y106.594 E10.31492
G1 X114.409 Y106.496 E10.32988
G1 X114.698 Y106.443 E10.33965
G1 X114.908 Y106.41 E10.34672
G0 F6000 X114.364 Y106.728
;TYPE:SKIN
G1 F1200 X114.166 Y106.812 E10.35156
G0 F6000 X113.975 Y106.903
G1 F1200 X113.873 Y106.802 E10.35395
G1 F1500 E3.85395
;MESH:NONMESH
G0 F300 X113.873 Y106.802 Z0.4
G0 F6000 X113.952 Y106.807
G0 X113.692 Y106.863
G0 X113.099 Y107.65
G0 X109.544 Y113.451
G0 X109.038 Y114.296
G0 X109.502 Y114.646
G1 F1500 E10.35395
G0 F6000 X109.652 Y114.42
;TIME_ELAPSED:24.595199
;LAYER:1
M106 S85
;TYPE:WALL-INNER
;MESH:pose1_34.stl
G1 F767.8 X109.191 Y114.217 E10.3707
G1 X108.706 Y114.146 E10.38701
G1 X108.22 Y114.198 E10.40326
G1 X107.931 Y114.281 E10.41326
G1 X107.786 Y114.144 E10.4199
G1 X107.399 Y113.906 E10.43501
G1 X107.088 Y113.765 E10.44637
G1 X107.307 Y113.667 E10.44833
G1 X107.745 Y113.332 E10.46667
G1 X107.924 Y113.135 E10.47552
G1 X108.047 Y112.968 E10.48242
G1 X108.189 Y113.036 E10.48765
G1 X108.837 Y113.073 E10.50924
G1 X109.332 Y112.997 E10.5259
G1 X109.743 Y112.988 E10.53957
G1 X109.817 Y113.034 E10.54247
G1 X109.992 Y113.324 E10.55374
G1 X110.063 Y113.501 E10.56008
G1 X110.173 Y113.857 E10.57247
G1 X110.033 Y113.976 E10.57858
G1 X109.761 Y114.264 E10.59176
G1 X109.652 Y114.42 E10.59809
G0 F7500 X109.454 Y114.77
G1 F767.8 X109.079 Y114.605 E10.61171
G1 X108.698 Y114.549 E10.62452
G1 X108.297 Y114.592 E10.63794
G1 X107.975 Y114.685 E10.64908
G1 X107.83 Y114.746 E10.65432
G1 X107.801 Y114.71 E10.65585
G1 X107.541 Y114.463 E10.66778
G1 X107.211 Y114.26 E10.68067
G1 X106.859 Y114.101 E10.69351
G1 X106.607 Y113.957 E10.70317
G1 X106.364 Y113.664 E10.71583
G1 X106.32 Y113.561 E10.71955
G1 X106.41 Y113.555 E10.72021
G1 X106.773 Y113.468 E10.73263
G1 X107.101 Y113.321 E10.74458
G1 X107.473 Y113.036 E10.76017
G1 X107.614 Y112.881 E10.76714
G1 X107.92 Y112.465 E10.78431
G1 X108.29 Y112.641 E10.79794
G1 X108.818 Y112.671 E10.81553
G1 X109.29 Y112.599 E10.83141
G1 X109.517 Y112.576 E10.839
G1 X109.811 Y112.591 E10.84879
G1 X109.931 Y112.625 E10.85294
G1 X110.115 Y112.754 E10.86041
G1 X110.35 Y113.144 E10.87556
G1 X110.441 Y113.371 E10.88369
G1 X110.577 Y113.808 E10.89891
G1 X110.618 Y113.982 E10.90486
G1 X110.542 Y114.069 E10.9087
G1 X110.308 Y114.267 E10.9189
G1 X110.072 Y114.517 E10.93033
G1 X109.815 Y114.884 E10.94523
G1 X109.754 Y115.005 E10.94974
G1 X109.73 Y114.977
G1 X109.454 Y114.77 E10.95804
G0 F7500 X109.794 Y115.281
G0 X109.835 Y115.788
;TYPE:WALL-OUTER
G1 F767.8 X109.698 Y115.557 E10.96697
G1 X109.454 Y115.27 E10.9795
G1 X109.251 Y115.118 E10.98793
G1 X108.967 Y114.993 E10.99825
G1 X108.69 Y114.952 E11.00757
G1 X108.375 Y114.986 E11.01811
G1 X108.109 Y115.063 E11.02732
G1 X107.749 Y115.215 E11.04031
G1 X107.675 Y115.19 E11.04291
G1 X107.507 Y114.982 E11.0518
G1 X107.296 Y114.782 E11.06147
G1 X107.023 Y114.614 E11.07213
G1 X106.67 Y114.454 E11.08503
G1 X106.375 Y114.286 E11.09632
G1 X106.186 Y114.116 E11.10477
G1 X106.01 Y113.853 E11.1153
G1 X105.889 Y113.573 E11.12544
G1 X105.791 Y113.283 E11.13562
G1 X105.764 Y113.155 E11.13997
G1 X106.063 Y113.178 E11.14995
G1 X106.349 Y113.158 E11.15948
G1 X106.644 Y113.088 E11.16957
G1 X106.895 Y112.975 E11.17872
G1 X107.201 Y112.741 E11.19154
G1 X107.304 Y112.627 E11.19665
G1 X107.471 Y112.402 E11.20597
G1 X107.661 Y112.141 E11.2167
G1 X107.855 Y111.934 E11.22614
G1 X107.892 Y111.911 E11.22759
G1 X108.101 Y112.108 E11.23714
G1 X108.391 Y112.246 E11.24782
G1 X108.799 Y112.269 E11.26141
G1 X109.247 Y112.201 E11.27649
G1 X109.511 Y112.175 E11.28531
G1 X109.875 Y112.193 E11.29743
G1 X110.107 Y112.259 E11.30545
G1 X110.396 Y112.463 E11.31722
G1 X110.585 Y112.715 E11.3277
G1 X110.715 Y112.981 E11.33754
G1 X110.819 Y113.24 E11.34683
G1 X110.965 Y113.708 E11.36313
G1 X111.026 Y113.97 E11.37208
G1 X111.015 Y114.135 E11.37758
G1 X110.821 Y114.357 E11.38738
G1 X110.584 Y114.558 E11.39772
G1 X110.383 Y114.771 E11.40746
G1 X110.159 Y115.09 E11.42043
G1 X110.087 Y115.233 E11.42575
G1 X109.917 Y115.64 E11.44042
G1 X109.835 Y115.788 E11.44605
G0 F7500 X109.75 Y115.262
G0 X109.692 Y116.993
G1 F767.8 X109.795 Y116.747 E11.45492
G1 X109.855 Y116.582 E11.46076
G1 X109.93 Y116.84 E11.46969
G1 X109.868 Y116.93 E11.47333
G1 X109.692 Y116.993 E11.47955
G1 F1500 E4.97955
G0 F7500 X109.806 Y115.36
G0 X109.417 Y114.195
G1 F1500 E11.47955
G0 F7500 X109.53 Y113.94
;TYPE:SKIN
G1 F767.8 X109.3 Y113.839 E11.4879
G1 X108.714 Y113.753 E11.5076
G1 X108.144 Y113.814 E11.52667
G1 X108.024 Y113.832 E11.5307
G1 X107.863 Y113.733 E11.53699
G1 X108.01 Y113.621 E11.54314
G1 X108.187 Y113.426 E11.5519
G1 X108.856 Y113.465 E11.57418
G1 X109.369 Y113.387 E11.59144
G1 X109.572 Y113.382 E11.5982
G1 X109.695 Y113.631 E11.60743
G1 X109.726 Y113.733 E11.61098
G1 X109.53 Y113.94 E11.62046
G0 F7500 X109.324 Y113.555
G1 F767.8 X109.214 Y113.665 E11.62563
G0 F7500 X109.15 Y114.099
G0 X108.056 Y114.131
G0 X108.022 Y114.008
;TYPE:SKIN
G1 F767.8 X107.951 Y114.079 E11.6273
G0 F7500 X107.915 Y114.116
G0 X106.927 Y113.689
G0 X106.848 Y113.768
G1 F767.8 X106.644 Y113.69 E11.62962
G1 X106.358 Y113.975 E11.6339
G0 F7500 X106.411 Y113.914
G0 X107.905 Y112.319
G0 X107.816 Y112.235
G1 F767.8 X107.896 Y112.154 E11.63579
G0 F7500 X107.896 Y112.285
G0 X109.482 Y112.832
G0 X109.52 Y112.793
G1 F767.8 X110.371 Y112.79 E11.63898
G0 F7500 X110.3 Y112.836
G0 X109.685 Y114.608
G0 X109.652 Y114.641
G1 F767.8 X109.807 Y115.335 E11.64228
G0 F7500 X109.607 Y114.85
G1 F1500 E5.14228
G0 F7500 X110.395 Y112.828
G0 X111.294 Y112.22
G0 X113.536 Y110.755
G0 X114.46 Y110.173
G0 X114.953 Y110.257
;TYPE:WALL-INNER
G1 F1500 E11.64228
G1 F767.8 X114.994 Y110.247 E11.64368
G1 X115.462 Y110.091 E11.66009
G1 X115.88 Y109.962 E11.67464
G1 X115.783 Y110.069
G1 X115.536 Y110.318 E11.67966
G1 X115.449 Y110.386 E11.67977
G1 X114.953 Y110.257 E11.68755
G0 F7500 X114.226 Y110.061
;TYPE:WALL-OUTER
G1 F767.8 X114.31 Y109.981 E11.69141
G1 X114.635 Y109.921 E11.7024
G1 X114.885 Y109.862 E11.71094
G1 X115.329 Y109.714 E11.72651
G1 X115.571 Y109.624 E11.7351
G1 X115.91 Y109.544 E11.74668
G1 X116.25 Y109.519 E11.75802
G1 X116.411 Y109.58 E11.76375
G1 X116.44 Y109.761 E11.76984
G1 X116.356 Y110.033 E11.77931
G1 X116.079 Y110.338 E11.79301
G1 X115.797 Y110.623 E11.80635
G1 X115.607 Y110.771 E11.81436
G1 X115.42 Y110.792 E11.82062
G1 X115.002 Y110.683 E11.83499
G1 X114.703 Y110.605 E11.84526
G1 X114.456 Y110.487 E11.85437
G1 X114.253 Y110.271 E11.86423
G1 X114.226 Y110.061 E11.87127
G0 F7500 X114.666 Y110.193
;TYPE:SKIN
G1 F767.8 X114.756 Y110.386 E11.8789
G0 F7500 X114.776 Y110.308
G0 X115.961 Y109.84
G0 X115.969 Y109.738
G1 F767.8 X116.155 Y109.834 E11.88488
G0 F7500 X115.918 Y110.16
G1 F1500 E5.38488
G0 F7500 X115.873 Y110.119
G0 X114.945 Y110.074
G0 X113.87 Y107.676
G0 X111.22 Y105.967
;TYPE:WALL-INNER
G1 F1500 E11.88488
G1 F767.8 X111.083 Y105.941 E11.88952
G1 X110.841 Y105.686 E11.90121
G1 X110.647 Y105.378 E11.91332
G1 X110.352 Y104.978 E11.92985
G1 X110.09 Y104.658 E11.94361
G1 X109.925 Y104.42 E11.95324
G1 X109.799 Y104.263 E11.95993
G1 X110.132 Y104.213 E11.96616
G1 X110.393 Y104.167 E11.97497
G1 X110.54 Y104.152 E11.97989
G1 X110.651 Y104.454 E11.99059
G1 X110.913 Y105.06 E12.01255
G1 X110.98 Y105.296 E12.01971
G1 X111.074 Y105.643 E12.02894
G1 X111.22 Y105.967 E12.03606
G0 F7500 X114.156 Y107.171
G1 F767.8 X113.899 Y107.019 E12.04599
G1 X113.503 Y106.779 E12.06139
G1 X114.136 Y106.614 E12.08315
G1 X114.435 Y106.525 E12.09353
G1 X114.629 Y106.443 E12.10053
G1 X114.487 Y106.754 E12.10581
G1 X114.275 Y107.082 E12.1188
G1 X114.156 Y107.171 E12.12374
G0 F7500 X114.189 Y107.644
G1 F767.8 X113.952 Y107.515 E12.13272
G1 X113.695 Y107.363 E12.14265
G1 X112.983 Y106.932 E12.17033
G1 X112.767 Y106.798 E12.17879
G1 X112.423 Y106.618 E12.1917
G1 X112.022 Y106.468 E12.20594
G1 X111.696 Y106.4 E12.21701
G1 X111.466 Y106.381 E12.22469
G1 X111.114 Y106.362 E12.23642
G1 X110.886 Y106.303 E12.24425
G1 X110.615 Y106.055 E12.25647
G1 X110.51 Y105.911 E12.26239
G1 X110.316 Y105.604 E12.27447
G1 X110.036 Y105.224 E12.29017
G1 X109.772 Y104.902 E12.30402
G1 X109.604 Y104.659 E12.31385
G1 X109.367 Y104.364 E12.32643
G1 X109.066 Y104.061 E12.34064
G1 X109.091 Y104.041 E12.3417
G1 X109.328 Y103.951 E12.34406
G1 X109.586 Y103.893 E12.35286
G1 X109.735 Y103.868 E12.35788
G1 X110.068 Y103.818 E12.36908
G1 X110.336 Y103.771 E12.37813
G1 X110.431 Y103.759 E12.38132
G1 X110.8 Y103.728 E12.39363
G1 X110.889 Y103.94 E12.40128
G1 X111.023 Y104.306 E12.41425
G1 X111.292 Y104.93 E12.43685
G1 X111.366 Y105.191 E12.44587
G1 X111.452 Y105.508 E12.45679
G1 X111.666 Y105.984 E12.47415
G1 X111.932 Y106.276 E12.48503
G1 X112.346 Y106.492 E12.49497
G1 X112.77 Y106.533 E12.50426
G1 X113.214 Y106.441 E12.51935
G1 X114.028 Y106.229 E12.54732
G1 X114.299 Y106.148 E12.55673
G1 X114.567 Y106.034 E12.56642
G1 X114.797 Y105.92 E12.57495
G1 X115.043 Y105.753 E12.58484
G1 X115.276 Y105.562 E12.59486
G1 X115.472 Y105.716 E12.60315
G1 X115.428 Y105.817 E12.60528
G1 X115.16 Y106.283 E12.62315
G1 X114.981 Y106.633 E12.63623
G1 X114.846 Y106.932 E12.64714
G1 X114.692 Y107.195 E12.65728
G1 X114.571 Y107.353 E12.6639
G1 X114.369 Y107.536 E12.67296
G1 X114.189 Y107.644 E12.67994
G0 F7500 X114.136 Y108.072
;TYPE:WALL-OUTER
G1 F767.8 X113.759 Y107.865 E12.69425
G1 X113.488 Y107.705 E12.70472
G1 X112.776 Y107.274 E12.7324
G1 X112.569 Y107.146 E12.74049
G1 X112.259 Y106.984 E12.75213
G1 X111.911 Y106.853 E12.76449
G1 X111.639 Y106.797 E12.77373
G1 X111.438 Y106.78 E12.78044
G1 X111.051 Y106.759 E12.79333
G1 X110.716 Y106.672 E12.80484
G1 X110.498 Y106.521 E12.81366
G1 X110.308 Y106.312 E12.82306
G1 X110.174 Y106.128 E12.83063
G1 X109.985 Y105.83 E12.84236
G1 X109.72 Y105.469 E12.85726
G1 X109.457 Y105.148 E12.87106
G1 X109.284 Y104.899 E12.88115
G1 X109.069 Y104.632 E12.89255
G1 X108.857 Y104.42 E12.90252
G1 X108.659 Y104.214 E12.91202
G1 X108.602 Y104.034 E12.9183
G1 X108.679 Y103.859 E12.92466
G1 X108.889 Y103.69 E12.93363
G1 X109.208 Y103.568 E12.94499
G1 X109.506 Y103.501 E12.95515
G1 X109.676 Y103.472 E12.96088
G1 X110.004 Y103.423 E12.97191
G1 X110.279 Y103.375 E12.9812
G1 X110.397 Y103.36 E12.98515
G1 X110.813 Y103.325 E12.99904
G1 X111.065 Y103.365 E13.00753
G1 X111.19 Y103.574 E13.01562
G1 X111.267 Y103.809 E13.02385
G1 X111.395 Y104.158 E13.03621
G1 X111.549 Y104.518 E13.04924
G1 X111.669 Y104.793 E13.05922
G1 X111.752 Y105.086 E13.06935
G1 X111.83 Y105.373 E13.07924
G1 X112.005 Y105.762 E13.09342
G1 X112.18 Y105.954 E13.10206
G1 X112.462 Y106.101 E13.11264
G1 X112.749 Y106.129 E13.12223
G1 X113.122 Y106.052 E13.1349
G1 X113.385 Y105.982 E13.14395
G1 X113.92 Y105.844 E13.16233
G1 X114.163 Y105.771 E13.17077
G1 X114.4 Y105.67 E13.17934
G1 X114.595 Y105.574 E13.18657
G1 X114.803 Y105.432 E13.19494
G1 X115.071 Y105.213 E13.20645
G1 X115.274 Y105.114 E13.21397
G1 X115.544 Y105.249 E13.22401
G1 X115.807 Y105.469 E13.23541
G1 X115.895 Y105.624 E13.24134
G1 X115.856 Y105.837 E13.24854
G1 X115.788 Y105.991 E13.25414
G1 X115.512 Y106.474 E13.27264
G1 X115.341 Y106.807 E13.28509
G1 X115.199 Y107.122 E13.29658
G1 X115.028 Y107.413 E13.30781
G1 X114.864 Y107.627 E13.31678
G1 X114.61 Y107.858 E13.3282
G1 X114.317 Y108.033 E13.33955
G1 X114.136 Y108.072 E13.34571
G0 F7500 X114.199 Y107.637
G0 X114.054 Y106.844
;TYPE:SKIN
G1 F767.8 X113.273 Y106.778 E13.35219
G1 X113.075 Y106.692 E13.35398
G0 F7500 X113.132 Y106.635
G0 X114.657 Y106.242
G0 X114.715 Y106.184
G1 F767.8 X114.915 Y106.266 E13.36231
G0 F7500 X115.035 Y106.147
G0 X112.762 Y106.37
G0 X111.488 Y106.017
G0 X111.397 Y106.107
G1 F767.8 X110.762 Y105.894 E13.36651
G1 X110.613 Y106.326 E13.36937
G0 F7500 X110.677 Y106.271
G0 X110.56 Y104.965
G0 X110.601 Y104.923
G1 F767.8 X110.497 Y104.744 E13.37156
G1 X110.253 Y104.423 E13.37583
G1 X109.426 Y104.119 E13.38515
G0 F7500 X109.441 Y104.105
G0 X110.923 Y103.723
G0 X110.966 Y103.711
G1 F767.8 X111.029 Y103.648 E13.38664
G0 F7500 X110.652 Y103.94
G1 F1500 E6.88664
G0 F7500 X110.479 Y106.174
G0 X109.704 Y106.934
G0 X108.978 Y108.47
G0 X108.405 Y109.394
G0 X107.543 Y109.401
;TYPE:WALL-INNER
G1 F1500 E13.38664
G1 F767.8 X107.837 Y109.406 E13.39642
G1 X108.127 Y109.458 E13.40622
G1 X108.289 Y109.539 E13.41224
G1 X108.406 Y109.68 E13.41833
G1 X108.479 Y109.87 E13.4251
G1 X108.496 Y110.043 E13.43088
G1 X108.414 Y110.232 E13.43774
G1 X108.192 Y110.353 E13.44615
G1 X108.023 Y110.137 E13.45527
G1 X107.862 Y109.915 E13.46439
G1 X107.711 Y109.69 E13.4734
G1 X107.565 Y109.446 E13.47759
G1 X107.543 Y109.401
G0 F7500 X106.935 Y109.053
;TYPE:WALL-OUTER
G1 F767.8 X107.188 Y109.006 E13.48615
G1 X107.349 Y108.998 E13.49151
G1 X107.876 Y109.007 E13.50904
G1 X108.255 Y109.074 E13.52184
G1 X108.544 Y109.219 E13.5326
G1 X108.755 Y109.473 E13.54358
G1 X108.872 Y109.777 E13.55441
G1 X108.902 Y110.084 E13.56467
G1 X108.808 Y110.388 E13.57526
G1 X108.67 Y110.548 E13.58228
G1 X108.359 Y110.717 E13.59406
G1 X108.136 Y110.817 E13.60219
G1 X108.046 Y110.792 E13.60529
G1 X107.879 Y110.604 E13.61366
G1 X107.707 Y110.383 E13.62297
G1 X107.538 Y110.15 E13.63254
G1 X107.379 Y109.913 E13.64204
G1 X107.214 Y109.637 E13.65273
G1 X107.02 Y109.253 E13.66704
G1 X106.935 Y109.053 E13.67427
G0 F7500 X107.306 Y109.255
G0 X107.994 Y109.794
G0 X108.063 Y109.724
;TYPE:SKIN
G1 F767.8 X108.188 Y109.882 E13.67681
G1 X108.266 Y110.087 E13.67957
G1 X108.627 Y110.291 E13.6848
G0 F7500 X108.245 Y110.097
G1 F1500 E7.1848
;MESH:NONMESH
G0 F300 X108.245 Y110.097 Z0.6
G0 F7500 X108.144 Y110.577
G0 X107.976 Y112.291
G0 X109.691 Y113.165
G0 X109.899 Y113.55
G0 X109.759 Y114.742
;TIME_ELAPSED:39.662151
;LAYER:2
M106 S170
;TYPE:WALL-INNER
;MESH:pose1_34.stl
G1 F1500 E13.6848
G1 F1366.7 X109.755 Y114.737 E13.68501
G1 X109.239 Y114.428 E13.70501
G1 X108.555 Y114.307 E13.72812
G1 X108.093 Y114.411 E13.74387
G1 X107.715 Y114.188 E13.75846
G1 X107.332 Y113.977 E13.77301
G1 X106.977 Y113.802 E13.78617
G1 X106.784 Y113.54 E13.79699
G1 X106.746 Y113.433 E13.80077
G1 X106.925 Y113.363 E13.80716
G1 X107.411 Y113.015 E13.82704
G1 X107.693 Y112.681 E13.84158
G1 X107.935 Y112.275 E13.8573
G1 X108.113 Y111.928 E13.87028
G1 X108.253 Y111.476 E13.88601
G1 X108.26 Y110.965 E13.90301
G1 X108.105 Y110.447 E13.92099
G1 X107.918 Y110.121 E13.93349
G1 X107.814 Y109.959 E13.9399
G1 X107.578 Y109.641 E13.95307
G1 X107.384 Y109.391 E13.96359
G1 X107.205 Y109.183 E13.97272
G1 X107.553 Y109.241 E13.97739
G1 X108.184 Y109.319 E13.99854
G1 X108.517 Y109.383 E14.00982
G1 X108.774 Y109.459 E14.01873
G1 X108.822 Y109.486 E14.02056
G1 X109.015 Y109.767 E14.0319
G1 X109.201 Y110.16 E14.04636
G1 X109.327 Y110.448 E14.05682
G1 X109.594 Y110.944 E14.07555
G1 X109.908 Y111.304 E14.09144
G1 X110.305 Y111.623 E14.10838
G1 X110.563 Y111.797 E14.11873
G1 X110.848 Y111.966 E14.12975
G1 X111.08 Y112.088 E14.13847
G1 X111.308 Y112.219 E14.14722
G1 X111.43 Y112.286 E14.15185
G1 X111.444 Y112.458 E14.15759
G1 X111.504 Y112.802 E14.1692
G1 X111.65 Y113.255 E14.18503
G1 X111.828 Y113.515 E14.19551
G1 X111.887 Y113.671 E14.20106
G1 X111.999 Y113.992 E14.21237
G1 X112.189 Y114.368 E14.22638
G1 X112.128 Y114.414 E14.22892
G1 X112.038 Y114.324
G1 X111.512 Y114.067 E14.24839
G1 X110.998 Y114.015 E14.26557
G1 X110.467 Y114.139 E14.28371
G1 X110.013 Y114.459 E14.30218
G1 X109.759 Y114.742 E14.31483
G0 F9000 X109.824 Y115.495
G1 F1366.7 X109.775 Y115.372 E14.31923
G1 X109.494 Y115.047 E14.33352
G1 X109.097 Y114.809 E14.34892
G1 X108.565 Y114.715 E14.36689
G1 X108.1 Y114.82 E14.38274
G1 X107.967 Y114.904 E14.38798
G1 X107.845 Y114.729 E14.39507
G1 X107.517 Y114.535 E14.40775
G1 X107.161 Y114.339 E14.42126
G1 X106.928 Y114.246 E14.42961
G1 X106.719 Y114.112 E14.43786
G1 X106.553 Y113.932 E14.44601
G1 X106.421 Y113.711 E14.45457
G1 X106.307 Y113.396 E14.46571
G1 X106.229 Y113.169 E14.47369
G1 X106.372 Y113.15 E14.47433
G1 X106.733 Y113.009 E14.48722
G1 X107.137 Y112.719 E14.50376
G1 X107.366 Y112.448 E14.51556
G1 X107.585 Y112.081 E14.52978
G1 X107.741 Y111.776 E14.54117
G1 X107.854 Y111.413 E14.55382
G1 X107.859 Y111.021 E14.56685
G1 X107.735 Y110.606 E14.58126
G1 X107.576 Y110.329 E14.59188
G1 X107.485 Y110.187 E14.59749
G1 X107.259 Y109.883 E14.61009
G1 X107.074 Y109.644 E14.62014
G1 X106.802 Y109.328 E14.63401
G1 X106.586 Y109.126 E14.64385
G1 X106.387 Y108.972 E14.65222
G1 X106.296 Y108.874 E14.65667
G1 X106.369 Y108.631 E14.6651
G1 X106.525 Y108.599 E14.6704
G1 X106.853 Y108.676 E14.68161
G1 X107.154 Y108.769 E14.69208
G1 X107.61 Y108.845 E14.70746
G1 X108.248 Y108.924 E14.72884
G1 X108.613 Y108.994 E14.7412
G1 X108.932 Y109.088 E14.75227
G1 X109.099 Y109.183 E14.75866
G1 X109.358 Y109.561 E14.7739
G1 X109.46 Y109.767 E14.78154
G1 X109.568 Y110 E14.79008
G1 X109.687 Y110.273 E14.79999
G1 X109.925 Y110.715 E14.81668
G1 X110.186 Y111.014 E14.82989
G1 X110.543 Y111.301 E14.84512
G1 X110.777 Y111.459 E14.85451
G1 X111.043 Y111.617 E14.8648
G1 X111.279 Y111.741 E14.87367
G1 X111.504 Y111.87 E14.88229
G1 X111.812 Y112.04 E14.894
G1 X111.841 Y112.408 E14.90627
G1 X111.893 Y112.706 E14.91633
G1 X112.013 Y113.077 E14.9293
G1 X112.187 Y113.332 E14.93957
G1 X112.265 Y113.54 E14.94696
G1 X112.368 Y113.836 E14.95738
G1 X112.541 Y114.179 E14.97016
G1 X112.726 Y114.437 E14.98072
G1 X112.51 Y114.627 E14.99029
G1 X112.203 Y114.86 E15.00311
G1 X112.09 Y114.956 E15.00804
G1 X112.068 Y114.92
G1 X111.802 Y114.654 E15.02055
G1 X111.401 Y114.458 E15.0354
G1 X111.024 Y114.42 E15.048
G1 X110.634 Y114.511 E15.06132
G1 X110.281 Y114.76 E15.07569
G1 X110.04 Y115.029 E15.0877
G1 X109.87 Y115.33 E15.0992
G1 X109.824 Y115.495 E15.10071
G0 F9000 X109.697 Y116.878
G1 F1366.7 X109.871 Y116.575 E15.11234
G1 X110.016 Y116.826 E15.11563
G1 X109.729 Y116.882 E15.11932
G1 X109.697 Y116.878
G0 F9000 X109.084 Y116.98
;TYPE:WALL-OUTER
G1 F1366.7 X109.29 Y116.759 E15.12937
G1 X109.475 Y116.5 E15.13996
G1 X109.569 Y116.209 E15.15013
G1 X109.564 Y115.92 E15.15974
G1 X109.429 Y115.583 E15.17182
G1 X109.233 Y115.357 E15.18177
G1 X108.955 Y115.19 E15.19255
G1 X108.575 Y115.123 E15.20539
G1 X108.255 Y115.195 E15.2163
G1 X107.873 Y115.435 E15.2313
G1 X107.771 Y115.522 E15.23576
G1 X107.737 Y115.272 E15.24415
G1 X107.567 Y115.029 E15.25402
G1 X107.319 Y114.882 E15.26361
G1 X106.99 Y114.701 E15.27609
G1 X106.745 Y114.603 E15.28487
G1 X106.459 Y114.421 E15.29615
G1 X106.232 Y114.173 E15.30733
G1 X106.058 Y113.882 E15.31861
G1 X105.931 Y113.532 E15.33099
G1 X105.824 Y113.221 E15.34193
G1 X105.686 Y112.909 E15.35328
G1 X105.654 Y112.776 E15.35783
G1 X106.014 Y112.795 E15.36982
G1 X106.271 Y112.76 E15.37844
G1 X106.541 Y112.655 E15.38808
G1 X106.863 Y112.423 E15.40128
G1 X107.039 Y112.215 E15.41034
G1 X107.235 Y111.887 E15.42305
G1 X107.369 Y111.624 E15.43287
G1 X107.455 Y111.35 E15.44242
G1 X107.458 Y111.077 E15.4515
G1 X107.365 Y110.765 E15.46233
G1 X107.234 Y110.536 E15.4711
G1 X107.156 Y110.414 E15.47592
G1 X106.941 Y110.125 E15.4879
G1 X106.764 Y109.897 E15.4975
G1 X106.513 Y109.605 E15.51031
G1 X106.327 Y109.431 E15.51878
G1 X106.117 Y109.269 E15.5276
G1 X105.933 Y109.076 E15.53647
G1 X105.888 Y108.885 E15.54299
G1 X105.952 Y108.535 E15.55483
G1 X106.096 Y108.322 E15.56338
G1 X106.307 Y108.214 E15.57126
G1 X106.558 Y108.196 E15.57963
G1 X106.948 Y108.287 E15.59295
G1 X107.246 Y108.379 E15.60333
G1 X107.667 Y108.449 E15.61752
G1 X108.312 Y108.529 E15.63914
G1 X108.709 Y108.605 E15.65258
G1 X109.088 Y108.717 E15.66573
G1 X109.365 Y108.874 E15.67632
G1 X109.566 Y109.128 E15.68709
G1 X109.578 Y109.143 E15.68773
G1 X109.704 Y109.361 E15.6961
G1 X109.824 Y109.6 E15.705
G1 X109.931 Y109.833 E15.71353
G1 X110.047 Y110.098 E15.72315
G1 X110.256 Y110.486 E15.7378
G1 X110.464 Y110.724 E15.74832
G1 X110.781 Y110.979 E15.76185
G1 X110.991 Y111.121 E15.77028
G1 X111.238 Y111.268 E15.77984
G1 X111.478 Y111.394 E15.78886
G1 X111.7 Y111.521 E15.79736
G1 X112.012 Y111.694 E15.80923
G1 X112.189 Y111.793 E15.81597
G1 X112.225 Y112.157 E15.82814
G1 X112.239 Y112.36 E15.83491
G1 X112.282 Y112.61 E15.84334
G1 X112.376 Y112.899 E15.85345
G1 X112.545 Y113.147 E15.86343
G1 X112.643 Y113.409 E15.87274
G1 X112.737 Y113.68 E15.88228
G1 X112.884 Y113.971 E15.89312
G1 X113.116 Y114.295 E15.90638
G1 X113.228 Y114.477 E15.91348
G1 X113.133 Y114.6 E15.91865
G1 X112.903 Y114.82 E15.92924
G1 X112.763 Y114.936 E15.93529
G1 X112.453 Y115.172 E15.94824
G1 X112.188 Y115.396 E15.95979
G1 X111.975 Y115.536 E15.96826
G1 X111.751 Y115.169 E15.98256
G1 X111.566 Y114.984 E15.99127
G1 X111.29 Y114.849 E16.00148
G1 X111.05 Y114.825 E16.00951
G1 X110.801 Y114.883 E16.01801
G1 X110.548 Y115.061 E16.0283
G1 X110.367 Y115.263 E16.03732
G1 X110.243 Y115.484 E16.04575
G1 X110.152 Y115.812 E16.05707
G1 X110.16 Y116.156 E16.06851
G1 X110.233 Y116.402 E16.07705
G1 X110.377 Y116.652 E16.08664
G1 X110.568 Y116.885 E16.09667
G1 X110.529 Y116.972 E16.09984
G1 X110.316 Y117.136 E16.10878
G1 X110.059 Y117.24 E16.118
G1 X109.73 Y117.286 E16.12905
G1 X109.465 Y117.25 E16.13794
G1 X109.215 Y117.135 E16.1471
G1 X109.084 Y116.98 E16.15385
G0 F9000 X109.317 Y116.985
G0 X109.6 Y116.563
G0 X109.697 Y116.263
G0 X109.541 Y114.479
G0 X109.685 Y114.24
;TYPE:SKIN
G1 F1366.7 X109.378 Y114.056 E16.16575
G1 X108.545 Y113.909 E16.19388
G1 X108.158 Y113.997 E16.20708
G1 X107.908 Y113.849 E16.21675
G1 X107.513 Y113.631 E16.23175
G1 X107.34 Y113.546 E16.23816
G1 X107.678 Y113.304 E16.25199
G1 X108.011 Y112.908 E16.2692
G1 X108.276 Y112.464 E16.2864
G1 X108.476 Y112.076 E16.30091
G1 X108.643 Y111.538 E16.31965
G1 X108.65 Y110.91 E16.34054
G1 X108.466 Y110.293 E16.36195
G1 X108.252 Y109.919 E16.37629
G1 X108.109 Y109.703 E16.3849
G1 X108.424 Y109.762 E16.39556
G1 X108.568 Y109.805 E16.40056
G1 X108.674 Y109.959 E16.40678
G1 X108.858 Y110.347 E16.42106
G1 X108.976 Y110.619 E16.43092
G1 X109.272 Y111.168 E16.45167
G1 X109.637 Y111.587 E16.47015
G1 X110.073 Y111.937 E16.48874
G1 X110.354 Y112.127 E16.50003
G1 X110.657 Y112.307 E16.51175
G1 X110.892 Y112.43 E16.52057
G1 X111.059 Y112.526 E16.52698
G1 X111.124 Y112.896 E16.53947
G1 X111.297 Y113.428 E16.55808
G1 X111.461 Y113.67 E16.5678
G1 X110.973 Y113.621 E16.58411
G1 X110.305 Y113.776 E16.60692
G1 X109.752 Y114.166 E16.62943
G1 X109.685 Y114.24 E16.63275
G0 F9000 X109.541 Y114.479
G0 X111.79 Y113.986
G0 X111.53 Y113.241
G0 X111.111 Y113.374
G1 F1366.7 X108.808 Y111.07 E16.7411
G0 F9000 X108.786 Y111.614
G1 F1366.7 X110.692 Y113.521 E16.83077
G0 F9000 X110.235 Y113.629
G1 F1366.7 X108.651 Y112.046 E16.90526
G0 F9000 X108.471 Y112.431
G1 F1366.7 X109.903 Y113.863 E16.97261
G0 F9000 X109.364 Y113.89
G1 F1366.7 X108.265 Y112.791 E17.02431
G0 F9000 X108.034 Y113.125
G1 F1366.7 X108.677 Y113.768 E17.05455
G0 F9000 X108.148 Y113.805
G1 F1366.7 X107.775 Y113.431 E17.07212
G0 F9000 X107.488 Y113.097
G0 X107.793 Y109.746
G0 X107.941 Y109.638
;TYPE:SKIN
G1 F1366.7 X107.725 Y109.422 E17.0772
G0 F9000 X107.731 Y109.374
G0 X108.703 Y109.618
G0 X111.263 Y112.395
G0 X111.76 Y113.643
G0 X111.689 Y113.669
G1 F1366.7 X111.732 Y113.711 E17.0782
G0 F9000 X111.568 Y113.83
G1 F1366.7 X111.735 Y113.998 E17.08214
G0 F9000 X112.371 Y114.351
G1 F1366.7 X112.458 Y114.438 E17.08419
G0 F9000 X112.057 Y114.507
G0 X109.874 Y114.965
G0 X109.847 Y114.938
G1 F1366.7 X109.849 Y115.789 E17.09127
G1 X109.824 Y116.329 E17.09577
G1 X109.355 Y116.992 E17.10253
G0 F9000 X109.39 Y116.995
G0 X109.708 Y116.229
G0 X109.703 Y115.893
G0 X109.55 Y115.51
G0 X109.323 Y115.249
G0 X107.024 Y114.095
G0 X106.989 Y114.06
G1 F1366.7 X106.728 Y113.799 E17.10604
G0 F9000 X106.688 Y113.759
G0 X107.594 Y111.372
G0 X107.595 Y111.119
G0 X106.985 Y109.247
G0 X106.753 Y109.016
G1 F1366.7 X106.141 Y108.686 E17.11437
G1 X106.988 Y108.968 E17.12507
G0 F9000 X107.087 Y109.067
G1 F1500 E10.62507
G0 F9000 X109.715 Y109.65
G0 X110.574 Y109.169
G0 X111.9 Y108.767
G0 X112.662 Y107.99
G0 X113.845 Y108.537
;TYPE:WALL-INNER
G1 F1500 E17.12507
G1 F1366.7 X113.714 Y108.286 E17.13449
G1 X113.499 Y107.995 E17.14652
G1 X113.326 Y107.814 E17.15485
G1 X113.037 Y107.546 E17.16796
G1 X112.668 Y107.264 E17.1834
G1 X112.276 Y107.052 E17.19823
G1 X111.813 Y106.876 E17.2147
G1 X111.33 Y106.777 E17.2311
G1 X110.96 Y106.728 E17.24351
G1 X110.884 Y106.708 E17.24613
G1 X110.753 Y106.513 E17.25394
G1 X110.749 Y106.382 E17.2583
G1 X110.552 Y106.11 E17.26947
G1 X110.44 Y105.861 E17.27855
G1 X110.238 Y105.488 E17.29266
G1 X110.032 Y105.198 E17.30449
G1 X109.691 Y104.8 E17.32192
G1 X109.522 Y104.56 E17.33169
G1 X109.328 Y104.351 E17.34117
G1 X109.526 Y104.332 E17.3426
G1 X109.788 Y104.299 E17.34906
G1 X110.378 Y104.193 E17.369
G1 X110.563 Y104.151 E17.37531
G1 X110.844 Y104.083 E17.38492
G1 X111.069 Y104.023 E17.39267
G1 X111.202 Y104.226 E17.40074
G1 X111.432 Y104.541 E17.41371
G1 X111.863 Y105.12 E17.43772
G1 X112.257 Y105.525 E17.45651
G1 X112.82 Y105.767 E17.47689
G1 X113.338 Y105.799 E17.49416
G1 X113.871 Y105.708 E17.51214
G1 X114.244 Y105.574 E17.52532
G1 X114.399 Y105.503 E17.53099
G1 X114.564 Y105.666 E17.53871
G1 X114.826 Y105.891 E17.55019
G1 X115.21 Y106.144 E17.56549
G1 X115.262 Y106.165 E17.56735
G1 X115.151 Y106.469 E17.57812
G1 X115.009 Y106.686 E17.58674
G1 X114.854 Y106.886 E17.59516
G1 X114.672 Y107.111 E17.60478
G1 X114.373 Y107.488 E17.62079
G1 X114.15 Y107.775 E17.63288
G1 X113.926 Y108.162 E17.64775
G1 X113.845 Y108.537 E17.65327
G0 F9000 X113.806 Y110.889
G1 F1366.7 X113.836 Y110.782 E17.65697
G1 X113.913 Y110.438 E17.66869
G1 X114.016 Y109.938 E17.68567
G1 X114.054 Y109.581 E17.69761
G1 X114.051 Y109.504 E17.70017
G1 X114.467 Y109.881 E17.71885
G1 X114.975 Y110.043 E17.73658
G1 X115.392 Y110.07 E17.75048
G1 X115.35 Y110.117
G1 X115.179 Y110.355 E17.75551
G1 X115.085 Y110.438 E17.75908
G1 X114.892 Y110.481 E17.76565
G1 X114.471 Y110.611 E17.78031
G1 X113.806 Y110.889 E17.80428
G0 F9000 X113.309 Y111.181
G1 F1366.7 X113.448 Y110.684 E17.82144
G1 X113.522 Y110.354 E17.83269
G1 X113.62 Y109.876 E17.84892
G1 X113.653 Y109.567 E17.85926
G1 X113.639 Y109.19 E17.87181
G1 X113.562 Y108.858 E17.88314
G1 X113.374 Y108.499 E17.89662
G1 X113.192 Y108.253 E17.9068
G1 X113.045 Y108.099 E17.91388
G1 X112.779 Y107.852 E17.92595
G1 X112.45 Y107.601 E17.93971
G1 X112.109 Y107.416 E17.95262
G1 X111.701 Y107.261 E17.96713
G1 X111.264 Y107.172 E17.98197
G1 X110.886 Y107.122 E17.99465
G1 X110.699 Y107.073 E18.00108
G1 X110.6 Y107.003 E18.00511
G1 X110.436 Y106.758 E18.01492
G1 X110.358 Y106.668 E18.01888
G1 X110.353 Y106.517 E18.0239
G1 X110.204 Y106.311 E18.03236
G1 X110.081 Y106.039 E18.04229
G1 X109.898 Y105.7 E18.0551
G1 X109.716 Y105.444 E18.06555
G1 X109.373 Y105.043 E18.0831
G1 X109.21 Y104.812 E18.0925
G1 X108.926 Y104.505 E18.10641
G1 X108.575 Y104.293 E18.12005
G1 X108.462 Y104.249 E18.12408
G1 X108.581 Y104.166 E18.12562
G1 X108.92 Y104.024 E18.13785
G1 X109.157 Y103.965 E18.14597
G1 X109.482 Y103.934 E18.15683
G1 X109.728 Y103.903 E18.16507
G1 X110.299 Y103.801 E18.18437
G1 X110.471 Y103.762 E18.19023
G1 X110.745 Y103.695 E18.19961
G1 X111.26 Y103.558 E18.21734
G1 X111.376 Y103.761 E18.22512
G1 X111.531 Y103.999 E18.23456
G1 X111.754 Y104.304 E18.24713
G1 X112.168 Y104.86 E18.27019
G1 X112.488 Y105.189 E18.28545
G1 X112.914 Y105.372 E18.30087
G1 X113.317 Y105.397 E18.3143
G1 X113.769 Y105.32 E18.32955
G1 X114.092 Y105.204 E18.34097
G1 X114.343 Y105.088 E18.35016
G1 X114.476 Y105.046 E18.3548
G1 X114.602 Y105.141 E18.36005
G1 X114.835 Y105.372 E18.37096
G1 X115.067 Y105.571 E18.38113
G1 X115.396 Y105.788 E18.39424
G1 X115.68 Y105.901 E18.4044
G1 X115.747 Y105.934 E18.40689
G1 X115.673 Y106.187 E18.41565
G1 X115.582 Y106.486 E18.42605
G1 X115.501 Y106.665 E18.43258
G1 X115.336 Y106.917 E18.4426
G1 X115.165 Y107.137 E18.45187
G1 X114.984 Y107.361 E18.46145
G1 X114.688 Y107.735 E18.47731
G1 X114.483 Y107.999 E18.48843
G1 X114.304 Y108.308 E18.50031
G1 X114.206 Y108.761 E18.51572
G1 X114.334 Y109.221 E18.5316
G1 X114.671 Y109.526 E18.54672
G1 X115.05 Y109.647 E18.55995
G1 X115.394 Y109.67 E18.57142
G1 X115.719 Y109.671 E18.58223
G1 X116.318 Y109.634 E18.60219
G1 X116.186 Y109.833 E18.61013
G1 X115.95 Y110.045 E18.61752
G1 X115.662 Y110.368 E18.63192
G1 X115.478 Y110.623 E18.64238
G1 X115.272 Y110.807 E18.65156
G1 X114.994 Y110.868 E18.66103
G1 X114.608 Y110.987 E18.67446
G1 X114.084 Y111.207 E18.69337
G1 X113.813 Y111.32 E18.70313
G1 X113.61 Y111.261 E18.71016
G1 X113.309 Y111.181 E18.72052
G0 F9000 X112.84 Y111.423
;TYPE:WALL-OUTER
G1 F1366.7 X112.902 Y111.148 E18.7299
G1 X112.975 Y110.893 E18.73872
G1 X113.06 Y110.587 E18.74928
G1 X113.131 Y110.27 E18.76009
G1 X113.224 Y109.815 E18.77553
G1 X113.252 Y109.553 E18.7843
G1 X113.241 Y109.243 E18.79461
G1 X113.184 Y108.998 E18.80298
G1 X113.034 Y108.712 E18.81372
G1 X112.885 Y108.511 E18.82204
G1 X112.764 Y108.384 E18.82788
G1 X112.521 Y108.158 E18.83892
G1 X112.232 Y107.938 E18.851
G1 X111.942 Y107.78 E18.86198
G1 X111.59 Y107.647 E18.8745
G1 X111.197 Y107.567 E18.88784
G1 X110.803 Y107.514 E18.90106
G1 X110.531 Y107.442 E18.91042
G1 X110.308 Y107.287 E18.91945
G1 X110.118 Y107.002 E18.93084
G1 X109.962 Y106.824 E18.93871
G1 X109.957 Y106.652 E18.94444
G1 X109.855 Y106.511 E18.95022
G1 X109.722 Y106.216 E18.96099
G1 X109.558 Y105.912 E18.97248
G1 X109.4 Y105.69 E18.98154
G1 X109.055 Y105.286 E18.99921
G1 X108.898 Y105.064 E19.00825
G1 X108.671 Y104.818 E19.01939
G1 X108.399 Y104.654 E19.02995
G1 X108.247 Y104.596 E19.03536
G1 X107.982 Y104.503 E19.0447
G1 X107.834 Y104.387 E19.05096
G1 X107.867 Y104.261 E19.05529
G1 X108.105 Y104.011 E19.06677
G1 X108.391 Y103.812 E19.07836
G1 X108.792 Y103.644 E19.09282
G1 X109.089 Y103.57 E19.103
G1 X109.438 Y103.536 E19.11466
G1 X109.668 Y103.507 E19.12237
G1 X110.22 Y103.409 E19.14102
G1 X110.38 Y103.373 E19.14647
G1 X110.646 Y103.308 E19.15558
G1 X111.185 Y103.163 E19.17414
G1 X111.391 Y103.142 E19.18103
G1 X111.545 Y103.25 E19.18729
G1 X111.718 Y103.552 E19.19886
G1 X111.861 Y103.772 E19.20759
G1 X112.076 Y104.067 E19.21973
G1 X112.473 Y104.6 E19.24184
G1 X112.719 Y104.853 E19.25357
G1 X113.008 Y104.977 E19.26403
G1 X113.296 Y104.995 E19.27363
G1 X113.667 Y104.932 E19.28615
G1 X113.94 Y104.834 E19.29579
G1 X114.186 Y104.72 E19.30481
G1 X114.425 Y104.634 E19.31326
G1 X114.634 Y104.665 E19.32029
G1 X114.862 Y104.837 E19.32979
G1 X115.106 Y105.077 E19.34117
G1 X115.309 Y105.251 E19.35006
G1 X115.582 Y105.432 E19.36096
G1 X115.837 Y105.533 E19.37008
G1 X116.09 Y105.66 E19.3795
G1 X116.183 Y105.799 E19.38506
G1 X116.116 Y106.125 E19.39613
G1 X116.054 Y106.309 E19.40258
G1 X115.958 Y106.627 E19.41363
G1 X115.853 Y106.858 E19.42207
G1 X115.658 Y107.155 E19.43389
G1 X115.476 Y107.389 E19.44375
G1 X115.296 Y107.611 E19.45326
G1 X115.003 Y107.981 E19.46895
G1 X114.816 Y108.223 E19.47913
G1 X114.682 Y108.454 E19.48801
G1 X114.618 Y108.749 E19.49805
G1 X114.688 Y109.002 E19.50678
G1 X114.875 Y109.171 E19.51516
G1 X115.125 Y109.251 E19.52389
G1 X115.408 Y109.27 E19.53333
G1 X115.707 Y109.271 E19.54327
G1 X116.373 Y109.23 E19.56546
G1 X116.63 Y109.259 E19.57407
G1 X116.735 Y109.355 E19.5788
G1 X116.751 Y109.588 E19.58657
G1 X116.664 Y109.864 E19.59619
G1 X116.484 Y110.103 E19.60614
G1 X116.234 Y110.328 E19.61733
G1 X115.974 Y110.619 E19.63031
G1 X115.791 Y110.873 E19.64072
G1 X115.595 Y111.084 E19.6503
G1 X115.416 Y111.185 E19.65713
G1 X115.096 Y111.255 E19.66803
G1 X114.745 Y111.363 E19.68024
G1 X114.251 Y111.571 E19.69807
G1 X113.987 Y111.702 E19.70787
G1 X113.778 Y111.727 E19.71487
G1 X113.502 Y111.646 E19.72444
G1 X113.242 Y111.577 E19.73339
G1 X113.035 Y111.567 E19.74028
G1 X112.84 Y111.423 E19.74834
G0 F9000 X113.157 Y111.305
G0 X114.433 Y110.507
G0 X114.419 Y110.459
;TYPE:SKIN
G1 F1366.7 X114.13 Y110.17 E19.76194
G0 F9000 X114.625 Y110.1
G1 F1366.7 X114.851 Y110.326 E19.77257
G0 F9000 X114.862 Y110.376
G0 X113.989 Y107.832
G0 X113.748 Y107.692
G1 F1366.7 X113.599 Y107.536 E19.77974
G1 X113.288 Y107.247 E19.79386
G1 X112.88 Y106.936 E19.81093
G1 X112.438 Y106.697 E19.82764
G1 X111.922 Y106.5 E19.84601
G1 X111.394 Y106.393 E19.86393
G1 X111.138 Y106.359 E19.87252
G1 X111.135 Y106.25 E19.87614
G1 X110.889 Y105.91 E19.8901
G1 X110.789 Y105.688 E19.8982
G1 X110.57 Y105.281 E19.91357
G1 X110.34 Y104.958 E19.92676
G1 X110.072 Y104.644 E19.94049
G1 X110.456 Y104.575 E19.95347
G1 X110.652 Y104.531 E19.96015
G1 X110.898 Y104.471 E19.96857
G1 X111.118 Y104.773 E19.981
G1 X111.565 Y105.373 E20.00588
G1 X112.031 Y105.853 E20.02813
G1 X112.728 Y106.152 E20.05336
G1 X113.359 Y106.191 E20.07439
G1 X113.971 Y106.086 E20.09504
G1 X114.312 Y105.964 E20.10709
G1 X114.591 Y106.203 E20.1193
G1 X114.778 Y106.326 E20.12675
G1 X114.548 Y106.644 E20.1398
G1 X114.368 Y106.867 E20.14933
G1 X113.826 Y107.557 E20.17852
G1 X113.748 Y107.692 E20.1837
G0 F9000 X113.989 Y107.832
G0 X114.788 Y106.791
G0 X114.439 Y106.519
G1 F1366.7 X114.121 Y106.201 E20.19866
G0 F9000 X113.656 Y106.302
G1 F1366.7 X114.189 Y106.835 E20.22373
G0 F9000 X113.94 Y107.152
G1 F1366.7 X113.125 Y106.336 E20.26209
G0 F9000 X113.205 Y106.983
G1 F1366.7 X112.414 Y106.191 E20.29932
G0 F9000 X112.024 Y106.367
G1 F1366.7 X110.414 Y104.757 E20.37505
G0 F9000 X109.92 Y104.546
;TYPE:SKIN
G1 F1366.7 X109.829 Y104.455 E20.37719
G0 F9000 X109.075 Y104.267
G1 F1366.7 X108.237 Y104.277 E20.38454
G0 F9000 X108.253 Y104.29
G0 X108.824 Y104.63
G0 X110.579 Y106.189
G0 X113.796 Y108.705
G0 X113.943 Y108.852
G1 F1366.7 X113.958 Y109.149 E20.39669
G1 X113.865 Y109.34 E20.40538
G0 F9000 X113.816 Y109.291
G0 X113.541 Y110.995
G0 X113.585 Y111.04
G1 F1366.7 X113.057 Y111.36 E20.40839
G0 F9000 X113.157 Y111.305
G0 X115.395 Y110.852
G0 X115.446 Y110.921
G1 F1366.7 X115.605 Y109.948 E20.41295
G1 X115.812 Y109.873 E20.41397
G1 X116.529 Y109.458 E20.4178
G0 F9000 X116.162 Y109.845
G1 F1500 E13.9178
;MESH:NONMESH
G0 F300 X116.162 Y109.845 Z0.8
G0 F9000 X113.561 Y111.434
G0 X112.078 Y111.864
G0 X111.79 Y113.986
G0 X110.455 Y114.957
G0 X110.179 Y115.34
G0 X109.922 Y116.241
;TIME_ELAPSED:56.050537
;LAYER:3
M106 S255
;TYPE:WALL-INNER
;MESH:pose1_34.stl
G1 F1500 E20.4178
G1 X110.003 Y115.939 E20.4282
G1 X109.787 Y115.242 E20.45247
G1 X109.4 Y114.871 E20.4703
G1 X108.936 Y114.619 E20.48786
G1 X108.628 Y114.642 E20.49813
G1 X108.617 Y114.61 E20.49926
G1 X108.12 Y114.13 E20.52224
G1 X107.707 Y113.923 E20.5376
G1 X107.242 Y113.798 E20.55362
G1 X107.039 Y113.693 E20.56122
G1 X106.944 Y113.537 E20.5673
G1 X106.863 Y113.197 E20.57892
G1 X106.762 Y112.911 E20.58901
G1 X107.07 Y112.713 E20.60119
G1 X107.362 Y112.374 E20.61607
G1 X107.572 Y112.036 E20.6293
G1 X107.763 Y111.558 E20.64642
G1 X107.804 Y111.039 E20.66374
G1 X107.599 Y110.408 E20.68581
G1 X107.319 Y109.986 E20.70265
G1 X107.059 Y109.674 E20.71616
G1 X106.787 Y109.395 E20.72912
G1 X106.641 Y109.224 E20.7366
G1 X106.636 Y109.144 E20.73926
G1 X106.702 Y108.867 E20.74873
G1 X106.734 Y108.589 E20.75804
G1 X106.96 Y108.688 E20.76197
G1 X107.352 Y108.813 E20.77565
G1 X107.77 Y108.894 E20.78981
G1 X108.159 Y108.932 E20.80281
G1 X108.586 Y108.925 E20.81702
G1 X109.049 Y108.844 E20.83265
G1 X109.46 Y108.682 E20.84735
G1 X109.854 Y108.401 E20.86344
G1 X110.162 Y107.868 E20.88392
G1 X110.229 Y107.375 E20.90046
G1 X110.227 Y107 E20.91294
G1 X110.187 Y106.551 E20.92793
G1 X110.103 Y106.163 E20.94113
G1 X109.94 Y105.749 E20.95593
G1 X109.677 Y105.347 E20.97191
G1 X109.53 Y105.184 E20.97921
G1 X109.293 Y104.937 E20.9906
G1 X109.076 Y104.724 E21.00071
G1 X108.9 Y104.581 E21.00825
G1 X108.981 Y104.578
G1 X109.384 Y104.643 E21.0167
G1 X109.927 Y104.638 E21.03476
G1 X110.353 Y104.456 E21.05017
G1 X110.639 Y104.345 E21.06038
G1 X110.949 Y104.262 E21.07105
G1 X111.337 Y104.121 E21.08478
G1 X111.634 Y103.939 E21.09637
G1 X111.762 Y104.089 E21.10292
G1 X112.073 Y104.416 E21.11793
G1 X112.54 Y104.716 E21.1364
G1 X113.117 Y104.861 E21.15618
G1 X113.472 Y104.83 E21.16804
G1 X113.64 Y104.829 E21.17362
G1 X113.746 Y104.957 E21.17915
G1 X113.962 Y105.502 E21.19865
G1 X114.164 Y105.879 E21.21288
G1 X114.525 Y106.307 E21.2315
G1 X114.947 Y106.571 E21.24805
G1 X115.344 Y106.693 E21.26187
G1 X115.106 Y106.956 E21.2672
G1 X114.829 Y107.315 E21.28229
G1 X114.612 Y107.67 E21.29612
G1 X114.459 Y108.071 E21.3104
G1 X114.399 Y108.551 E21.32649
G1 X114.542 Y109.076 E21.34459
G1 X114.969 Y109.551 E21.36583
G1 X115.328 Y109.702 E21.37878
G1 X115.302 Y109.737
G1 X115.142 Y110.12 E21.39259
G1 X115.047 Y110.433 E21.40347
G1 X114.985 Y110.688 E21.4122
G1 X114.949 Y110.765 E21.41502
G1 X114.77 Y110.919 E21.42288
G1 X114.64 Y110.965 E21.42746
G1 X114.285 Y111.039 E21.43953
G1 X113.829 Y111.253 E21.45628
G1 X113.464 Y111.512 E21.47117
G1 X113.135 Y111.773 E21.48513
G1 X112.825 Y112.058 E21.49914
G1 X112.501 Y112.536 E21.51835
G1 X112.355 Y112.985 E21.53405
G1 X112.328 Y113.496 E21.55107
G1 X112.485 Y114.053 E21.57032
G1 X112.582 Y114.204 E21.57629
G1 X112.379 Y114.414 E21.586
G1 X111.869 Y114.857 E21.60847
G1 X111.589 Y115.097 E21.62073
G1 X111.453 Y115.207 E21.62655
G1 X111.153 Y115.437 E21.63912
G1 X110.861 Y115.692 E21.65202
G1 X110.633 Y115.94 E21.66322
G1 X110.504 Y116.1 E21.67006
G1 X110.343 Y116.314 E21.67897
G1 X110.258 Y116.39 E21.68276
G1 X110.158 Y116.387 E21.68609
G1 X109.933 Y116.246 E21.69492
G1 X109.922 Y116.241 E21.69532
G0 F9000 X109.449 Y116.458
G1 F1500 X109.587 Y115.947 E21.71292
G1 X109.436 Y115.459 E21.72991
G1 X109.162 Y115.197 E21.74252
G1 X108.849 Y115.027 E21.75437
G1 X108.368 Y115.063 E21.77041
G1 X108.349 Y115.074 E21.77114
G1 X108.268 Y114.829 E21.77674
G1 X107.886 Y114.46 E21.79441
G1 X107.557 Y114.295 E21.80665
G1 X107.371 Y114.237 E21.81313
G1 X107.104 Y114.177 E21.82223
G1 X106.76 Y113.999 E21.83512
G1 X106.58 Y113.72 E21.84616
G1 X106.559 Y113.646 E21.84872
G1 X106.479 Y113.31 E21.8602
G1 X106.341 Y112.919 E21.874
G1 X106.212 Y112.71 E21.88216
G1 X106.405 Y112.665 E21.88471
G1 X106.805 Y112.408 E21.90053
G1 X107.039 Y112.136 E21.91246
G1 X107.214 Y111.855 E21.92347
G1 X107.369 Y111.466 E21.9374
G1 X107.399 Y111.087 E21.95004
G1 X107.235 Y110.583 E21.96767
G1 X106.998 Y110.225 E21.98195
G1 X106.762 Y109.942 E21.99421
G1 X106.494 Y109.668 E22.00695
G1 X106.25 Y109.383 E22.01943
G1 X106.233 Y109.108 E22.0286
G1 X106.307 Y108.797 E22.03923
G1 X106.378 Y108.192 E22.05949
G1 X106.431 Y108.036 E22.06497
G1 X106.535 Y108.054 E22.06848
G1 X106.832 Y108.194 E22.0794
G1 X107.102 Y108.314 E22.08923
G1 X107.451 Y108.425 E22.10141
G1 X107.828 Y108.498 E22.11418
G1 X108.175 Y108.532 E22.12578
G1 X108.548 Y108.526 E22.13819
G1 X108.94 Y108.457 E22.15142
G1 X109.268 Y108.328 E22.16315
G1 X109.551 Y108.126 E22.17471
G1 X109.776 Y107.736 E22.18969
G1 X109.829 Y107.349 E22.20268
G1 X109.827 Y107.019 E22.21365
G1 X109.791 Y106.611 E22.22728
G1 X109.719 Y106.279 E22.23858
G1 X109.583 Y105.934 E22.25091
G1 X109.359 Y105.592 E22.26451
G1 X109.237 Y105.457 E22.27056
G1 X109.008 Y105.218 E22.28157
G1 X108.809 Y105.022 E22.29086
G1 X108.549 Y104.811 E22.302
G1 X108.256 Y104.656 E22.31302
G1 X107.871 Y104.534 E22.32645
G1 X108.073 Y104.336 E22.33048
G1 X108.276 Y104.263 E22.33613
G1 X108.716 Y104.188 E22.35098
G1 X109.005 Y104.176 E22.3606
G1 X109.415 Y104.243 E22.37442
G1 X109.843 Y104.239 E22.38865
G1 X110.208 Y104.083 E22.40185
G1 X110.517 Y103.963 E22.41288
G1 X110.829 Y103.88 E22.42362
G1 X111.162 Y103.759 E22.4354
G1 X111.462 Y103.575 E22.44711
G1 X111.73 Y103.433 E22.45719
G1 X112.059 Y103.821 E22.47411
G1 X112.33 Y104.105 E22.48717
G1 X112.701 Y104.344 E22.50185
G1 X113.149 Y104.457 E22.51722
G1 X113.459 Y104.43 E22.52757
G1 X113.749 Y104.428 E22.53721
G1 X113.851 Y104.457 E22.54074
G1 X114.095 Y104.751 E22.55345
G1 X114.325 Y105.333 E22.57426
G1 X114.497 Y105.653 E22.58634
G1 X114.79 Y106.001 E22.60147
G1 X115.115 Y106.204 E22.61422
G1 X115.452 Y106.308 E22.62595
G1 X115.863 Y106.288 E22.63964
G1 X116.049 Y106.252 E22.64594
G1 X116.039 Y106.445 E22.64883
G1 X115.788 Y106.803 E22.66337
G1 X115.706 Y106.889 E22.66732
G1 X115.413 Y107.213 E22.68185
G1 X115.159 Y107.542 E22.69568
G1 X114.973 Y107.847 E22.70756
G1 X114.85 Y108.169 E22.71902
G1 X114.806 Y108.522 E22.73085
G1 X114.903 Y108.879 E22.74316
G1 X115.207 Y109.217 E22.75828
G1 X115.57 Y109.37 E22.77138
G1 X115.944 Y109.428 E22.78397
G1 X116.177 Y109.428 E22.79172
G1 X115.914 Y109.581 E22.79488
G1 X115.653 Y109.936 E22.80953
G1 X115.519 Y110.256 E22.82107
G1 X115.433 Y110.538 E22.83088
G1 X115.364 Y110.824 E22.84066
G1 X115.274 Y111.012 E22.8476
G1 X114.974 Y111.271 E22.86078
G1 X114.75 Y111.35 E22.86868
G1 X114.413 Y111.421 E22.88013
G1 X114.031 Y111.6 E22.89416
G1 X113.704 Y111.832 E22.9075
G1 X113.395 Y112.077 E22.92061
G1 X113.13 Y112.321 E22.9326
G1 X112.864 Y112.713 E22.94835
G1 X112.752 Y113.059 E22.96045
G1 X112.731 Y113.451 E22.9735
G1 X112.854 Y113.887 E22.98857
G1 X113.071 Y114.226 E23.00196
G1 X113.111 Y114.261 E23.00373
G1 X112.963 Y114.384 E23.0075
G1 X112.708 Y114.652 E23.01981
G1 X112.641 Y114.716 E23.02289
G1 X112.129 Y115.161 E23.04545
G1 X111.841 Y115.408 E23.05807
G1 X111.705 Y115.518 E23.06389
G1 X111.407 Y115.747 E23.07639
G1 X111.141 Y115.979 E23.08813
G1 X110.936 Y116.202 E23.0982
G1 X110.819 Y116.346 E23.10437
G1 X110.652 Y116.569 E23.11364
G1 X110.534 Y116.698 E23.11945
G1 X110.35 Y116.794 E23.12636
G1 X110.038 Y116.783 E23.13674
G1 X109.747 Y116.601 E23.14816
G1 X109.453 Y116.474 E23.15881
G1 X109.449 Y116.458 E23.15936
G0 F9000 X108.518 Y116.598
G0 X108.17 Y116.396
G0 X108.31 Y116.468
;TYPE:WALL-OUTER
G1 F1500 X108.663 Y116.506 E23.17117
G1 X108.902 Y116.428 E23.17953
G1 X109.092 Y116.246 E23.18828
G1 X109.171 Y115.954 E23.19834
G1 X109.085 Y115.676 E23.20802
G1 X108.925 Y115.523 E23.21538
G1 X108.762 Y115.435 E23.22154
G1 X108.491 Y115.455 E23.23058
G1 X108.262 Y115.59 E23.23942
G1 X108.102 Y115.822 E23.2488
G1 X108.042 Y116.092 E23.25799
G1 X108.053 Y116.196 E23.26147
G1 X107.828 Y116.08 E23.26989
G1 X107.876 Y115.849 E23.27774
G1 X107.976 Y115.574 E23.28747
G1 X108.012 Y115.33 E23.29568
G1 X107.919 Y115.048 E23.30555
G1 X107.652 Y114.79 E23.3179
G1 X107.407 Y114.667 E23.32702
G1 X107.268 Y114.624 E23.33186
G1 X106.994 Y114.562 E23.3412
G1 X106.758 Y114.479 E23.34952
G1 X106.494 Y114.302 E23.36009
G1 X106.326 Y114.113 E23.3685
G1 X106.204 Y113.861 E23.37782
G1 X106.174 Y113.755 E23.38148
G1 X106.095 Y113.423 E23.39283
G1 X105.978 Y113.093 E23.40448
G1 X105.804 Y112.813 E23.41544
G1 X105.639 Y112.584 E23.42483
G1 X105.582 Y112.359 E23.43255
G1 X105.95 Y112.361 E23.44479
G1 X106.247 Y112.291 E23.45494
G1 X106.54 Y112.103 E23.46652
G1 X106.716 Y111.898 E23.4755
G1 X106.856 Y111.674 E23.48429
G1 X106.975 Y111.374 E23.49502
G1 X106.994 Y111.135 E23.503
G1 X106.871 Y110.758 E23.51619
G1 X106.677 Y110.464 E23.5279
G1 X106.465 Y110.211 E23.53888
G1 X106.209 Y109.949 E23.55106
G1 X106.017 Y109.756 E23.56012
G1 X105.874 Y109.538 E23.56879
G1 X105.823 Y109.305 E23.57672
G1 X105.835 Y109.055 E23.58505
G1 X105.913 Y108.727 E23.59626
G1 X105.952 Y108.4 E23.60721
G1 X105.985 Y108.104 E23.61712
G1 X106.081 Y107.822 E23.62703
G1 X106.188 Y107.691 E23.63265
G1 X106.376 Y107.62 E23.63934
G1 X106.657 Y107.669 E23.64883
G1 X106.999 Y107.83 E23.6614
G1 X107.245 Y107.94 E23.67036
G1 X107.55 Y108.037 E23.68101
G1 X107.886 Y108.102 E23.69239
G1 X108.191 Y108.132 E23.70258
G1 X108.51 Y108.127 E23.71319
G1 X108.831 Y108.07 E23.72404
G1 X109.076 Y107.974 E23.73279
G1 X109.248 Y107.851 E23.73982
G1 X109.39 Y107.604 E23.7493
G1 X109.429 Y107.323 E23.75873
G1 X109.427 Y107.038 E23.76821
G1 X109.395 Y106.671 E23.78047
G1 X109.335 Y106.396 E23.78983
G1 X109.226 Y106.119 E23.79973
G1 X109.041 Y105.837 E23.81095
G1 X108.944 Y105.729 E23.81577
G1 X108.723 Y105.499 E23.82638
G1 X108.542 Y105.32 E23.83485
G1 X108.327 Y105.146 E23.84405
G1 X108.101 Y105.026 E23.85256
G1 X107.734 Y104.91 E23.86536
G1 X107.486 Y104.838 E23.87395
G1 X107.388 Y104.767 E23.87798
G1 X107.39 Y104.609 E23.88323
G1 X107.493 Y104.371 E23.89186
G1 X107.678 Y104.121 E23.9022
G1 X107.891 Y103.976 E23.91077
G1 X108.17 Y103.876 E23.92063
G1 X108.679 Y103.789 E23.9378
G1 X109.029 Y103.774 E23.94945
G1 X109.446 Y103.843 E23.96351
G1 X109.759 Y103.84 E23.97392
G1 X110.063 Y103.71 E23.98492
G1 X110.387 Y103.584 E23.99648
G1 X110.709 Y103.498 E24.00757
G1 X110.987 Y103.397 E24.01741
G1 X111.269 Y103.224 E24.02841
G1 X111.583 Y103.058 E24.04022
G1 X111.814 Y102.995 E24.04819
G1 X111.944 Y103.067 E24.05313
G1 X112.155 Y103.314 E24.06393
G1 X112.357 Y103.554 E24.07437
G1 X112.586 Y103.794 E24.0854
G1 X112.863 Y103.972 E24.09635
G1 X113.182 Y104.053 E24.1073
G1 X113.446 Y104.03 E24.11611
G1 X113.803 Y104.028 E24.12799
G1 X114.052 Y104.098 E24.13659
G1 X114.268 Y104.295 E24.14631
G1 X114.45 Y104.562 E24.15706
G1 X114.589 Y104.915 E24.16968
G1 X114.688 Y105.164 E24.17859
G1 X114.83 Y105.427 E24.18853
G1 X115.055 Y105.695 E24.20017
G1 X115.283 Y105.837 E24.2091
G1 X115.503 Y105.905 E24.21676
G1 X115.815 Y105.89 E24.22715
G1 X116.138 Y105.827 E24.2381
G1 X116.287 Y105.833 E24.24306
G1 X116.416 Y106.04 E24.25117
G1 X116.465 Y106.308 E24.26023
G1 X116.423 Y106.574 E24.26919
G1 X116.276 Y106.851 E24.27962
G1 X116.086 Y107.07 E24.28926
G1 X115.999 Y107.161 E24.29345
G1 X115.72 Y107.47 E24.3073
G1 X115.489 Y107.769 E24.31986
G1 X115.334 Y108.024 E24.32979
G1 X115.241 Y108.267 E24.33844
G1 X115.213 Y108.493 E24.34602
G1 X115.264 Y108.682 E24.35253
G1 X115.445 Y108.883 E24.36152
G1 X115.68 Y108.982 E24.37
G1 X115.975 Y109.028 E24.37993
G1 X116.356 Y109.028 E24.39261
G1 X116.689 Y109.009 E24.4037
G1 X116.933 Y109.057 E24.41197
G1 X116.969 Y109.204 E24.41701
G1 X116.923 Y109.473 E24.42608
G1 X116.794 Y109.647 E24.43329
G1 X116.497 Y109.705 E24.44335
G1 X116.187 Y109.885 E24.45527
G1 X116.004 Y110.134 E24.46555
G1 X115.896 Y110.392 E24.47485
G1 X115.819 Y110.643 E24.48359
G1 X115.743 Y110.96 E24.49443
G1 X115.608 Y111.241 E24.5048
G1 X115.386 Y111.472 E24.51545
G1 X115.159 Y111.63 E24.52465
G1 X114.858 Y111.736 E24.53527
G1 X114.541 Y111.803 E24.54604
G1 X114.233 Y111.947 E24.55735
G1 X113.944 Y112.152 E24.56914
G1 X113.655 Y112.381 E24.5814
G1 X113.435 Y112.584 E24.59136
G1 X113.227 Y112.89 E24.60366
G1 X113.149 Y113.132 E24.61212
G1 X113.134 Y113.406 E24.62125
G1 X113.223 Y113.721 E24.63213
G1 X113.377 Y113.962 E24.64165
G1 X113.65 Y114.2 E24.65369
G1 X113.739 Y114.294 E24.658
G1 X113.638 Y114.373 E24.66226
G1 X113.421 Y114.524 E24.67106
G1 X113.237 Y114.677 E24.67901
G1 X112.998 Y114.928 E24.69054
G1 X112.903 Y115.018 E24.69489
G1 X112.389 Y115.465 E24.71755
G1 X112.093 Y115.719 E24.73052
G1 X111.957 Y115.829 E24.73634
G1 X111.66 Y116.057 E24.74879
G1 X111.42 Y116.266 E24.75938
G1 X111.239 Y116.463 E24.76828
G1 X111.135 Y116.592 E24.77379
G1 X110.959 Y116.826 E24.78353
G1 X110.782 Y117.019 E24.79224
G1 X110.478 Y117.179 E24.80366
G1 X110.229 Y117.217 E24.81204
G1 X109.896 Y117.167 E24.82324
G1 X109.56 Y116.956 E24.83644
G1 X109.398 Y116.886 E24.84231
G1 X109.15 Y116.922 E24.85064
G1 X108.954 Y117.034 E24.85815
G1 X108.688 Y116.935 E24.86759
G1 X108.523 Y116.793 E24.87483
G1 X108.366 Y116.569 E24.88393
G1 X108.31 Y116.468 E24.88777
G1 F1500 E18.38777
G0 F9000 X108.17 Y116.396
G0 X108.463 Y116.314
G0 X108.518 Y116.598
G0 X108.845 Y116.593
G0 X110.067 Y115.77
G1 F1500 E24.88777
G0 F9000 X110.334 Y115.689
;TYPE:SKIN
G1 F1500 X110.13 Y115.03 E24.91071
G1 X109.632 Y114.553 E24.93365
G1 X109.021 Y114.221 E24.95678
G1 X108.794 Y114.239 E24.96435
G1 X108.348 Y113.808 E24.98498
G1 X107.846 Y113.557 E25.00365
G1 X107.389 Y113.434 E25.01939
G1 X107.31 Y113.387 E25.02245
G1 X107.238 Y113.086 E25.03274
G1 X107.329 Y113.011 E25.03666
G1 X107.678 Y112.606 E25.05444
G1 X107.921 Y112.213 E25.06981
G1 X108.147 Y111.648 E25.09005
G1 X108.199 Y110.992 E25.11194
G1 X107.954 Y110.237 E25.13834
G1 X107.633 Y109.752 E25.15768
G1 X107.349 Y109.413 E25.17239
G1 X107.078 Y109.135 E25.1853
G1 X107.255 Y109.191 E25.19148
G1 X107.714 Y109.28 E25.20703
G1 X108.143 Y109.322 E25.22137
G1 X108.623 Y109.315 E25.23733
G1 X109.155 Y109.222 E25.2553
G1 X109.647 Y109.027 E25.2729
G1 X110.149 Y108.67 E25.29339
G1 X110.538 Y107.997 E25.31924
G1 X110.619 Y107.4 E25.33928
G1 X110.617 Y106.982 E25.35318
G1 X110.573 Y106.492 E25.36955
G1 X110.477 Y106.05 E25.38459
G1 X110.289 Y105.569 E25.40177
G1 X109.987 Y105.109 E25.42007
G1 X109.914 Y105.029 E25.42367
G1 X110.009 Y105.028 E25.42683
G1 X110.524 Y104.807 E25.44547
G1 X110.752 Y104.718 E25.45361
G1 X111.066 Y104.634 E25.46442
G1 X111.507 Y104.474 E25.48002
G1 X111.559 Y104.442 E25.48205
G1 X111.823 Y104.719 E25.49478
G1 X112.382 Y105.079 E25.5169
G1 X113.086 Y105.255 E25.54103
G1 X113.432 Y105.224 E25.55259
G1 X113.607 Y105.666 E25.5684
G1 X113.84 Y106.099 E25.58475
G1 X114.266 Y106.605 E25.60675
G1 X114.683 Y106.866 E25.62311
G1 X114.507 Y107.093 E25.63267
G1 X114.261 Y107.497 E25.6484
G1 X114.078 Y107.976 E25.66545
G1 X114.003 Y108.579 E25.68566
G1 X114.191 Y109.267 E25.70939
G1 X114.737 Y109.877 E25.73662
G1 X114.809 Y109.907 E25.73921
G1 X114.775 Y109.988 E25.74213
G1 X114.671 Y110.33 E25.75402
G1 X114.622 Y110.532 E25.76093
G1 X114.535 Y110.588 E25.76438
G1 X114.16 Y110.667 E25.77712
G1 X113.632 Y110.915 E25.79652
G1 X113.23 Y111.2 E25.81291
G1 X112.881 Y111.477 E25.82773
G1 X112.528 Y111.802 E25.84369
G1 X112.148 Y112.363 E25.86623
G1 X111.969 Y112.913 E25.88547
G1 X111.936 Y113.539 E25.90632
G1 X112.104 Y114.137 E25.92698
G1 X111.344 Y114.794 E25.96039
G1 X111.215 Y114.897 E25.96588
G1 X110.905 Y115.135 E25.97888
G1 X110.588 Y115.413 E25.9929
G1 X110.334 Y115.689 E26.00538
G0 F9000 X110.067 Y115.771
G0 X110.129 Y116.158
G0 X112.354 Y114.181
G0 X112.28 Y113.732
G0 X111.857 Y113.851
G1 F1500 X110.388 Y115.319 E26.07445
G0 F9000 X110.233 Y114.909
G1 F1500 X111.785 Y113.357 E26.14745
G0 F9000 X111.865 Y112.711
G1 F1500 X109.945 Y114.631 E26.23776
G0 F9000 X109.637 Y114.373
G1 F1500 X114.339 Y109.672 E26.45891
G0 F9000 X114.605 Y109.971
G1 F1500 X114.023 Y110.554 E26.48631
G0 F9000 X114.209 Y110.952
G0 X114.683 Y110.768
G0 X115.08 Y109.795
G0 X114.439 Y109.132
G0 X114.071 Y109.373
G1 F1500 X109.271 Y114.174 E26.71211
G0 F9000 X108.829 Y114.05
G1 F1500 X113.936 Y108.943 E26.95233
G0 F9000 X113.856 Y108.457
G1 F1500 X108.541 Y113.772 E27.20233
G0 F9000 X108.195 Y113.552
G1 F1500 X113.987 Y107.76 E27.47476
G0 F9000 X114.341 Y106.841
G1 F1500 X107.803 Y113.379 E27.78229
G0 F9000 X107.427 Y113.189
G1 F1500 X114.035 Y106.581 E28.09311
G0 F9000 X113.777 Y106.273
G1 F1500 X108.262 Y111.789 E28.35254
G0 F9000 X108.347 Y111.138
G1 F1500 X113.562 Y105.923 E28.59784
G0 F9000 X113.383 Y105.537
G1 F1500 X110.445 Y108.475 E28.73604
G0 F9000 X109.821 Y109.098
G1 F1500 X108.26 Y110.66 E28.80948
G0 F9000 X108.122 Y110.232
G1 F1500 X108.931 Y109.422 E28.84756
G0 F9000 X108.31 Y109.478
G1 F1500 X107.91 Y109.878 E28.86638
G0 F9000 X107.673 Y109.549
G1 F1500 X107.777 Y109.445 E28.87127
G0 F9000 X107.819 Y109.01
G0 X110.318 Y107.543
G0 X110.752 Y107.602
G1 F1500 X112.965 Y105.389 E28.97536
G0 F9000 X112.512 Y105.276
G1 F1500 X110.776 Y107.012 E29.05702
G0 F9000 X110.732 Y106.49
G1 F1500 X112.121 Y105.101 E29.12235
G0 F9000 X111.778 Y104.879
G1 F1500 X110.634 Y106.022 E29.17614
G0 F9000 X110.478 Y105.613
G1 F1500 X111.415 Y104.675 E29.22023
G0 F9000 X110.56 Y104.965
G1 F1500 X110.272 Y105.253 E29.23378
G0 F9000 X109.778 Y104.899
;TYPE:SKIN
G1 F1500 X109.625 Y105.052 E29.23738
G0 F9000 X109.486 Y104.907
G1 F1500 X109.594 Y104.8 E29.23991
G0 F9000 X109.595 Y104.751
G0 X109.568 Y107.336
G0 X109.523 Y107.648
G0 X109.354 Y107.946
G0 X108.964 Y108.154
G0 X106.97 Y108.808
G0 X106.956 Y108.852
G1 F1500 X106.843 Y108.965 E29.24257
G0 F9000 X106.795 Y108.953
G0 X107.134 Y111.119
G0 X107.023 Y112.874
G0 X107.083 Y112.968
G1 F1500 X106.989 Y113.062 E29.24478
G0 F9000 X106.938 Y113.079
G0 X107.137 Y113.513
G0 X110.074 Y116.18
G0 X110.108 Y116.165
G1 F1500 X110.393 Y115.88 E29.25148
G0 F9000 X110.481 Y115.952
G0 X112.354 Y114.181
G0 X114.23 Y110.875
G0 X114.683 Y110.768
G0 X115.054 Y109.879
G0 X115.021 Y106.886
G0 X114.932 Y106.816
G1 F1500 X114.995 Y106.753 E29.25296
G0 F9000 X115.509 Y106.52
G1 F1500 X115.701 Y106.612 E29.25481
G1 X116.076 Y106.802 E29.25847
G0 F9000 X116.111 Y106.736
G0 X115.208 Y107.966
G0 X115.072 Y108.504
G0 X115.139 Y108.749
G0 X115.363 Y108.998
G0 X116.514 Y109.22
G0 X116.421 Y109.286
G1 F1500 X116.62 Y109.37 E29.27055
G0 F9000 X116.779 Y109.23
G0 X115.592 Y109.549
G1 F1500 X115.529 Y109.613 E29.27204
G0 F9000 X115.319 Y111.237
G1 F1500 X115.177 Y111.379 E29.27538
G0 F9000 X115.175 Y111.375
G0 X115.005 Y106.787
G0 X114.113 Y104.523
G1 F1500 X114.17 Y104.466 E29.27672
G0 F9000 X114.152 Y104.478
G0 X111.597 Y104.173
G0 X108.753 Y104.509
G0 X108.683 Y104.578
G1 F1500 X108.512 Y104.468 E29.27938
G1 X107.837 Y104.294 E29.28848
G0 F9000 X107.758 Y104.373
G0 X109.15 Y105.75
G0 X109.471 Y106.359
G0 X109.568 Y107.336
G0 X109.523 Y107.648
G0 X109.354 Y107.946
G0 X108.871 Y108.204
G0 X106.045 Y109.197
G0 X106.023 Y109.219
G1 F1500 X106.188 Y109.62 E29.29088
G0 F9000 X106.175 Y109.633
G0 X106.998 Y110.696
G0 X107.134 Y111.119
G0 X106.589 Y114.028
G0 X106.561 Y114.055
G1 F1500 X106.888 Y114.293 E29.29373
G0 F9000 X106.922 Y114.26
G0 X107.733 Y114.675
G0 X108.793 Y115.294
G0 X109.208 Y115.602
G0 X109.315 Y115.953
G0 X109.226 Y116.282
G0 X108.78 Y116.679
G0 X108.739 Y116.685
G1 F1500 X109.089 Y116.618 E29.29726
G1 X109.32 Y116.67 E29.29961
G1 X110.141 Y116.98 E29.30832
G0 F9000 X110.211 Y116.71
;MESH:NONMESH
G0 F300 X110.211 Y116.71 Z1
G0 F9000 X107.304 Y113.638
G0 X107.104 Y113.472
G0 X106.978 Y112.986
G0 X107.456 Y109.883
G0 X106.813 Y109.156
G0 X106.88 Y108.89
G0 X108.948 Y108.312
;TIME_ELAPSED:75.146487
;LAYER:4
;TYPE:WALL-INNER
;MESH:pose1_34.stl
G1 F1500 X109.428 Y107.853 E29.33041
G1 X109.628 Y107.316 E29.34947
G1 X109.685 Y106.863 E29.36466
G1 X109.661 Y106.347 E29.38184
G1 X109.532 Y105.947 E29.39582
G1 X110.079 Y106.062 E29.41441
G1 X110.661 Y105.965 E29.43403
G1 X111.209 Y105.494 E29.45806
G1 X111.366 Y104.894 E29.47869
G1 X111.402 Y104.578 E29.48927
G1 X111.675 Y104.478 E29.49894
G1 X112.021 Y104.049 E29.51727
G1 X112.292 Y103.76 E29.53045
G1 X112.487 Y103.823 E29.53726
G1 X112.896 Y103.932 E29.55134
G1 X113.16 Y103.959 E29.56017
G1 X113.185 Y103.999 E29.56174
G1 X113.261 Y104.384 E29.57479
G1 X113.382 Y104.654 E29.58463
G1 X113.422 Y104.818 E29.59025
G1 X113.441 Y105.303 E29.60639
G1 X113.5 Y105.702 E29.6198
G1 X113.692 Y106.227 E29.6384
G1 X114.02 Y106.653 E29.65628
G1 X114.408 Y106.955 E29.67263
G1 X114.9 Y107.145 E29.69017
G1 X115.256 Y107.136 E29.70202
G1 X115.033 Y107.487 E29.70971
G1 X114.848 Y108.031 E29.72882
G1 X114.882 Y108.63 E29.74877
G1 X115.179 Y109.151 E29.76872
G1 X115.231 Y109.186 E29.7708
G1 X115.032 Y109.406 E29.77739
G1 X114.824 Y110.026 E29.79914
G1 X114.795 Y110.515 E29.81543
G1 X114.835 Y110.961 E29.83033
G1 X114.78 Y111.031 E29.83329
G1 X114.488 Y111.327 E29.84712
G1 X114.21 Y111.379 E29.85652
G1 X113.739 Y111.631 E29.87429
G1 X113.445 Y111.863 E29.88675
G1 X113.171 Y112.126 E29.89938
G1 X112.848 Y112.606 E29.91862
G1 X112.714 Y113.145 E29.9371
G1 X112.776 Y113.735 E29.95683
G1 X112.843 Y113.844 E29.96108
G1 X112.645 Y114.072 E29.97113
G1 X112.474 Y114.294 E29.98045
G1 X112.244 Y114.55 E29.99189
G1 X112.091 Y114.705 E29.99914
G1 X111.882 Y114.888 E30.00838
G1 X111.72 Y114.997 E30.01487
G1 X111.354 Y115.19 E30.02863
G1 X111.026 Y115.414 E30.04184
G1 X110.721 Y115.718 E30.05617
G1 X110.613 Y115.865 E30.06223
G1 X110.585 Y115.734 E30.06267
G1 X110.112 Y115.226 E30.08576
G1 X109.482 Y115.078 E30.10728
G1 X108.992 Y115.234 E30.12439
G1 X108.962 Y114.855 E30.13703
G1 X108.662 Y114.311 E30.15769
G1 X108.179 Y113.939 E30.17797
G1 X107.753 Y113.772 E30.19319
G1 X107.422 Y113.699 E30.20446
G1 X107.217 Y113.629 E30.21167
G1 X107.198 Y113.575 E30.21357
G1 X107.144 Y113.225 E30.22535
G1 X107.042 Y112.817 E30.23934
G1 X106.788 Y112.347 E30.25711
G1 X106.619 Y112.172 E30.2652
G1 X106.807 Y112.053 E30.26822
G1 X107.09 Y111.623 E30.28534
G1 X107.195 Y111.04 E30.30504
G1 X107.013 Y110.504 E30.32387
G1 X106.796 Y110.131 E30.33822
G1 X106.682 Y109.853 E30.34822
G1 X106.965 Y109.636 E30.36008
G1 X107.249 Y109.031 E30.38231
G1 X107.156 Y108.421 E30.40283
G1 X107.111 Y108.326 E30.40633
G1 X107.198 Y108.366 E30.40663
G1 X107.775 Y108.513 E30.42644
G1 X108.361 Y108.503 E30.44593
G1 X108.948 Y108.312 E30.46646
G0 F9000 X108.737 Y107.96
G1 F1500 X109.085 Y107.627 E30.48248
G1 X109.237 Y107.22 E30.49693
G1 X109.284 Y106.847 E30.50943
G1 X109.264 Y106.419 E30.52369
G1 X109.134 Y106.016 E30.53777
G1 X108.876 Y105.623 E30.55341
G1 X108.63 Y105.381 E30.56488
G1 X108.305 Y105.137 E30.5784
G1 X107.928 Y104.956 E30.59231
G1 X107.56 Y104.903 E30.60468
G1 X107.441 Y104.923 E30.60869
G1 X107.568 Y104.783 E30.61084
G1 X107.755 Y104.54 E30.61747
G1 X107.896 Y104.425 E30.62352
G1 X108.198 Y104.381 E30.63368
G1 X108.463 Y104.431 E30.64264
G1 X108.636 Y104.536 E30.64938
G1 X108.659 Y104.584 E30.65115
G1 X108.817 Y104.873 E30.6621
G1 X109.037 Y105.151 E30.67389
G1 X109.311 Y105.385 E30.68588
G1 X109.645 Y105.562 E30.69845
G1 X110.088 Y105.655 E30.7135
G1 X110.485 Y105.589 E30.72689
G1 X110.854 Y105.272 E30.74307
G1 X110.972 Y104.821 E30.75858
G1 X111.018 Y104.405 E30.7725
G1 X111.038 Y104.264 E30.77723
G1 X111.126 Y104.252 E30.78019
G1 X111.434 Y104.14 E30.79109
G1 X111.7 Y103.81 E30.80518
G1 X111.806 Y103.655 E30.81143
G1 X112.013 Y103.473 E30.8206
G1 X112.183 Y103.29 E30.82891
G1 X112.302 Y103.314 E30.83294
G1 X112.615 Y103.443 E30.8442
G1 X112.968 Y103.537 E30.85635
G1 X113.261 Y103.567 E30.86615
G1 X113.39 Y103.574 E30.87045
G1 X113.564 Y103.849 E30.88127
G1 X113.645 Y104.263 E30.8953
G1 X113.763 Y104.528 E30.90495
G1 X113.82 Y104.762 E30.91296
G1 X113.84 Y105.266 E30.92974
G1 X113.89 Y105.603 E30.94107
G1 X114.047 Y106.032 E30.95626
G1 X114.306 Y106.369 E30.9704
G1 X114.607 Y106.603 E30.98308
G1 X114.969 Y106.743 E30.99599
G1 X115.425 Y106.73 E31.01116
G1 X115.771 Y106.643 E31.02303
G1 X116.024 Y106.547 E31.03203
G1 X116.163 Y106.739 E31.03991
G1 X115.781 Y107.135 E31.05821
G1 X115.579 Y107.374 E31.06862
G1 X115.396 Y107.661 E31.07994
G1 X115.252 Y108.086 E31.09486
G1 X115.276 Y108.514 E31.10912
G1 X115.479 Y108.87 E31.12275
G1 X115.859 Y109.121 E31.1379
G1 X115.966 Y109.139 E31.14151
G1 X115.675 Y109.291 E31.1455
G1 X115.385 Y109.612 E31.15989
G1 X115.22 Y110.103 E31.17711
G1 X115.196 Y110.509 E31.19064
G1 X115.241 Y111.011 E31.20741
G1 X115.218 Y111.122 E31.21118
G1 X115.08 Y111.297 E31.21859
G1 X114.806 Y111.575 E31.23157
G1 X114.739 Y111.699 E31.23626
G1 X114.701 Y111.695 E31.23753
G1 X114.344 Y111.761 E31.2496
G1 X113.959 Y111.967 E31.26413
G1 X113.708 Y112.165 E31.27476
G1 X113.479 Y112.385 E31.28532
G1 X113.219 Y112.771 E31.3008
G1 X113.119 Y113.173 E31.31458
G1 X113.164 Y113.602 E31.32893
G1 X113.364 Y113.925 E31.34156
G1 X113.158 Y114.092 E31.35038
G1 X112.955 Y114.326 E31.36069
G1 X112.782 Y114.55 E31.3701
G1 X112.536 Y114.823 E31.38232
G1 X112.364 Y114.997 E31.39046
G1 X112.125 Y115.207 E31.40104
G1 X111.926 Y115.341 E31.40902
G1 X111.56 Y115.533 E31.42277
G1 X111.282 Y115.723 E31.43397
G1 X111.025 Y115.98 E31.44606
G1 X110.847 Y116.221 E31.45602
G1 X110.65 Y116.536 E31.46838
G1 X110.539 Y116.638 E31.47339
G1 X110.32 Y116.584 E31.48089
G1 X110.286 Y116.526 E31.48313
G1 X110.281 Y116.226 E31.49311
G1 X110.217 Y115.926 E31.50331
G1 X109.902 Y115.588 E31.51868
G1 X109.498 Y115.493 E31.53248
G1 X109.099 Y115.62 E31.54641
G1 X108.735 Y115.881 E31.56131
G1 X108.554 Y116.078 E31.5702
G1 X108.426 Y116.337 E31.57981
G1 X108.415 Y116.365 E31.58081
G1 X108.362 Y116.314
G1 X108.416 Y116.048 E31.58302
G1 X108.52 Y115.789 E31.58755
G1 X108.609 Y115.454 E31.59908
G1 X108.57 Y114.973 E31.61513
G1 X108.352 Y114.577 E31.63017
G1 X107.98 Y114.291 E31.64578
G1 X107.636 Y114.156 E31.65807
G1 X107.332 Y114.089 E31.66842
G1 X107.083 Y114.021 E31.67701
G1 X106.882 Y113.888 E31.68502
G1 X106.809 Y113.672 E31.69261
G1 X106.752 Y113.305 E31.70496
G1 X106.666 Y112.963 E31.71669
G1 X106.462 Y112.586 E31.73094
G1 X106.179 Y112.293 E31.74449
G1 X105.976 Y112.076 E31.75438
G1 X106.184 Y111.974 E31.75782
G1 X106.52 Y111.761 E31.77105
G1 X106.711 Y111.471 E31.7826
G1 X106.783 Y111.071 E31.79612
G1 X106.647 Y110.671 E31.81017
G1 X106.443 Y110.32 E31.82367
G1 X106.33 Y110.094 E31.83207
G1 X106.241 Y109.733 E31.84444
G1 X106.354 Y109.601 E31.85022
G1 X106.644 Y109.378 E31.86239
G1 X106.835 Y108.971 E31.87734
G1 X106.769 Y108.539 E31.89188
G1 X106.626 Y108.234 E31.90308
G1 X106.548 Y108.037 E31.91013
G1 X106.508 Y107.79 E31.91845
G1 X106.473 Y107.437 E31.93025
G1 X106.741 Y107.661 E31.93464
G1 X107.028 Y107.846 E31.946
G1 X107.333 Y107.988 E31.95719
G1 X107.822 Y108.112 E31.97397
G1 X108.294 Y108.104 E31.98967
G1 X108.737 Y107.96 E32.00516
G0 F9000 X108.526 Y107.608
;TYPE:WALL-OUTER
G1 F1500 X108.742 Y107.401 E32.01511
G1 X108.846 Y107.123 E32.02498
G1 X108.883 Y106.831 E32.03477
G1 X108.867 Y106.491 E32.0461
G1 X108.77 Y106.19 E32.05661
G1 X108.565 Y105.878 E32.06903
G1 X108.369 Y105.685 E32.07818
G1 X108.096 Y105.481 E32.08951
G1 X107.81 Y105.343 E32.10008
G1 X107.565 Y105.308 E32.10831
G1 X107.313 Y105.351 E32.11681
G1 X107.015 Y105.504 E32.12795
G1 X106.82 Y105.672 E32.13651
G1 X106.665 Y105.906 E32.14585
G1 X106.55 Y106.247 E32.15782
G1 X106.527 Y106.547 E32.16782
G1 X106.602 Y106.866 E32.17872
G1 X106.778 Y107.17 E32.19041
G1 X106.979 Y107.338 E32.19912
G1 X107.222 Y107.495 E32.20874
G1 X107.468 Y107.61 E32.21777
G1 X107.868 Y107.711 E32.2315
G1 X108.227 Y107.705 E32.24344
G1 X108.526 Y107.608 E32.25389
G0 F9000 X108.751 Y107.985
G1 F1500 E25.75389
G0 F9000 X109.814 Y106.201
G0 X112.345 Y103.963
G0 X113.028 Y104.125
G0 X114.902 Y107.337
G0 X114.993 Y109.184
G0 X114.655 Y110.91
G0 X113.817 Y112.449
G0 X114.395 Y113.682
G0 X114.921 Y113.603
G1 F1500 E32.25389
G1 X115.157 Y113.38 E32.26469
G1 X115.229 Y113.29 E32.26853
G1 X115.207 Y113.479 E32.27485
G1 X114.973 Y113.592 E32.2835
G1 X114.921 Y113.603 E32.28527
G1 F1500 E25.78527
G0 F9000 X114.044 Y113.887
G0 X113.578 Y114.113
G0 X109.849 Y115.914
G0 X109.507 Y115.765
G0 X109.22 Y115.855
G0 X108.857 Y116.156
G0 X108.496 Y116.711
G1 F1500 E32.28527
G0 F9000 X108.59 Y116.936
G1 F1500 X108.326 Y116.837 E32.29464
G1 X108.025 Y116.543 E32.30864
G1 X107.948 Y116.364 E32.31512
G1 X108.001 Y116.043 E32.32594
G1 X108.035 Y115.924 E32.33006
G1 X108.14 Y115.663 E32.33941
G1 X108.205 Y115.418 E32.34784
G1 X108.178 Y115.091 E32.35876
G1 X108.042 Y114.843 E32.36816
G1 X107.781 Y114.643 E32.3791
G1 X107.519 Y114.54 E32.38846
G1 X107.242 Y114.479 E32.3979
G1 X106.938 Y114.396 E32.40838
G1 X106.7 Y114.273 E32.41729
G1 X106.532 Y114.101 E32.42529
G1 X106.42 Y113.772 E32.43685
G1 X106.36 Y113.385 E32.44987
G1 X106.29 Y113.109 E32.45934
G1 X106.136 Y112.824 E32.47012
G1 X105.898 Y112.577 E32.48152
G1 X105.707 Y112.397 E32.49025
G1 X105.585 Y112.208 E32.49774
G1 X105.562 Y111.94 E32.50668
G1 X105.639 Y111.761 E32.51316
G1 X106.001 Y111.616 E32.52613
G1 X106.233 Y111.469 E32.53527
G1 X106.332 Y111.319 E32.54125
G1 X106.371 Y111.102 E32.54858
G1 X106.281 Y110.838 E32.55786
G1 X106.093 Y110.515 E32.57029
G1 X105.959 Y110.246 E32.58028
G1 X105.858 Y109.957 E32.59046
G1 X105.835 Y109.69 E32.59938
G1 X105.912 Y109.448 E32.60782
G1 X106.11 Y109.284 E32.61638
G1 X106.323 Y109.12 E32.62532
G1 X106.421 Y108.911 E32.63299
G1 X106.382 Y108.656 E32.64157
G1 X106.264 Y108.404 E32.65083
G1 X106.159 Y108.141 E32.66025
G1 X106.111 Y107.843 E32.67029
G1 X106.079 Y107.532 E32.68069
G1 X106.058 Y107.246 E32.69022
G1 X106.183 Y106.879 E32.70312
G1 X106.266 Y106.513 E32.7156
G1 X106.342 Y106.197 E32.72641
G1 X106.349 Y106.176 E32.72715
G1 X106.539 Y105.775 E32.74191
G1 X106.637 Y105.536 E32.7505
G1 X106.725 Y105.259 E32.76016
G1 X106.858 Y104.98 E32.77044
G1 X106.916 Y104.907 E32.77354
G1 X107.093 Y104.712 E32.7823
G1 X107.26 Y104.527 E32.79059
G1 X107.466 Y104.259 E32.80184
G1 X107.7 Y104.068 E32.81188
G1 X107.958 Y103.984 E32.82091
G1 X108.233 Y103.981 E32.83005
G1 X108.578 Y104.046 E32.84173
G1 X108.817 Y104.143 E32.85031
G1 X108.969 Y104.306 E32.85772
G1 X109.015 Y104.401 E32.86123
G1 X109.152 Y104.652 E32.87074
G1 X109.326 Y104.872 E32.88007
G1 X109.537 Y105.052 E32.8893
G1 X109.782 Y105.182 E32.89852
G1 X110.097 Y105.248 E32.90923
G1 X110.309 Y105.213 E32.91637
G1 X110.499 Y105.05 E32.9247
G1 X110.578 Y104.748 E32.93508
G1 X110.62 Y104.362 E32.948
G1 X110.666 Y104.044 E32.95868
G1 X110.769 Y103.896 E32.96468
G1 X111.03 Y103.861 E32.97344
G1 X111.193 Y103.802 E32.9792
G1 X111.379 Y103.571 E32.98907
G1 X111.505 Y103.387 E32.99649
G1 X111.733 Y103.186 E33.0066
G1 X111.916 Y102.988 E33.01556
G1 X112.088 Y102.874 E33.02243
G1 X112.128 Y102.872 E33.02376
G1 X112.42 Y102.93 E33.03366
G1 X112.743 Y103.063 E33.04528
G1 X113.04 Y103.142 E33.0555
G1 X113.293 Y103.168 E33.06396
G1 X113.579 Y103.184 E33.07349
G1 X113.814 Y103.448 E33.08524
G1 X113.947 Y103.721 E33.09534
G1 X114.029 Y104.142 E33.10961
G1 X114.144 Y104.4 E33.119
G1 X114.218 Y104.709 E33.12957
G1 X114.239 Y105.228 E33.14685
G1 X114.28 Y105.504 E33.15613
G1 X114.402 Y105.837 E33.16792
G1 X114.592 Y106.085 E33.17831
G1 X114.806 Y106.251 E33.18732
G1 X115.038 Y106.341 E33.1956
G1 X115.37 Y106.331 E33.20665
G1 X115.651 Y106.261 E33.21628
G1 X115.923 Y106.157 E33.22596
G1 X116.193 Y106.05 E33.23562
G1 X116.26 Y106.037 E33.23789
G1 X116.345 Y106.309 E33.24737
G1 X116.466 Y106.476 E33.25423
G1 X116.605 Y106.563 E33.25968
G1 X116.626 Y106.737 E33.26551
G1 X116.565 Y106.892 E33.27105
G1 X116.47 Y106.997 E33.27576
G1 X116.078 Y107.403 E33.29453
G1 X115.902 Y107.612 E33.30362
G1 X115.759 Y107.835 E33.31243
G1 X115.656 Y108.141 E33.32317
G1 X115.67 Y108.398 E33.33173
G1 X115.779 Y108.589 E33.33905
G1 X116.009 Y108.741 E33.34822
G1 X116.365 Y108.801 E33.36022
G1 X116.529 Y108.803 E33.36568
G1 X116.92 Y108.777 E33.37871
G1 X117.095 Y108.795 E33.38456
G1 X117.105 Y109.017 E33.39195
G1 X117.006 Y109.246 E33.40025
G1 X116.824 Y109.336 E33.40701
G1 X116.452 Y109.395 E33.41953
G1 X116.183 Y109.477 E33.42889
G1 X115.924 Y109.612 E33.4386
G1 X115.738 Y109.818 E33.44783
G1 X115.616 Y110.18 E33.46054
G1 X115.597 Y110.503 E33.4713
G1 X115.619 Y110.755 E33.47971
G1 X115.645 Y111.036 E33.4891
G1 X115.589 Y111.297 E33.49798
G1 X115.377 Y111.566 E33.50937
G1 X115.131 Y111.815 E33.52101
G1 X115.015 Y112.031 E33.52916
G1 X114.992 Y112.128 E33.53248
G1 X114.717 Y112.099 E33.54168
G1 X114.478 Y112.143 E33.54976
G1 X114.179 Y112.303 E33.56104
G1 X113.971 Y112.467 E33.56985
G1 X113.787 Y112.644 E33.57834
G1 X113.59 Y112.936 E33.59006
G1 X113.524 Y113.201 E33.59914
G1 X113.552 Y113.469 E33.6081
G1 X113.673 Y113.664 E33.61573
G1 X113.92 Y113.828 E33.6256
G1 X114.239 Y113.874 E33.63632
G1 X114.27 Y113.875 E33.63735
G1 X113.96 Y114.064 E33.64942
G1 X113.643 Y114.213 E33.66107
G1 X113.437 Y114.38 E33.66989
G1 X113.265 Y114.579 E33.67864
G1 X113.089 Y114.807 E33.68822
G1 X112.821 Y115.104 E33.70153
G1 X112.638 Y115.29 E33.71021
G1 X112.372 Y115.523 E33.72197
G1 X112.131 Y115.685 E33.73163
G1 X111.767 Y115.876 E33.7453
G1 X111.539 Y116.032 E33.75449
G1 X111.329 Y116.242 E33.76436
G1 X111.178 Y116.446 E33.77281
G1 X110.972 Y116.775 E33.78572
G1 X110.81 Y116.964 E33.794
G1 X110.601 Y117.041 E33.8014
G1 X110.346 Y117.028 E33.8099
G1 X110.091 Y116.922 E33.81908
G1 X109.929 Y116.758 E33.82675
G1 X109.887 Y116.574 E33.83303
G1 X109.882 Y116.272 E33.84307
G1 X109.849 Y116.118 E33.84831
G1 X109.692 Y115.95 E33.85596
G1 X109.514 Y115.908 E33.86204
G1 X109.281 Y115.982 E33.87017
G1 X109.002 Y116.182 E33.88159
G1 X108.887 Y116.307 E33.88724
G1 X108.792 Y116.499 E33.89436
G1 X108.664 Y116.828 E33.9061
G1 X108.59 Y116.936 E33.91046
G0 F9000 X108.522 Y116.721
G0 X108.228 Y113.875
;TYPE:FILL
G1 F3000 X108.424 Y113.145 E33.9356
G0 F9000 X108.588 Y113.082
;TYPE:SKIN
G1 F1500 X108.183 Y113.031 E33.94918
G1 X108.048 Y112.982 E33.95395
G1 X107.756 Y113.373 E33.97018
G1 X107.555 Y113.329 E33.97703
G1 X107.526 Y113.147 E33.98316
G1 X107.409 Y112.675 E33.99933
G1 X107.163 Y112.221 E34.0165
G1 X107.46 Y111.771 E34.03444
G1 X107.597 Y111.01 E34.06016
G1 X107.37 Y110.342 E34.08362
G1 X107.159 Y109.979 E34.09759
G1 X107.277 Y109.887 E34.10256
G1 X107.653 Y109.09 E34.13187
G1 X107.62 Y108.875 E34.13911
G1 X107.73 Y108.903 E34.14288
G1 X108.426 Y108.891 E34.16604
G1 X109.153 Y108.655 E34.19146
G1 X109.762 Y108.073 E34.21948
G1 X110.01 Y107.41 E34.24302
G1 X110.077 Y106.879 E34.26082
G1 X110.057 Y106.455 E34.27494
G1 X110.071 Y106.458 E34.27541
G1 X110.833 Y106.332 E34.3011
G1 X111.556 Y105.71 E34.33282
G1 X111.75 Y104.966 E34.3584
G1 X111.762 Y104.862 E34.36188
G1 X111.911 Y104.807 E34.36716
G1 X112.316 Y104.305 E34.38861
G1 X112.409 Y104.206 E34.39313
G1 X112.825 Y104.316 E34.40744
G1 X112.887 Y104.503 E34.414
G1 X113.012 Y104.783 E34.4242
G1 X113.034 Y104.871 E34.42721
G1 X113.053 Y105.34 E34.44282
G1 X113.12 Y105.798 E34.45822
G1 X113.347 Y106.418 E34.48018
G1 X113.741 Y106.93 E34.50167
G1 X114.213 Y107.298 E34.52157
G1 X114.63 Y107.459 E34.53644
G1 X114.454 Y107.977 E34.55464
G1 X114.498 Y108.743 E34.58016
G1 X114.733 Y109.156 E34.59596
G1 X114.689 Y109.205 E34.59815
G1 X114.438 Y109.951 E34.62433
G1 X114.403 Y110.521 E34.64332
G1 X114.432 Y110.829 E34.65361
G1 X114.298 Y110.965 E34.65996
G1 X114.079 Y111.007 E34.66738
G1 X113.525 Y111.303 E34.68827
G1 X113.188 Y111.569 E34.70255
G1 X112.871 Y111.874 E34.71718
G1 X112.486 Y112.446 E34.74012
G1 X112.319 Y113.118 E34.76315
G1 X112.388 Y113.773 E34.78505
G1 X112.343 Y113.825 E34.78734
G1 X112.174 Y114.044 E34.79654
G1 X111.954 Y114.289 E34.80749
G1 X111.649 Y114.574 E34.82138
G1 X111.516 Y114.663 E34.8267
G1 X111.153 Y114.855 E34.84036
G1 X110.776 Y115.112 E34.85553
G1 X110.653 Y115.235 E34.86132
G1 X110.317 Y114.873 E34.87774
G1 X109.466 Y114.674 E34.90681
G1 X109.622 Y114.425 E34.91659
G1 X109.82 Y114.184 E34.92696
G1 X110.033 Y113.962 E34.93719
G1 X110.151 Y113.82 E34.94333
G1 X110.052 Y113.5 E34.95447
G1 X109.949 Y113.248 E34.96353
G1 X109.778 Y112.998 E34.9736
G1 X109.398 Y113.002 E34.98624
G1 X109.347 Y113.006 E34.98794
G1 X109.093 Y113.051 E34.99652
G1 X108.865 Y113.077 E35.00416
G1 X108.588 Y113.082 E35.01337
G0 F9000 X107.866 Y112.957
G1 F1500 X107.57 Y112.661 E35.02729
G0 F9000 X107.49 Y112.015
G1 F1500 X108.366 Y112.892 E35.06852
G0 F9000 X108.945 Y112.905
G1 F1500 X107.651 Y111.611 E35.12939
G0 F9000 X107.737 Y111.131
G1 F1500 X109.446 Y112.84 E35.20977
G0 F9000 X109.56 Y113.236
G0 X109.848 Y113.791
G0 X110.27 Y113.664
G1 F1500 X111.234 Y114.628 E35.25512
G0 F9000 X111.584 Y114.413
G1 F1500 X107.551 Y110.38 E35.44482
G0 F9000 X107.507 Y109.77
G1 F1500 X111.874 Y114.137 E35.65023
G0 F9000 X112.135 Y113.832
G1 F1500 X107.688 Y109.385 E35.8594
G0 F9000 X107.927 Y109.058
G1 F1500 X112.178 Y113.31 E36.05938
G0 F9000 X112.233 Y112.799
G1 F1500 X108.476 Y109.042 E36.2361
G0 F9000 X108.903 Y108.903
G1 F1500 X112.354 Y112.354 E36.39842
G0 F9000 X112.582 Y112.016
G1 F1500 X109.3 Y108.734 E36.55279
G0 F9000 X109.589 Y108.458
G1 F1500 X112.825 Y111.694 E36.70501
G0 F9000 X113.117 Y111.42
G1 F1500 X109.879 Y108.182 E36.85731
G0 F9000 X110.042 Y107.779
G1 F1500 X113.432 Y111.169 E37.01677
G0 F9000 X113.801 Y110.972
G1 F1500 X110.177 Y107.349 E37.18721
G0 F9000 X110.235 Y106.841
G1 F1500 X114.211 Y110.817 E37.37422
G0 F9000 X114.255 Y110.295
G1 F1500 X110.508 Y106.548 E37.55047
G0 F9000 X110.959 Y106.434
G1 F1500 X114.321 Y109.796 E37.70861
G0 F9000 X114.464 Y109.373
G1 F1500 X111.263 Y106.172 E37.85918
G0 F9000 X111.568 Y105.911
G1 F1500 X114.333 Y108.676 E37.98923
G0 F9000 X114.298 Y108.076
G1 F1500 X111.764 Y105.542 E38.10842
G0 F9000 X111.881 Y105.093
G1 F1500 X113.159 Y106.37 E38.16851
G0 F9000 X112.924 Y105.571
G1 F1500 X112.135 Y104.781 E38.20565
G0 F9000 X112.388 Y104.468
G1 F1500 X112.877 Y104.957 E38.22865
G0 F9000 X113.317 Y104.941
G0 X114.447 Y107.089
G0 X114.288 Y107.5
G1 F1500 X114.407 Y107.618 E38.23422
G0 F9000 X114.823 Y107.76
G0 X114.993 Y109.184
G0 X114.655 Y110.91
G0 X112.343 Y114.185
G0 X111.637 Y114.848
G0 X110.649 Y115.533
G0 X109.158 Y114.987
G0 X109.57 Y114.14
G0 X109.806 Y113.796
G0 X110.129 Y114.089
G1 F1500 X110.883 Y114.843 E38.26969
G0 F9000 X110.139 Y114.665
G1 F1500 X109.86 Y114.385 E38.28284
G0 F9000 X109.307 Y114.964
;TYPE:SKIN
G1 F1500 X109.141 Y114.798 E38.28674
G0 F9000 X109.106 Y114.755
G0 X108.142 Y113.216
G0 X107.85 Y113.618
G0 X107.364 Y113.492
G0 X106.93 Y112.178
G0 X106.899 Y109.912
G0 X107.375 Y108.605
G0 X109.857 Y106.87
G0 X109.814 Y106.201
G0 X112.345 Y103.963
G0 X112.959 Y104.108
G0 X113.062 Y104.294
G1 F1500 X112.97 Y104.202 E38.2889
G0 F9000 X112.322 Y103.553
G1 F1500 X111.987 Y103.785 E38.29372
G0 F9000 X112.019 Y103.816
G0 X110.368 Y105.342
G0 X109.44 Y105.763
G0 X109.315 Y105.638
G1 F1500 X109.261 Y105.867 E38.30174
G0 F9000 X109.307 Y105.913
G0 X108.755 Y105.078
G0 X108.499 Y104.822
G1 F1500 X108.174 Y104.78 E38.31149
G1 X107.858 Y104.746 E38.32093
G1 X107.915 Y104.238 E38.33613
G0 F9000 X107.896 Y104.219
G0 X107.178 Y104.915
G0 X107.252 Y104.989
G1 F1500 X107.11 Y105.131 E38.34151
G1 X106.968 Y105.271 E38.34685
G0 F9000 X106.997 Y105.288
G0 X107.567 Y105.168
G0 X107.85 Y105.207
G0 X108.461 Y105.58
G0 X108.898 Y106.131
G0 X109.005 Y106.463
G0 X108.981 Y107.156
G0 X108.861 Y107.478
G0 X108.599 Y107.73
G0 X108.25 Y107.844
G0 X107.852 Y107.85
G0 X107.151 Y107.615
G0 X106.88 Y107.415
G0 X106.374 Y106.937
G0 X106.445 Y107.011
G1 F1500 X106.354 Y107.203 E38.34956
G1 X106.89 Y108.022 E38.36205
G1 X106.858 Y108.272 E38.36527
G0 F9000 X106.819 Y108.233
G0 X106.474 Y109.11
G0 X106.13 Y109.528
G0 X106.114 Y109.508
G1 F1500 X106.172 Y109.566 E38.36664
G0 F9000 X106.513 Y111.089
G0 X106.464 Y111.372
G0 X105.912 Y111.866
G0 X105.903 Y111.843
G1 F1500 X105.962 Y111.902 E38.36802
G0 F9000 X107.364 Y113.492
G0 X107.85 Y113.618
G0 X108.181 Y113.272
G0 X108.121 Y113.212
G1 F1500 X108.739 Y113.264 E38.37021
G1 X109.503 Y113.18 E38.37292
G1 X109.882 Y113.842 E38.37561
G1 X109.264 Y114.638 E38.37917
G1 X109.162 Y114.819 E38.3799
G1 X108.95 Y115.455 E38.38226
G1 X108.789 Y115.577 E38.38298
G0 F9000 X108.762 Y115.551
G0 X109.765 Y115.826
G0 X110.105 Y116.611
G0 X110.137 Y116.643
G1 F1500 X110.521 Y116.178 E38.38825
G1 X110.693 Y116.067 E38.39004
G0 F9000 X110.722 Y116.096
G0 X113.026 Y113.874
G0 X113.052 Y113.901
G1 F1500 X113.613 Y113.896 E38.39565
G0 F9000 X113.697 Y113.967
G0 X113.418 Y113.513
G0 X113.384 Y113.191
G0 X113.461 Y112.88
G0 X113.695 Y112.589
G0 X114.634 Y111.522
G1 F1500 X114.575 Y111.464 E38.39702
G0 F9000 X115.617 Y109.745
G0 X116.315 Y109.228
G0 X116.216 Y109.145
G1 F1500 X116.44 Y109.086 E38.40194
G1 X116.898 Y108.978 E38.41194
G0 F9000 X116.876 Y108.981
G0 X115.958 Y108.873
G0 X115.675 Y108.685
G0 X115.533 Y108.437
G0 X115.582 Y107.097
G0 X115.486 Y107.001
G1 F1500 X115.672 Y106.904 E38.41857
G0 F9000 X115.717 Y106.949
;MESH:NONMESH
G0 F300 X115.717 Y106.949 Z1.2
G0 F9000 X114.655 Y110.91
G0 X112.343 Y114.185
G0 X111.637 Y114.848
G0 X110.649 Y115.533
G0 X109.158 Y114.987
G0 X109.138 Y114.832
;TIME_ELAPSED:96.613588
;LAYER:5
;TYPE:WALL-INNER
;MESH:pose1_34.stl
G1 F1500 X109.097 Y114.648 E38.42484
G1 X108.799 Y114.139 E38.44445
G1 X108.293 Y113.799 E38.46473
G1 X107.843 Y113.657 E38.48042
G1 X107.546 Y113.602 E38.49047
G1 X107.48 Y113.541 E38.49346
G1 X107.469 Y113.29 E38.50182
G1 X107.429 Y112.796 E38.5183
G1 X107.238 Y112.316 E38.53548
G1 X106.897 Y111.933 E38.55254
G1 X106.585 Y111.713 E38.56524
G1 X106.436 Y111.621 E38.57106
G1 X106.554 Y111.289 E38.58278
G1 X106.59 Y111.069 E38.59019
G1 X106.635 Y111.079 E38.59173
G1 X107.125 Y111.025 E38.60812
G1 X107.44 Y110.98 E38.61871
G1 X107.958 Y110.841 E38.63654
G1 X108.43 Y110.45 E38.65693
G1 X108.7 Y109.854 E38.67869
G1 X108.762 Y109.273 E38.69813
G1 X108.691 Y108.793 E38.71427
G1 X108.4 Y108.218 E38.7357
G1 X108.021 Y107.839 E38.75353
G1 X107.647 Y107.601 E38.76827
G1 X107.17 Y107.391 E38.78561
G1 X107.081 Y107.226 E38.79184
G1 X106.932 Y106.981 E38.80138
G1 X106.884 Y106.909 E38.80426
G1 X106.929 Y106.711 E38.81101
G1 X106.982 Y106.323 E38.82403
G1 X106.994 Y106.079 E38.83216
G1 X107.122 Y105.782 E38.84292
G1 X107.265 Y105.542 E38.85221
G1 X107.352 Y105.451 E38.8564
G1 X107.576 Y105.275 E38.86587
G1 X107.898 Y105.017 E38.87959
G1 X107.966 Y105.016 E38.88186
G1 X108.041 Y105.09 E38.88536
G1 X108.278 Y105.359 E38.89728
G1 X108.392 Y105.481 E38.90284
G1 X108.651 Y105.735 E38.9149
G1 X109.002 Y106.002 E38.92957
G1 X109.228 Y106.12 E38.93805
G1 X109.589 Y106.269 E38.95104
G1 X110.081 Y106.367 E38.96773
G1 X110.661 Y106.297 E38.98716
G1 X111.175 Y105.902 E39.00872
G1 X111.391 Y105.441 E39.02565
G1 X111.482 Y105.183 E39.03475
G1 X111.498 Y105.184 E39.03528
G1 X112.116 Y104.873 E39.05829
G1 X112.423 Y104.413 E39.07669
G1 X112.55 Y104.15 E39.0864
G1 X112.757 Y103.808 E39.0997
G1 X112.802 Y103.582 E39.10736
G1 X113.088 Y103.588 E39.11688
G1 X113.068 Y103.695
G1 X112.966 Y104.021 E39.12519
G1 X112.867 Y104.551 E39.14313
G1 X113.038 Y105.042 E39.16042
G1 X113.094 Y105.144 E39.16429
G1 X113.087 Y105.546 E39.17766
G1 X113.123 Y105.923 E39.19026
G1 X113.293 Y106.482 E39.20969
G1 X113.651 Y106.944 E39.22913
G1 X114.072 Y107.255 E39.24654
G1 X114.663 Y107.477 E39.26754
G1 X115.286 Y107.475 E39.28826
G1 X115.369 Y107.456 E39.29109
G1 X115.49 Y107.553 E39.29625
G1 X115.452 Y107.626 E39.29765
G1 X115.372 Y108.192 E39.31667
G1 X115.574 Y108.68 E39.33423
G1 X115.525 Y108.696 E39.33595
G1 X114.969 Y109.018 E39.35732
G1 X114.597 Y109.583 E39.37982
G1 X114.5 Y110.143 E39.39872
G1 X114.538 Y110.581 E39.41334
G1 X114.634 Y110.928 E39.42532
G1 X114.629 Y110.963 E39.42649
G1 X114.115 Y111.416 E39.44928
G1 X114.06 Y112.121 E39.4728
G1 X114.142 Y112.513 E39.48612
G1 X114.227 Y112.796 E39.49595
G1 X114.251 Y112.868 E39.49847
G1 X113.853 Y112.836 E39.50744
G1 X113.259 Y113.069 E39.52866
G1 X112.931 Y113.388 E39.54388
G1 X112.674 Y113.701 E39.55735
G1 X112.551 Y113.898 E39.56507
G1 X112.405 Y114.148 E39.5747
G1 X112.251 Y114.432 E39.58545
G1 X112.029 Y114.7 E39.59702
G1 X111.915 Y114.771 E39.60149
G1 X111.452 Y114.937 E39.61785
G1 X111.066 Y115.152 E39.63255
G1 X110.81 Y115.371 E39.64375
G1 X110.669 Y115.11 E39.64839
G1 X110.181 Y114.751 E39.66854
G1 X109.578 Y114.681 E39.68873
G1 X109.138 Y114.832 E39.7042
G0 F9000 X108.81 Y115.476
G1 F1500 X108.813 Y115.219 E39.71275
G1 X108.72 Y114.796 E39.72715
G1 X108.5 Y114.42 E39.74164
G1 X108.118 Y114.163 E39.75696
G1 X107.746 Y114.046 E39.76993
G1 X107.427 Y113.987 E39.78072
G1 X107.151 Y113.864 E39.79077
G1 X107.082 Y113.598 E39.79991
G1 X107.07 Y113.315 E39.80933
G1 X107.035 Y112.888 E39.82358
G1 X106.892 Y112.529 E39.83643
G1 X106.629 Y112.233 E39.8496
G1 X106.366 Y112.048 E39.86029
G1 X106.111 Y111.893 E39.87022
G1 X106.01 Y111.722 E39.87682
G1 X106.049 Y111.515 E39.88383
G1 X106.165 Y111.189 E39.89534
G1 X106.245 Y110.696 E39.91195
G1 X106.259 Y110.588 E39.91557
G1 X106.656 Y110.674 E39.92908
G1 X107.075 Y110.628 E39.9431
G1 X107.359 Y110.587 E39.95265
G1 X107.77 Y110.477 E39.9668
G1 X108.104 Y110.201 E39.98121
G1 X108.309 Y109.748 E39.99775
G1 X108.359 Y109.281 E40.01337
G1 X108.305 Y108.916 E40.02564
G1 X108.072 Y108.456 E40.04279
G1 X107.769 Y108.153 E40.05704
G1 X107.458 Y107.955 E40.06931
G1 X106.946 Y107.73 E40.08791
G1 X106.846 Y107.635 E40.09249
G1 X106.733 Y107.424 E40.10045
G1 X106.594 Y107.195 E40.10936
G1 X106.491 Y107.038 E40.11561
G1 X106.477 Y106.896 E40.12036
G1 X106.535 Y106.64 E40.12909
G1 X106.583 Y106.287 E40.14094
G1 X106.597 Y105.988 E40.15089
G1 X106.765 Y105.6 E40.16495
G1 X106.945 Y105.297 E40.17668
G1 X107.082 Y105.154 E40.18326
G1 X107.327 Y104.962 E40.19362
G1 X107.691 Y104.669 E40.20916
G1 X107.949 Y104.566 E40.2184
G1 X108.198 Y104.682 E40.22753
G1 X108.333 Y104.816 E40.23386
G1 X108.575 Y105.09 E40.24602
G1 X108.679 Y105.202 E40.2511
G1 X108.913 Y105.432 E40.26201
G1 X109.217 Y105.663 E40.27471
G1 X109.397 Y105.757 E40.28147
G1 X109.705 Y105.884 E40.29255
G1 X110.097 Y105.962 E40.30584
G1 X110.504 Y105.913 E40.31948
G1 X110.854 Y105.644 E40.33416
G1 X111.02 Y105.289 E40.34719
G1 X111.119 Y105.01 E40.35704
G1 X111.237 Y104.764 E40.36611
G1 X111.417 Y104.777 E40.37212
G1 X111.842 Y104.563 E40.38794
G1 X112.075 Y104.214 E40.4019
G1 X112.195 Y103.964 E40.41112
G1 X112.378 Y103.661 E40.4229
G1 X112.45 Y103.299 E40.43517
G1 X112.494 Y103.187 E40.43917
G1 X112.918 Y103.18 E40.45328
G1 X113.169 Y103.191 E40.46164
G1 X113.359 Y103.228 E40.46807
G1 X113.478 Y103.464 E40.47686
G1 X113.496 Y103.584 E40.4809
G1 X113.456 Y103.796 E40.48808
G1 X113.355 Y104.118 E40.4993
G1 X113.28 Y104.52 E40.5129
G1 X113.405 Y104.88 E40.52558
G1 X113.496 Y105.047 E40.5319
G1 X113.487 Y105.531 E40.548
G1 X113.517 Y105.845 E40.55849
G1 X113.654 Y106.295 E40.57414
G1 X113.933 Y106.655 E40.58929
G1 X114.265 Y106.9 E40.60301
G1 X114.735 Y107.077 E40.61971
G1 X115.24 Y107.075 E40.63651
G1 X115.468 Y107.023 E40.64429
G1 X115.821 Y107.305 E40.65932
G1 X116.11 Y107.296 E40.66893
G1 X116.025 Y107.395
G1 X115.838 Y107.751 E40.68231
G1 X115.783 Y108.14 E40.69538
G1 X115.97 Y108.593 E40.71168
G1 X116.345 Y108.837 E40.72656
G1 X116.43 Y108.844 E40.72939
G1 X115.997 Y108.959 E40.73741
G1 X115.691 Y109.062 E40.74814
G1 X115.251 Y109.317 E40.76506
G1 X114.977 Y109.733 E40.78163
G1 X114.903 Y110.16 E40.79604
G1 X114.933 Y110.51 E40.80772
G1 X115.016 Y110.809 E40.81805
G1 X115.12 Y111.11 E40.82864
G1 X115.122 Y111.129 E40.82927
G1 X114.868 Y111.286 E40.8392
G1 X114.501 Y111.609 E40.85547
G1 X114.463 Y112.095 E40.87168
G1 X114.53 Y112.414 E40.88252
G1 X114.609 Y112.677 E40.89165
G1 X114.71 Y112.988 E40.90253
G1 X114.749 Y113.167 E40.90862
G1 X114.512 Y113.252 E40.917
G1 X114.288 Y113.273 E40.92448
G1 X113.913 Y113.242 E40.937
G1 X113.48 Y113.412 E40.95247
G1 X113.226 Y113.659 E40.96425
G1 X113 Y113.934 E40.97609
G1 X112.894 Y114.105 E40.98278
G1 X112.756 Y114.34 E40.99185
G1 X112.708 Y114.434 E40.99536
G1 X112.58 Y114.661 E41.00402
G1 X112.296 Y115.005 E41.01886
G1 X112.089 Y115.134 E41.02697
G1 X111.618 Y115.302 E41.04361
G1 X111.296 Y115.482 E41.05587
G1 X111.002 Y115.733 E41.06873
G1 X110.792 Y115.953 E41.07885
G1 X110.613 Y116.118 E41.08695
G1 X110.543 Y115.721 E41.09489
G1 X110.359 Y115.379 E41.10781
G1 X110.029 Y115.136 E41.12144
G1 X109.622 Y115.089 E41.13507
G1 X109.266 Y115.211 E41.14758
G1 X109.113 Y115.296 E41.1534
G1 X108.9 Y115.43 E41.15806
G1 X108.81 Y115.476
G0 F9000 X108.616 Y115.762
G0 X108.402 Y116.796
;TYPE:WALL-OUTER
G1 F1500 X108.247 Y116.746 E41.16347
G1 X108.137 Y116.618 E41.16909
G1 X108.135 Y116.44 E41.17501
G1 X108.337 Y115.943 E41.19285
G1 X108.408 Y115.59 E41.20483
G1 X108.412 Y115.26 E41.2158
G1 X108.343 Y114.943 E41.22659
G1 X108.201 Y114.701 E41.23593
G1 X107.943 Y114.527 E41.24628
G1 X107.65 Y114.435 E41.25649
G1 X107.332 Y114.377 E41.26724
G1 X107.048 Y114.282 E41.2772
G1 X106.827 Y114.124 E41.28624
G1 X106.713 Y113.857 E41.29589
G1 X106.682 Y113.625 E41.30368
G1 X106.671 Y113.339 E41.3132
G1 X106.641 Y112.981 E41.32515
G1 X106.546 Y112.742 E41.3337
G1 X106.361 Y112.533 E41.34298
G1 X106.147 Y112.383 E41.35168
G1 X105.852 Y112.203 E41.36317
G1 X105.664 Y111.994 E41.37252
G1 X105.602 Y111.73 E41.38154
G1 X105.662 Y111.411 E41.39234
G1 X105.776 Y111.089 E41.4037
G1 X105.849 Y110.638 E41.41889
G1 X105.862 Y110.538 E41.42225
G1 X105.885 Y110.227 E41.43262
G1 X105.942 Y110.048 E41.43887
G1 X106.109 Y110.081 E41.44453
G1 X106.356 Y110.2 E41.45365
G1 X106.677 Y110.269 E41.46457
G1 X107.024 Y110.231 E41.47618
G1 X107.279 Y110.194 E41.48475
G1 X107.583 Y110.113 E41.49521
G1 X107.778 Y109.952 E41.50362
G1 X107.918 Y109.642 E41.51494
G1 X107.956 Y109.289 E41.52674
G1 X107.919 Y109.039 E41.53515
G1 X107.744 Y108.694 E41.54802
G1 X107.517 Y108.467 E41.55869
G1 X107.269 Y108.309 E41.56847
G1 X106.97 Y108.177 E41.57935
G1 X106.724 Y108.069 E41.58828
G1 X106.523 Y107.88 E41.59746
G1 X106.385 Y107.622 E41.60719
G1 X106.255 Y107.408 E41.61552
G1 X106.103 Y107.174 E41.6248
G1 X106.073 Y106.873 E41.63486
G1 X106.141 Y106.569 E41.64522
G1 X106.184 Y106.251 E41.65589
G1 X106.2 Y105.907 E41.66735
G1 X106.3 Y105.64 E41.67683
G1 X106.414 Y105.408 E41.68543
G1 X106.625 Y105.052 E41.69919
G1 X106.813 Y104.856 E41.70822
G1 X107.079 Y104.649 E41.71943
G1 X107.468 Y104.335 E41.73606
G1 X107.727 Y104.194 E41.74587
G1 X107.975 Y104.158 E41.75421
G1 X108.241 Y104.231 E41.76338
G1 X108.453 Y104.371 E41.77183
G1 X108.625 Y104.542 E41.7799
G1 X108.872 Y104.822 E41.79231
G1 X108.966 Y104.924 E41.79693
G1 X109.175 Y105.129 E41.80667
G1 X109.432 Y105.324 E41.8174
G1 X109.566 Y105.394 E41.82242
G1 X109.821 Y105.499 E41.8316
G1 X110.113 Y105.557 E41.8415
G1 X110.347 Y105.529 E41.84934
G1 X110.533 Y105.386 E41.85714
G1 X110.65 Y105.137 E41.86629
G1 X110.746 Y104.866 E41.87585
G1 X110.852 Y104.628 E41.88452
G1 X111.007 Y104.375 E41.89439
G1 X111.045 Y104.35 E41.8959
G1 X111.335 Y104.37 E41.90557
G1 X111.568 Y104.253 E41.91424
G1 X111.727 Y104.015 E41.92376
G1 X111.842 Y103.775 E41.93261
G1 X111.999 Y103.514 E41.94274
G1 X112.065 Y103.185 E41.9539
G1 X112.169 Y102.922 E41.96331
G1 X112.337 Y102.802 E41.97017
G1 X112.677 Y102.764 E41.98155
G1 X112.939 Y102.781 E41.99029
G1 X113.216 Y102.792 E41.99951
G1 X113.525 Y102.852 E42.00998
G1 X113.674 Y102.962 E42.01614
G1 X113.863 Y103.339 E42.03016
G1 X113.902 Y103.592 E42.03868
G1 X113.844 Y103.896 E42.04897
G1 X113.744 Y104.215 E42.06009
G1 X113.693 Y104.489 E42.06936
G1 X113.772 Y104.717 E42.07738
G1 X113.893 Y104.938 E42.08576
G1 X113.897 Y105.022 E42.08856
G1 X113.887 Y105.516 E42.105
G1 X113.911 Y105.767 E42.11338
G1 X114.015 Y106.108 E42.12524
G1 X114.215 Y106.366 E42.1361
G1 X114.458 Y106.545 E42.14614
G1 X114.807 Y106.677 E42.15855
G1 X115.194 Y106.675 E42.17142
G1 X115.53 Y106.598 E42.18288
G1 X115.704 Y106.558 E42.18882
G1 X115.795 Y106.772 E42.19655
G1 X115.956 Y106.901 E42.20342
G1 X116.271 Y106.891 E42.2139
G1 X116.58 Y106.772 E42.22491
G1 X116.739 Y106.749 E42.23026
G1 X116.86 Y107.004 E42.23964
G1 X116.855 Y107.109 E42.24314
G1 X116.793 Y107.193 E42.24661
G1 X116.544 Y107.406 E42.25751
G1 X116.358 Y107.622 E42.26699
G1 X116.224 Y107.876 E42.27654
G1 X116.194 Y108.088 E42.28366
G1 X116.292 Y108.325 E42.29219
G1 X116.478 Y108.446 E42.29957
G1 X116.862 Y108.477 E42.31239
G1 X117.131 Y108.443 E42.32141
G1 X117.227 Y108.472 E42.32474
G1 X117.225 Y108.684 E42.33179
G1 X117.127 Y108.935 E42.34075
G1 X116.915 Y109.109 E42.34988
G1 X116.739 Y109.174 E42.35612
G1 X116.376 Y109.273 E42.36863
G1 X116.112 Y109.342 E42.37771
G1 X115.857 Y109.428 E42.38666
G1 X115.533 Y109.616 E42.39912
G1 X115.357 Y109.883 E42.40975
G1 X115.306 Y110.178 E42.41971
G1 X115.328 Y110.439 E42.42842
G1 X115.398 Y110.69 E42.43709
G1 X115.512 Y111.021 E42.44873
G1 X115.54 Y111.245 E42.45624
G1 X115.438 Y111.404 E42.46252
G1 X115.107 Y111.609 E42.47547
G1 X114.887 Y111.802 E42.48521
G1 X114.866 Y112.069 E42.49412
G1 X114.918 Y112.315 E42.50248
G1 X114.991 Y112.558 E42.51092
G1 X115.098 Y112.887 E42.52242
G1 X115.164 Y113.191 E42.53277
G1 X115.09 Y113.409 E42.54043
G1 X114.884 Y113.568 E42.54908
G1 X114.585 Y113.647 E42.55937
G1 X114.285 Y113.674 E42.56939
G1 X113.973 Y113.648 E42.5798
G1 X113.701 Y113.755 E42.58952
G1 X113.521 Y113.93 E42.59787
G1 X113.326 Y114.168 E42.60811
G1 X113.236 Y114.312 E42.61375
G1 X113.107 Y114.532 E42.62224
G1 X113.057 Y114.63 E42.62589
G1 X112.919 Y114.875 E42.63525
G1 X112.751 Y115.111 E42.64488
G1 X112.549 Y115.319 E42.65453
G1 X112.264 Y115.496 E42.66568
G1 X111.784 Y115.667 E42.68263
G1 X111.526 Y115.812 E42.69248
G1 X111.277 Y116.024 E42.70335
G1 X111.077 Y116.234 E42.713
G1 X110.884 Y116.43 E42.72215
G1 X110.643 Y116.55 E42.7311
G1 X110.345 Y116.544 E42.74101
G1 X110.27 Y116.474 E42.74443
G1 X110.209 Y116.131 E42.75601
G1 X110.16 Y115.854 E42.76537
G1 X110.049 Y115.648 E42.77315
G1 X109.877 Y115.521 E42.78026
G1 X109.666 Y115.497 E42.78733
G1 X109.429 Y115.578 E42.79566
G1 X109.317 Y115.64 E42.79992
G1 X109.1 Y115.777 E42.80845
G1 X108.767 Y115.947 E42.82089
G1 X108.59 Y116.065 E42.82796
G1 X108.492 Y116.281 E42.83585
G1 X108.468 Y116.556 E42.84503
G1 X108.402 Y116.796 E42.85331
G0 F9000 X108.616 Y115.762
G0 X108.651 Y115.236
G0 X108.138 Y113.666
;TYPE:FILL
G1 F3000 X109.091 Y110.11 E42.97576
G0 F9000 X109.54 Y111
G1 F3000 X108.342 Y111.321 E43.01701
G0 F9000 X108.255 Y111.48
;TYPE:SKIN
G1 F1500 X108.156 Y111.832 E43.02917
G1 X108.24 Y112.094 E43.03832
G1 X107.918 Y112.331 E43.05162
