;FLAVOR:Marlin
;TIME:2074
;Filament used: 1.51463m
;Layer height: 0.2
;MINX:89
;MINY:89
;MINZ:0.2
;MAXX:131
;MAXY:131
;MAXZ:20
;Generated with Cura_SteamEngine 4.13.1
M140 S60
M105
M190 S60
M104 S200
M105
M109 S200
M82 ;absolute extrusion mode
; Ender 3 Custom Start G-code
G92 E0 ; Reset Extruder
G28 ; Home all axes
G1 Z2.0 F3000 ; Move Z Axis up little to prevent scratching of Heat Bed
G1 X0.1 Y20 Z0.3 F5000.0 ; Move to start position
G1 X0.1 Y200.0 Z0.3 F1500.0 E15 ; Draw the first line
G1 X0.4 Y200.0 Z0.3 F5000.0 ; Move to side a little
G1 X0.4 Y20 Z0.3 F1500.0 E30 ; Draw the second line
G92 E0 ; Reset Extruder
G1 Z2.0 F3000 ; Move Z Axis up little to prevent scratching of Heat Bed
G1 X5 Y20 Z0.3 F5000.0 ; Move over to prevent blob squish
G92 E0
G92 E0
G1 F1500 E-6.5
;LAYER_COUNT:100
;LAYER:0
M107
G0 F6000 X92.198 Y92.264 Z0.2
;TYPE:SKIRT
G1 F1500 E0
G1 F1200 X92.886 Y91.627 E0.03119
G1 X93.626 Y91.051 E0.06237
G1 X94.412 Y90.539 E0.09357
G1 X95.239 Y90.097 E0.12476
G1 X96.101 Y89.727 E0.15596
G1 X96.991 Y89.431 E0.18716
G1 X97.903 Y89.213 E0.21835
G1 X98.83 Y89.072 E0.24953
G1 X99.701 Y89.013 E0.27857
G1 X100.022 Y89.004 E0.28925
G1 X100.33 Y89 E0.29949
G1 X119.293 Y89 E0.93021
G1 X120.149 Y89.011 E0.95868
G1 X121.085 Y89.065 E0.98986
G1 X122.013 Y89.197 E1.02104
G1 X122.927 Y89.409 E1.05225
G1 X123.819 Y89.698 E1.08343
G1 X124.684 Y90.061 E1.11463
G1 X125.514 Y90.497 E1.14582
G1 X126.305 Y91.002 E1.17703
G1 X127.049 Y91.573 E1.20822
G1 X127.742 Y92.205 E1.23942
G1 X128.379 Y92.893 E1.2706
G1 X128.954 Y93.634 E1.3018
G1 X129.465 Y94.42 E1.33298
G1 X129.907 Y95.248 E1.3642
G1 X130.276 Y96.11 E1.39538
G1 X130.571 Y97 E1.42657
G1 X130.789 Y97.912 E1.45776
G1 X130.929 Y98.84 E1.48897
G1 X130.987 Y99.701 E1.51767
G1 X130.996 Y100.021 E1.52832
G1 X131 Y100.33 E1.5386
G1 X130.999 Y119.4 E2.17287
G1 X130.99 Y120.127 E2.19705
G1 X130.939 Y121.064 E2.22826
G1 X130.807 Y121.992 E2.25944
G1 X130.598 Y122.906 E2.29062
G1 X130.311 Y123.799 E2.32182
G1 X129.949 Y124.665 E2.35304
G1 X129.515 Y125.496 E2.38422
G1 X129.011 Y126.287 E2.41542
G1 X128.442 Y127.032 E2.4466
G1 X127.811 Y127.727 E2.47782
G1 X127.124 Y128.365 E2.509
G1 X126.385 Y128.942 E2.54018
G1 X125.599 Y129.454 E2.57138
G1 X124.773 Y129.897 E2.60256
G1 X123.911 Y130.269 E2.63378
G1 X123.022 Y130.565 E2.66495
G1 X122.11 Y130.785 E2.69615
G1 X121.183 Y130.926 E2.72734
G1 X120.299 Y130.987 E2.75681
G1 X119.978 Y130.996 E2.76749
G1 X119.67 Y131 E2.77774
G1 X100.565 Y130.999 E3.41317
G1 X99.867 Y130.99 E3.43639
G1 X98.931 Y130.938 E3.46757
G1 X98.002 Y130.806 E3.49878
G1 X97.088 Y130.596 E3.52997
G1 X96.195 Y130.309 E3.56117
G1 X95.33 Y129.946 E3.59237
G1 X94.499 Y129.512 E3.62355
G1 X93.708 Y129.008 E3.65474
G1 X92.963 Y128.438 E3.68594
G1 X92.269 Y127.807 E3.71714
G1 X91.632 Y127.12 E3.7483
G1 X91.055 Y126.38 E3.77951
G1 X90.543 Y125.594 E3.81071
G1 X90.1 Y124.767 E3.84192
G1 X89.729 Y123.906 E3.8731
G1 X89.433 Y123.016 E3.90429
G1 X89.214 Y122.104 E3.93549
G1 X89.073 Y121.177 E3.96668
G1 X89.013 Y120.288 E3.99631
G1 X89.004 Y119.955 E4.00739
G1 X89 Y119.658 E4.01727
G1 X89.001 Y100.525 E4.65364
G1 X89.01 Y99.86 E4.67576
G1 X89.063 Y98.924 E4.70694
G1 X89.195 Y97.995 E4.73815
G1 X89.406 Y97.081 E4.76935
G1 X89.694 Y96.189 E4.80052
G1 X90.057 Y95.324 E4.83172
G1 X90.492 Y94.493 E4.86292
G1 X90.996 Y93.703 E4.89409
G1 X91.566 Y92.958 E4.92529
G1 X92.198 Y92.264 E4.95651
G0 F6000 X92.589 Y92.439
G1 F1200 X93.274 Y91.823 E4.98715
G1 X94.01 Y91.27 E5.01777
G1 X94.791 Y90.782 E5.0484
G1 X95.611 Y90.364 E5.07901
G1 X96.465 Y90.019 E5.10964
G1 X97.345 Y89.749 E5.14026
G1 X98.245 Y89.557 E5.17087
G1 X99.159 Y89.443 E5.2015
G1 X99.712 Y89.413 E5.21992
G1 X100.033 Y89.404 E5.2306
G1 X100.33 Y89.4 E5.24048
G1 X119.293 Y89.4 E5.87119
G1 X120.143 Y89.411 E5.89947
G1 X121.062 Y89.464 E5.93008
G1 X121.973 Y89.597 E5.9607
G1 X122.869 Y89.808 E5.99132
G1 X123.743 Y90.096 E6.02193
G1 X124.59 Y90.459 E6.05258
G1 X125.401 Y90.894 E6.08319
G1 X126.171 Y91.398 E6.1138
G1 X126.895 Y91.967 E6.14442
G1 X127.567 Y92.597 E6.17506
G1 X128.182 Y93.282 E6.20568
G1 X128.735 Y94.018 E6.2363
G1 X129.222 Y94.799 E6.26691
G1 X129.639 Y95.62 E6.29754
G1 X129.984 Y96.474 E6.32817
G1 X130.253 Y97.354 E6.35878
G1 X130.445 Y98.255 E6.38942
G1 X130.558 Y99.168 E6.42001
G1 X130.587 Y99.712 E6.43813
G1 X130.596 Y100.032 E6.44878
G1 X130.6 Y100.33 E6.45869
G1 X130.599 Y119.395 E7.0928
G1 X130.59 Y120.122 E7.11698
G1 X130.539 Y121.041 E7.14759
G1 X130.408 Y121.953 E7.17824
G1 X130.198 Y122.849 E7.20885
G1 X129.912 Y123.724 E7.23946
G1 X129.551 Y124.571 E7.27009
G1 X129.117 Y125.383 E7.30071
G1 X128.615 Y126.155 E7.33134
G1 X128.047 Y126.88 E7.36197
G1 X127.419 Y127.553 E7.39259
G1 X126.735 Y128.169 E7.4232
G1 X126 Y128.723 E7.45382
G1 X125.22 Y129.212 E7.48444
G1 X124.4 Y129.631 E7.51506
G1 X123.547 Y129.977 E7.54568
G1 X122.667 Y130.248 E7.5763
G1 X121.767 Y130.441 E7.60692
G1 X120.853 Y130.556 E7.63756
G1 X120.288 Y130.587 E7.65638
G1 X119.967 Y130.596 E7.66706
G1 X119.67 Y130.6 E7.67694
G1 X100.57 Y130.599 E8.31221
G1 X99.872 Y130.59 E8.33542
G1 X98.953 Y130.538 E8.36604
G1 X98.042 Y130.407 E8.39665
G1 X97.146 Y130.197 E8.42726
G1 X96.271 Y129.91 E8.45789
G1 X95.424 Y129.548 E8.48852
G1 X94.612 Y129.114 E8.51915
G1 X93.841 Y128.612 E8.54975
G1 X93.116 Y128.044 E8.58038
G1 X92.443 Y127.415 E8.61102
G1 X91.828 Y126.731 E8.64161
G1 X91.274 Y125.996 E8.67222
G1 X90.786 Y125.215 E8.70285
G1 X90.367 Y124.395 E8.73348
G1 X90.021 Y123.542 E8.7641
G1 X89.751 Y122.662 E8.79471
G1 X89.558 Y121.761 E8.82536
G1 X89.444 Y120.848 E8.85596
G1 X89.413 Y120.277 E8.87498
G1 X89.404 Y119.944 E8.88606
G1 X89.4 Y119.658 E8.89558
G1 X89.401 Y100.531 E9.53174
G1 X89.41 Y99.866 E9.55386
G1 X89.462 Y98.946 E9.58451
G1 X89.594 Y98.035 E9.61513
G1 X89.805 Y97.139 E9.64574
G1 X90.092 Y96.264 E9.67637
G1 X90.455 Y95.418 E9.70699
G1 X90.889 Y94.606 E9.73761
G1 X91.392 Y93.835 E9.76823
G1 X91.961 Y93.111 E9.79886
G1 X92.589 Y92.439 E9.82945
G0 F6000 X92.981 Y92.617
G1 F1200 X93.662 Y92.024 E9.85948
G1 X94.394 Y91.494 E9.88954
G1 X95.169 Y91.031 E9.91957
G1 X95.982 Y90.638 E9.9496
G1 X96.827 Y90.318 E9.97966
G1 X97.696 Y90.075 E10.00967
G1 X98.584 Y89.909 E10.03971
G1 X99.723 Y89.813 E10.07773
G1 X100.044 Y89.804 E10.08841
G1 X100.33 Y89.8 E10.09793
G1 X119.293 Y89.8 E10.72864
G1 X120.137 Y89.811 E10.75671
G1 X121.039 Y89.864 E10.78676
G1 X121.932 Y89.996 E10.81679
G1 X122.81 Y90.207 E10.84682
G1 X123.666 Y90.495 E10.87686
G1 X124.493 Y90.857 E10.90689
G1 X125.285 Y91.292 E10.93694
G1 X126.036 Y91.794 E10.96698
G1 X126.739 Y92.361 E10.99702
G1 X127.389 Y92.988 E11.02706
G1 X127.981 Y93.67 E11.0571
G1 X128.511 Y94.401 E11.08713
G1 X128.973 Y95.177 E11.11717
G1 X129.366 Y95.99 E11.1472
G1 X129.684 Y96.835 E11.17723
G1 X129.927 Y97.705 E11.20728
G1 X130.092 Y98.593 E11.23732
G1 X130.187 Y99.723 E11.27503
G1 X130.196 Y100.043 E11.28568
G1 X130.2 Y100.33 E11.29523
G1 X130.199 Y119.39 E11.92916
G1 X130.19 Y120.117 E11.95335
G1 X130.139 Y121.019 E11.9834
G1 X130.008 Y121.913 E12.01345
G1 X129.799 Y122.791 E12.04347
G1 X129.513 Y123.648 E12.07351
G1 X129.152 Y124.476 E12.10356
G1 X128.72 Y125.268 E12.13356
G1 X128.219 Y126.02 E12.16362
G1 X127.653 Y126.724 E12.19366
G1 X127.028 Y127.375 E12.22368
G1 X126.347 Y127.969 E12.25373
G1 X125.616 Y128.5 E12.28378
G1 X124.842 Y128.964 E12.3138
G1 X124.029 Y129.358 E12.34385
G1 X123.185 Y129.678 E12.37387
G1 X122.315 Y129.923 E12.40393
G1 X121.428 Y130.089 E12.43394
G1 X120.277 Y130.187 E12.47237
G1 X119.956 Y130.196 E12.48305
G1 X119.67 Y130.2 E12.49256
G1 X100.575 Y130.199 E13.12766
G1 X99.877 Y130.19 E13.15088
G1 X98.976 Y130.139 E13.1809
G1 X98.082 Y130.007 E13.21095
G1 X97.204 Y129.798 E13.24097
G1 X96.347 Y129.511 E13.27103
G1 X95.52 Y129.15 E13.30104
G1 X94.727 Y128.717 E13.33109
G1 X93.976 Y128.216 E13.36112
G1 X93.272 Y127.65 E13.39116
G1 X92.621 Y127.024 E13.4212
G1 X92.028 Y126.343 E13.45124
G1 X91.498 Y125.612 E13.48127
G1 X91.034 Y124.837 E13.51131
G1 X90.64 Y124.024 E13.54136
G1 X90.32 Y123.18 E13.57138
G1 X90.076 Y122.31 E13.60143
G1 X89.91 Y121.422 E13.63148
G1 X89.813 Y120.267 E13.67003
G1 X89.804 Y119.934 E13.68111
G1 X89.8 Y119.658 E13.69029
G1 X89.801 Y100.536 E14.32629
G1 X89.81 Y99.871 E14.34841
G1 X89.862 Y98.969 E14.37846
G1 X89.994 Y98.076 E14.40849
G1 X90.204 Y97.198 E14.43851
G1 X90.491 Y96.341 E14.46857
G1 X90.853 Y95.514 E14.4986
G1 X91.286 Y94.722 E14.52862
G1 X91.788 Y93.971 E14.55867
G1 X92.355 Y93.267 E14.58873
G1 X92.981 Y92.617 E14.61875
G1 F1500 E8.11875
;MESH:xyzCalibration_cube.stl
G0 F6000 X100.414 Y99.335
G0 X100.414 Y100.414
G0 X118.818 Y101.182
G0 X119 Y119
;TYPE:WALL-INNER
G1 F1500 E14.61875
G1 F1200 X101 Y119 E15.21743
G1 X101 Y101 E15.81611
G1 X119 Y101 E16.41479
G1 X119 Y119 E17.01348
G0 F6000 X119.4 Y119.4
G1 F1200 X100.6 Y119.4 E17.63877
G1 X100.6 Y100.6 E18.26406
G1 X119.4 Y100.6 E18.88935
G1 X119.4 Y119.4 E19.51464
G0 F6000 X119.8 Y119.8
;TYPE:WALL-OUTER
G1 F1200 X100.2 Y119.8 E20.16654
G1 X100.2 Y100.2 E20.81843
G1 X119.8 Y100.2 E21.47033
G1 X119.8 Y119.8 E22.12223
G0 F6000 X119.53 Y119.53
G0 X118.89 Y118.61
G0 X118.61 Y118.61
;TYPE:SKIN
G1 F1200 X101.39 Y118.61 E22.69497
G1 X101.39 Y101.39 E23.26771
G1 X118.61 Y101.39 E23.84045
G1 X118.61 Y118.61 E24.41319
G0 F6000 X118.89 Y118.61
G0 X118.89 Y102.044
G0 X118.449 Y102.044
G1 F1200 X117.954 Y101.549 E24.43647
G0 F6000 X117.388 Y101.549
G1 F1200 X118.449 Y102.61 E24.48638
G0 F6000 X118.449 Y103.176
G1 F1200 X116.823 Y101.549 E24.56289
G0 F6000 X116.257 Y101.549
G1 F1200 X118.449 Y103.741 E24.66599
G0 F6000 X118.449 Y104.307
G1 F1200 X115.691 Y101.549 E24.79572
G0 F6000 X115.126 Y101.549
G1 F1200 X118.449 Y104.873 E24.95205
G0 F6000 X118.449 Y105.438
G1 F1200 X114.56 Y101.549 E25.13497
G0 F6000 X113.994 Y101.549
G1 F1200 X118.449 Y106.004 E25.34452
G0 F6000 X118.449 Y106.57
G1 F1200 X113.429 Y101.549 E25.58067
G0 F6000 X112.863 Y101.549
G1 F1200 X118.449 Y107.135 E25.84342
G0 F6000 X118.449 Y107.701
G1 F1200 X112.297 Y101.549 E26.13279
G0 F6000 X111.732 Y101.549
G1 F1200 X118.449 Y108.267 E26.44876
G0 F6000 X118.449 Y108.832
G1 F1200 X111.166 Y101.549 E26.79133
G0 F6000 X110.6 Y101.549
G1 F1200 X118.449 Y109.398 E27.16052
G0 F6000 X118.449 Y109.964
G1 F1200 X110.035 Y101.549 E27.55632
G0 F6000 X109.469 Y101.549
G1 F1200 X118.449 Y110.529 E27.97871
G0 F6000 X118.449 Y111.095
G1 F1200 X108.903 Y101.549 E28.42772
G0 F6000 X108.337 Y101.549
G1 F1200 X118.449 Y111.661 E28.90336
G0 F6000 X118.449 Y112.227
G1 F1200 X107.772 Y101.549 E29.4056
G0 F6000 X107.206 Y101.549
G1 F1200 X118.449 Y112.792 E29.93443
G0 F6000 X118.449 Y113.358
G1 F1200 X106.64 Y101.549 E30.48989
G0 F6000 X106.075 Y101.549
G1 F1200 X118.449 Y113.924 E31.07195
G0 F6000 X118.449 Y114.489
G1 F1200 X105.509 Y101.549 E31.68061
G0 F6000 X104.943 Y101.549
G1 F1200 X118.449 Y115.055 E32.31589
G0 F6000 X118.449 Y115.621
G1 F1200 X104.378 Y101.549 E32.97777
G0 F6000 X103.812 Y101.549
G1 F1200 X118.449 Y116.186 E33.66625
G0 F6000 X118.449 Y116.752
G1 F1200 X103.246 Y101.549 E34.38135
G0 F6000 X102.681 Y101.549
G1 F1200 X118.449 Y117.318 E35.12305
G0 F6000 X118.449 Y117.883
G1 F1200 X102.115 Y101.549 E35.89135
G0 F6000 X101.549 Y101.549
G1 F1200 X118.449 Y118.449 E36.68628
G0 F6000 X117.883 Y118.449
G1 F1200 X101.549 Y102.115 E37.45458
G0 F6000 X101.549 Y102.681
G1 F1200 X117.318 Y118.449 E38.19628
G0 F6000 X116.752 Y118.449
G1 F1200 X101.549 Y103.246 E38.91138
G0 F6000 X101.549 Y103.812
G1 F1200 X116.186 Y118.449 E39.59986
G0 F6000 X115.621 Y118.449
G1 F1200 X101.549 Y104.378 E40.26174
G0 F6000 X101.549 Y104.943
G1 F1200 X115.055 Y118.449 E40.89702
G0 F6000 X114.489 Y118.449
G1 F1200 X101.549 Y105.509 E41.50568
G0 F6000 X101.549 Y106.075
G1 F1200 X113.924 Y118.449 E42.08774
G0 F6000 X113.358 Y118.449
G1 F1200 X101.549 Y106.64 E42.6432
G0 F6000 X101.549 Y107.206
G1 F1200 X112.792 Y118.449 E43.17204
G0 F6000 X112.227 Y118.449
G1 F1200 X101.549 Y107.772 E43.67427
G0 F6000 X101.549 Y108.337
G1 F1200 X111.661 Y118.449 E44.14991
G0 F6000 X111.095 Y118.449
G1 F1200 X101.549 Y108.903 E44.59893
G0 F6000 X101.549 Y109.469
G1 F1200 X110.529 Y118.449 E45.02132
G0 F6000 X109.964 Y118.449
G1 F1200 X101.549 Y110.035 E45.41711
G0 F6000 X101.549 Y110.6
G1 F1200 X109.398 Y118.449 E45.7863
G0 F6000 X108.832 Y118.449
G1 F1200 X101.549 Y111.166 E46.12887
G0 F6000 X101.549 Y111.732
G1 F1200 X108.267 Y118.449 E46.44484
G0 F6000 X107.701 Y118.449
G1 F1200 X101.549 Y112.297 E46.73421
G0 F6000 X101.549 Y112.863
G1 F1200 X107.135 Y118.449 E46.99696
G0 F6000 X106.57 Y118.449
G1 F1200 X101.549 Y113.429 E47.23311
G0 F6000 X101.549 Y113.994
G1 F1200 X106.004 Y118.449 E47.44266
G0 F6000 X105.438 Y118.449
G1 F1200 X101.549 Y114.56 E47.62559
G0 F6000 X101.549 Y115.126
G1 F1200 X104.873 Y118.449 E47.78192
G0 F6000 X104.307 Y118.449
G1 F1200 X101.549 Y115.691 E47.91164
G0 F6000 X101.549 Y116.257
G1 F1200 X103.741 Y118.449 E48.01475
G0 F6000 X103.176 Y118.449
G1 F1200 X101.549 Y116.823 E48.09125
G0 F6000 X101.549 Y117.388
G1 F1200 X102.61 Y118.449 E48.14116
G0 F6000 X102.044 Y118.449
G1 F1200 X101.549 Y117.954 E48.16444
G0 F6000 X100.81 Y117.954
;MESH:NONMESH
G0 F300 X100.81 Y117.954 Z0.4
G0 F6000 X101.182 Y118.818
G0 X119 Y119
;TIME_ELAPSED:84.183545
;LAYER:1
M106 S85
;TYPE:WALL-INNER
;MESH:xyzCalibration_cube.stl
G1 F1350 X101 Y119 E48.76313
G1 X101 Y101 E49.36181
G1 X119 Y101 E49.96049
G1 X119 Y119 E50.55917
G0 F7500 X119.4 Y119.4
G1 F1350 X100.6 Y119.4 E51.18446
G1 X100.6 Y100.6 E51.80975
G1 X119.4 Y100.6 E52.43504
G1 X119.4 Y119.4 E53.06033
G0 F7500 X119.8 Y119.8
;TYPE:WALL-OUTER
G1 F1350 X100.2 Y119.8 E53.71223
G1 X100.2 Y100.2 E54.36413
G1 X119.8 Y100.2 E55.01603
G1 X119.8 Y119.8 E55.66793
G0 F7500 X119.53 Y119.53
G0 X118.89 Y118.61
G0 X118.61 Y118.61
;TYPE:SKIN
G1 F1350 X101.39 Y118.61 E56.24067
G1 X101.39 Y101.39 E56.81341
G1 X118.61 Y101.39 E57.38615
G1 X118.61 Y118.61 E57.95889
G0 F7500 X118.006 Y118.449
G1 F1350 X118.449 Y118.006 E57.97972
G0 F7500 X118.449 Y117.441
G1 F1350 X117.441 Y118.449 E58.02714
G0 F7500 X116.875 Y118.449
G1 F1350 X118.449 Y116.875 E58.10117
G0 F7500 X118.449 Y116.309
G1 F1350 X116.309 Y118.449 E58.20183
G0 F7500 X115.744 Y118.449
G1 F1350 X118.449 Y115.744 E58.32907
G0 F7500 X118.449 Y115.178
G1 F1350 X115.178 Y118.449 E58.48293
G0 F7500 X114.612 Y118.449
G1 F1350 X118.449 Y114.612 E58.66341
G0 F7500 X118.449 Y114.047
G1 F1350 X114.047 Y118.449 E58.87046
G0 F7500 X113.481 Y118.449
G1 F1350 X118.449 Y113.481 E59.10414
G0 F7500 X118.449 Y112.915
G1 F1350 X112.915 Y118.449 E59.36445
G0 F7500 X112.35 Y118.449
G1 F1350 X118.449 Y112.35 E59.65132
G0 F7500 X118.449 Y111.784
G1 F1350 X111.784 Y118.449 E59.96482
G0 F7500 X111.218 Y118.449
G1 F1350 X118.449 Y111.218 E60.30495
G0 F7500 X118.449 Y110.653
G1 F1350 X110.653 Y118.449 E60.67165
G0 F7500 X110.087 Y118.449
G1 F1350 X118.449 Y110.087 E61.06497
G0 F7500 X118.449 Y109.521
G1 F1350 X109.521 Y118.449 E61.48492
G0 F7500 X108.955 Y118.449
G1 F1350 X118.449 Y108.955 E61.93149
G0 F7500 X118.449 Y108.39
G1 F1350 X108.39 Y118.449 E62.40463
G0 F7500 X107.824 Y118.449
G1 F1350 X118.449 Y107.824 E62.9044
G0 F7500 X118.449 Y107.258
G1 F1350 X107.258 Y118.449 E63.43079
G0 F7500 X106.693 Y118.449
G1 F1350 X118.449 Y106.693 E63.98375
G0 F7500 X118.449 Y106.127
G1 F1350 X106.127 Y118.449 E64.56334
G0 F7500 X105.561 Y118.449
G1 F1350 X118.449 Y105.561 E65.16956
G0 F7500 X118.449 Y104.996
G1 F1350 X104.996 Y118.449 E65.80234
G0 F7500 X104.43 Y118.449
G1 F1350 X118.449 Y104.43 E66.46175
G0 F7500 X118.449 Y103.864
G1 F1350 X103.864 Y118.449 E67.14779
G0 F7500 X103.299 Y118.449
G1 F1350 X118.449 Y103.299 E67.8604
G0 F7500 X118.449 Y102.733
G1 F1350 X102.733 Y118.449 E68.59963
G0 F7500 X102.167 Y118.449
G1 F1350 X118.449 Y102.167 E69.36549
G0 F7500 X118.449 Y101.602
G1 F1350 X101.602 Y118.449 E70.15792
G0 F7500 X101.549 Y117.936
G1 F1350 X117.936 Y101.549 E70.92871
G0 F7500 X117.37 Y101.549
G1 F1350 X101.549 Y117.37 E71.67288
G0 F7500 X101.549 Y116.804
G1 F1350 X116.804 Y101.549 E72.39043
G0 F7500 X116.239 Y101.549
G1 F1350 X101.549 Y116.239 E73.0814
G0 F7500 X101.549 Y115.673
G1 F1350 X115.673 Y101.549 E73.74575
G0 F7500 X115.107 Y101.549
G1 F1350 X101.549 Y115.107 E74.38348
G0 F7500 X101.549 Y114.542
G1 F1350 X114.542 Y101.549 E74.99463
G0 F7500 X113.976 Y101.549
G1 F1350 X101.549 Y113.976 E75.57916
G0 F7500 X101.549 Y113.41
G1 F1350 X113.41 Y101.549 E76.13706
G0 F7500 X112.845 Y101.549
G1 F1350 X101.549 Y112.845 E76.66839
G0 F7500 X101.549 Y112.279
G1 F1350 X112.279 Y101.549 E77.1731
G0 F7500 X111.713 Y101.549
G1 F1350 X101.549 Y111.713 E77.65118
G0 F7500 X101.549 Y111.147
G1 F1350 X111.147 Y101.549 E78.10264
G0 F7500 X110.582 Y101.549
G1 F1350 X101.549 Y110.582 E78.52753
G0 F7500 X101.549 Y110.016
G1 F1350 X110.016 Y101.549 E78.92579
G0 F7500 X109.45 Y101.549
G1 F1350 X101.549 Y109.45 E79.29743
G0 F7500 X101.549 Y108.885
G1 F1350 X108.885 Y101.549 E79.64249
G0 F7500 X108.319 Y101.549
G1 F1350 X101.549 Y108.319 E79.96093
G0 F7500 X101.549 Y107.753
G1 F1350 X107.753 Y101.549 E80.25275
G0 F7500 X107.188 Y101.549
G1 F1350 X101.549 Y107.188 E80.51799
G0 F7500 X101.549 Y106.622
G1 F1350 X106.622 Y101.549 E80.75661
G0 F7500 X106.056 Y101.549
G1 F1350 X101.549 Y106.056 E80.9686
G0 F7500 X101.549 Y105.491
G1 F1350 X105.491 Y101.549 E81.15402
G0 F7500 X104.925 Y101.549
G1 F1350 X101.549 Y104.925 E81.31282
G0 F7500 X101.549 Y104.359
G1 F1350 X104.359 Y101.549 E81.44499
G0 F7500 X103.794 Y101.549
G1 F1350 X101.549 Y103.794 E81.55059
G0 F7500 X101.549 Y103.228
G1 F1350 X103.228 Y101.549 E81.62957
G0 F7500 X102.662 Y101.549
G1 F1350 X101.549 Y102.662 E81.68192
G0 F7500 X101.549 Y102.097
G1 F1350 X102.097 Y101.549 E81.70769
G0 F7500 X102.097 Y100.81
G1 F1500 E75.20769
;MESH:NONMESH
G0 F300 X102.097 Y100.81 Z0.6
G0 F7500 X118.818 Y101.182
G0 X119 Y119
;TIME_ELAPSED:135.145704
;LAYER:2
M106 S170
;TYPE:WALL-INNER
;MESH:xyzCalibration_cube.stl
G1 F1500 E81.70769
G1 X101 Y119 E82.30638
G1 X101 Y101 E82.90506
G1 X119 Y101 E83.50374
G1 X119 Y119 E84.10242
G0 F9000 X119.4 Y119.4
G1 F1500 X100.6 Y119.4 E84.72771
G1 X100.6 Y100.6 E85.35301
G1 X119.4 Y100.6 E85.9783
G1 X119.4 Y119.4 E86.60359
G0 F9000 X119.8 Y119.8
;TYPE:WALL-OUTER
G1 F1500 X100.2 Y119.8 E87.25548
G1 X100.2 Y100.2 E87.90738
G1 X119.8 Y100.2 E88.55928
G1 X119.8 Y119.8 E89.21118
G0 F9000 X119.53 Y119.53
G0 X118.89 Y118.61
G0 X118.61 Y118.61
;TYPE:SKIN
G1 F1500 X101.39 Y118.61 E89.78392
G1 X101.39 Y101.39 E90.35666
G1 X118.61 Y101.39 E90.9294
G1 X118.61 Y118.61 E91.50214
G0 F9000 X118.89 Y118.61
G0 X118.89 Y102.044
G0 X118.449 Y102.044
G1 F1500 X117.954 Y101.549 E91.52542
G0 F9000 X117.388 Y101.549
G1 F1500 X118.449 Y102.61 E91.57533
G0 F9000 X118.449 Y103.176
G1 F1500 X116.823 Y101.549 E91.65183
G0 F9000 X116.257 Y101.549
G1 F1500 X118.449 Y103.741 E91.75494
G0 F9000 X118.449 Y104.307
G1 F1500 X115.691 Y101.549 E91.88467
G0 F9000 X115.126 Y101.549
G1 F1500 X118.449 Y104.873 E92.04099
G0 F9000 X118.449 Y105.438
G1 F1500 X114.56 Y101.549 E92.22392
G0 F9000 X113.994 Y101.549
G1 F1500 X118.449 Y106.004 E92.43347
G0 F9000 X118.449 Y106.57
G1 F1500 X113.429 Y101.549 E92.66962
G0 F9000 X112.863 Y101.549
G1 F1500 X118.449 Y107.135 E92.93237
G0 F9000 X118.449 Y107.701
G1 F1500 X112.297 Y101.549 E93.22174
G0 F9000 X111.732 Y101.549
G1 F1500 X118.449 Y108.267 E93.53771
G0 F9000 X118.449 Y108.832
G1 F1500 X111.166 Y101.549 E93.88028
G0 F9000 X110.6 Y101.549
G1 F1500 X118.449 Y109.398 E94.24947
G0 F9000 X118.449 Y109.964
G1 F1500 X110.035 Y101.549 E94.64526
G0 F9000 X109.469 Y101.549
G1 F1500 X118.449 Y110.529 E95.06766
G0 F9000 X118.449 Y111.095
G1 F1500 X108.903 Y101.549 E95.51667
G0 F9000 X108.337 Y101.549
G1 F1500 X118.449 Y111.661 E95.99231
G0 F9000 X118.449 Y112.227
G1 F1500 X107.772 Y101.549 E96.49455
G0 F9000 X107.206 Y101.549
G1 F1500 X118.449 Y112.792 E97.02338
G0 F9000 X118.449 Y113.358
G1 F1500 X106.64 Y101.549 E97.57884
G0 F9000 X106.075 Y101.549
G1 F1500 X118.449 Y113.924 E98.1609
G0 F9000 X118.449 Y114.489
G1 F1500 X105.509 Y101.549 E98.76956
G0 F9000 X104.943 Y101.549
G1 F1500 X118.449 Y115.055 E99.40484
G0 F9000 X118.449 Y115.621
G1 F1500 X104.378 Y101.549 E100.06672
G0 F9000 X103.812 Y101.549
G1 F1500 X118.449 Y116.186 E100.7552
G0 F9000 X118.449 Y116.752
G1 F1500 X103.246 Y101.549 E101.4703
G0 F9000 X102.681 Y101.549
G1 F1500 X118.449 Y117.318 E102.212
G0 F9000 X118.449 Y117.883
G1 F1500 X102.115 Y101.549 E102.9803
G0 F9000 X101.549 Y101.549
G1 F1500 X118.449 Y118.449 E103.77523
G0 F9000 X117.883 Y118.449
G1 F1500 X101.549 Y102.115 E104.54353
G0 F9000 X101.549 Y102.681
G1 F1500 X117.318 Y118.449 E105.28523
G0 F9000 X116.752 Y118.449
G1 F1500 X101.549 Y103.246 E106.00033
G0 F9000 X101.549 Y103.812
G1 F1500 X116.186 Y118.449 E106.68881
G0 F9000 X115.621 Y118.449
G1 F1500 X101.549 Y104.378 E107.35069
G0 F9000 X101.549 Y104.943
G1 F1500 X115.055 Y118.449 E107.98597
G0 F9000 X114.489 Y118.449
G1 F1500 X101.549 Y105.509 E108.59463
G0 F9000 X101.549 Y106.075
G1 F1500 X113.924 Y118.449 E109.17669
G0 F9000 X113.358 Y118.449
G1 F1500 X101.549 Y106.64 E109.73215
G0 F9000 X101.549 Y107.206
G1 F1500 X112.792 Y118.449 E110.26099
G0 F9000 X112.227 Y118.449
G1 F1500 X101.549 Y107.772 E110.76322
G0 F9000 X101.549 Y108.337
G1 F1500 X111.661 Y118.449 E111.23886
G0 F9000 X111.095 Y118.449
G1 F1500 X101.549 Y108.903 E111.68787
G0 F9000 X101.549 Y109.469
G1 F1500 X110.529 Y118.449 E112.11027
G0 F9000 X109.964 Y118.449
G1 F1500 X101.549 Y110.035 E112.50606
G0 F9000 X101.549 Y110.6
G1 F1500 X109.398 Y118.449 E112.87525
G0 F9000 X108.832 Y118.449
G1 F1500 X101.549 Y111.166 E113.21782
G0 F9000 X101.549 Y111.732
G1 F1500 X108.267 Y118.449 E113.53379
G0 F9000 X107.701 Y118.449
G1 F1500 X101.549 Y112.297 E113.82316
G0 F9000 X101.549 Y112.863
G1 F1500 X107.135 Y118.449 E114.08591
G0 F9000 X106.57 Y118.449
G1 F1500 X101.549 Y113.429 E114.32206
G0 F9000 X101.549 Y113.994
G1 F1500 X106.004 Y118.449 E114.53161
G0 F9000 X105.438 Y118.449
G1 F1500 X101.549 Y114.56 E114.71454
G0 F9000 X101.549 Y115.126
G1 F1500 X104.873 Y118.449 E114.87086
G0 F9000 X104.307 Y118.449
G1 F1500 X101.549 Y115.691 E115.00059
G0 F9000 X101.549 Y116.257
G1 F1500 X103.741 Y118.449 E115.1037
G0 F9000 X103.176 Y118.449
G1 F1500 X101.549 Y116.823 E115.1802
G0 F9000 X101.549 Y117.388
G1 F1500 X102.61 Y118.449 E115.23011
G0 F9000 X102.044 Y118.449
G1 F1500 X101.549 Y117.954 E115.25339
G0 F9000 X100.81 Y117.954
;MESH:NONMESH
G0 F300 X100.81 Y117.954 Z0.8
G0 F9000 X101.182 Y118.818
G0 X119 Y119
;TIME_ELAPSED:182.062924
;LAYER:3
M106 S255
;TYPE:WALL-INNER
;MESH:xyzCalibration_cube.stl
G1 F1500 X101 Y119 E115.85207
G1 X101 Y101 E116.45076
G1 X119 Y101 E117.04944
G1 X119 Y119 E117.64812
G0 F9000 X119.4 Y119.4
G1 F1500 X100.6 Y119.4 E118.27341
G1 X100.6 Y100.6 E118.8987
G1 X119.4 Y100.6 E119.52399
G1 X119.4 Y119.4 E120.14928
G0 F9000 X119.8 Y119.8
;TYPE:WALL-OUTER
G1 F1500 X100.2 Y119.8 E120.80118
G1 X100.2 Y100.2 E121.45308
G1 X119.8 Y100.2 E122.10498
G1 X119.8 Y119.8 E122.75688
G0 F9000 X119.53 Y119.53
G0 X118.919 Y118.12
;TYPE:FILL
G1 F3000 X101.879 Y101.08 E123.55839
G0 F9000 X105.592 Y101.079
G1 F3000 X101.079 Y117.922 E124.13835
G0 F9000 X101.079 Y117.251
G1 F3000 X102.747 Y118.919 E124.21681
G0 F9000 X102.072 Y118.919
G1 F3000 X118.919 Y114.405 E124.79691
G0 F9000 X118.919 Y109.635
G1 F3000 X110.364 Y101.08 E125.19931
G0 F9000 X111.804 Y101.079
G1 F3000 X107.024 Y118.919 E125.8136
G0 F9000 X111.232 Y118.919
G1 F3000 X101.079 Y108.765 E126.29119
G0 F9000 X101.08 Y106.762
G1 F3000 X118.919 Y101.982 E126.90544
G0 F9000 X118.919 Y101.15
G1 F3000 X118.849 Y101.08 E126.90874
G0 F9000 X118.016 Y101.079
G1 F3000 X113.235 Y118.919 E127.52304
G0 F9000 X118.918 Y108.194
G1 F3000 X101.08 Y112.974 E128.13726
;MESH:NONMESH
G0 F300 X101.08 Y112.974 Z1
G0 F9000 X119 Y119
;TIME_ELAPSED:197.263852
;LAYER:4
;TYPE:WALL-INNER
;MESH:xyzCalibration_cube.stl
G1 F1500 X101 Y119 E128.73595
G1 X101 Y101 E129.33463
G1 X119 Y101 E129.93331
G1 X119 Y119 E130.53199
G0 F9000 X119.4 Y119.4
G1 F1500 X100.6 Y119.4 E131.15728
G1 X100.6 Y100.6 E131.78257
G1 X119.4 Y100.6 E132.40786
G1 X119.4 Y119.4 E133.03315
G0 F9000 X119.8 Y119.8
;TYPE:WALL-OUTER
G1 F1500 X100.2 Y119.8 E133.68505
G1 X100.2 Y100.2 E134.33695
G1 X119.8 Y100.2 E134.98885
G1 X119.8 Y119.8 E135.64075
G0 F9000 X119.53 Y119.53
G0 X118.919 Y117.919
;TYPE:FILL
G1 F3000 X102.08 Y101.08 E136.4328
G0 F9000 X105.445 Y101.079
G1 F3000 X101.079 Y117.373 E136.99386
G0 F9000 X101.079 Y117.05
G1 F3000 X102.948 Y118.919 E137.08177
G0 F9000 X102.621 Y118.919
G1 F3000 X118.919 Y114.552 E137.64297
G0 F9000 X118.919 Y109.434
G1 F3000 X110.565 Y101.08 E138.03592
G0 F9000 X111.657 Y101.079
G1 F3000 X106.877 Y118.919 E138.65021
G0 F9000 X111.433 Y118.919
G1 F3000 X101.079 Y108.564 E139.13725
G0 F9000 X101.08 Y106.909
G1 F3000 X118.919 Y102.129 E139.75151
G0 F9000 X117.869 Y101.078
G1 F3000 X113.088 Y118.919 E140.36584
G0 F9000 X118.918 Y108.341
G1 F3000 X101.08 Y113.121 E140.98007
;MESH:NONMESH
G0 F300 X101.08 Y113.121 Z1.2
G0 F9000 X119 Y119
;TIME_ELAPSED:212.351875
;LAYER:5
;TYPE:WALL-INNER
;MESH:xyzCalibration_cube.stl
G1 F1500 X101 Y119 E141.57875
G1 X101 Y101 E142.17743
G1 X119 Y101 E142.77611
G1 X119 Y119 E143.3748
G0 F9000 X119.4 Y119.4
G1 F1500 X100.6 Y119.4 E144.00009
G1 X100.6 Y100.6 E144.62538
G1 X119.4 Y100.6 E145.25067
G1 X119.4 Y119.4 E145.87596
G0 F9000 X119.8 Y119.8
;TYPE:WALL-OUTER
G1 F1500 X100.2 Y119.8 E146.52786
G1 X100.2 Y100.2 E147.17976
G1 X119.8 Y100.2 E147.83165
G1 X119.8 Y119.8 E148.48355
G0 F9000 X119.53 Y119.53
G0 X118.919 Y117.72
;TYPE:FILL
G1 F3000 X102.279 Y101.08 E149.26625
G0 F9000 X105.299 Y101.078
G1 F3000 X101.079 Y116.828 E149.80857
G1 X101.079 Y116.85
G1 X103.147 Y118.919 E149.90587
G1 X103.165 Y118.919
G1 X118.919 Y114.698 E150.44833
G0 F9000 X118.919 Y109.235
G1 F3000 X110.764 Y101.08 E150.83192
G0 F9000 X111.511 Y101.079
G1 F3000 X106.73 Y118.92 E151.44625
G0 F9000 X111.633 Y118.919
G1 F3000 X101.079 Y108.365 E151.94268
G0 F9000 X101.08 Y107.055
G1 F3000 X118.918 Y102.275 E152.5569
G0 F9000 X117.723 Y101.079
G1 F3000 X112.942 Y118.919 E153.1712
G0 F9000 X118.918 Y108.487
G1 F3000 X101.079 Y113.267 E153.78546
;MESH:NONMESH
G0 F300 X101.079 Y113.267 Z1.4
G0 F9000 X119 Y119
;TIME_ELAPSED:227.287841
;LAYER:6
;TYPE:WALL-INNER
;MESH:xyzCalibration_cube.stl
G1 F1500 X101 Y119 E154.38414
G1 X101 Y101 E154.98282
G1 X119 Y101 E155.58151
G1 X119 Y119 E156.18019
G0 F9000 X119.4 Y119.4
G1 F1500 X100.6 Y119.4 E156.80548
G1 X100.6 Y100.6 E157.43077
G1 X119.4 Y100.6 E158.05606
G1 X119.4 Y119.4 E158.68135
G0 F9000 X119.8 Y119.8
;TYPE:WALL-OUTER
G1 F1500 X100.2 Y119.8 E159.33325
G1 X100.2 Y100.2 E159.98515
G1 X119.8 Y100.2 E160.63705
G1 X119.8 Y119.8 E161.28895
G0 F9000 X119.53 Y119.53
G0 X118.919 Y117.521
;TYPE:FILL
G1 F3000 X102.478 Y101.08 E162.06228
G0 F9000 X105.153 Y101.079
G1 F3000 X101.079 Y116.283 E162.58581
G0 F9000 X101.079 Y116.651
G1 F3000 X103.347 Y118.919 E162.69249
G0 F9000 X103.71 Y118.919
G1 F3000 X118.919 Y114.844 E163.21618
G0 F9000 X118.919 Y109.035
G1 F3000 X110.964 Y101.08 E163.59036
G0 F9000 X111.365 Y101.079
G1 F3000 X106.584 Y118.92 E164.20469
G0 F9000 X111.832 Y118.919
G1 F3000 X101.079 Y108.166 E164.71048
G0 F9000 X101.079 Y107.201
G1 F3000 X118.918 Y102.421 E165.32474
G0 F9000 X117.577 Y101.079
G1 F3000 X112.796 Y118.92 E165.93907
G0 F9000 X118.919 Y108.632
G1 F3000 X101.08 Y113.412 E166.55333
;MESH:NONMESH
G0 F300 X101.08 Y113.412 Z1.6
G0 F9000 X119 Y119
;TIME_ELAPSED:242.273649
;LAYER:7
;TYPE:WALL-INNER
;MESH:xyzCalibration_cube.stl
G1 F1500 X101 Y119 E167.15201
G1 X101 Y101 E167.75069
G1 X119 Y101 E168.34938
G1 X119 Y119 E168.94806
G0 F9000 X119.4 Y119.4
G1 F1500 X100.6 Y119.4 E169.57335
G1 X100.6 Y100.6 E170.19864
G1 X119.4 Y100.6 E170.82393
G1 X119.4 Y119.4 E171.44922
G0 F9000 X119.8 Y119.8
;TYPE:WALL-OUTER
G1 F1500 X100.2 Y119.8 E172.10112
G1 X100.2 Y100.2 E172.75302
G1 X119.8 Y100.2 E173.40492
G1 X119.8 Y119.8 E174.05682
G0 F9000 X119.53 Y119.53
G0 X118.861 Y118.92
;TYPE:FILL
G1 F3000 X118.919 Y118.703 E174.06429
G0 F9000 X118.919 Y117.32
G1 F3000 X102.679 Y101.08 E174.82817
G0 F9000 X101.292 Y101.079
G1 F3000 X101.08 Y101.136 E174.83547
G0 F9000 X105.006 Y101.078
G1 F3000 X101.079 Y115.734 E175.34012
G0 F9000 X101.079 Y116.45
G1 F3000 X103.548 Y118.919 E175.45626
G0 F9000 X104.259 Y118.919
G1 F3000 X118.919 Y114.991 E175.96105
G0 F9000 X118.919 Y108.835
G1 F3000 X111.164 Y101.08 E176.32582
G1 X111.218 Y101.079
G1 X106.437 Y118.92 E176.94015
G0 F9000 X112.033 Y118.919
G1 F3000 X101.079 Y107.965 E177.4554
G0 F9000 X101.08 Y107.348
G1 F3000 X118.918 Y102.568 E178.06962
G0 F9000 X117.43 Y101.079
G1 F3000 X112.649 Y118.919 E178.68392
G0 F9000 X118.919 Y108.779
G1 F3000 X101.08 Y113.559 E179.29818
;MESH:NONMESH
G0 F300 X101.08 Y113.559 Z1.8
G0 F9000 X119 Y119
;TIME_ELAPSED:257.431215
;LAYER:8
;TYPE:WALL-INNER
;MESH:xyzCalibration_cube.stl
G1 F1500 X101 Y119 E179.89686
G1 X101 Y101 E180.49554
G1 X119 Y101 E181.09423
G1 X119 Y119 E181.69291
G0 F9000 X119.4 Y119.4
G1 F1500 X100.6 Y119.4 E182.3182
G1 X100.6 Y100.6 E182.94349
G1 X119.4 Y100.6 E183.56878
G1 X119.4 Y119.4 E184.19407
G0 F9000 X119.8 Y119.8
;TYPE:WALL-OUTER
G1 F1500 X100.2 Y119.8 E184.84597
G1 X100.2 Y100.2 E185.49787
G1 X119.8 Y100.2 E186.14977
G1 X119.8 Y119.8 E186.80167
G0 F9000 X119.53 Y119.53
G0 X118.715 Y118.919
;TYPE:FILL
G1 F3000 X118.919 Y118.158 E186.82787
G0 F9000 X118.919 Y117.12
G1 F3000 X102.879 Y101.08 E187.58234
G0 F9000 X101.837 Y101.079
G1 F3000 X101.08 Y101.282 E187.60841
G0 F9000 X104.86 Y101.079
G1 F3000 X101.079 Y115.19 E188.0943
G0 F9000 X101.079 Y116.251
G1 F3000 X103.747 Y118.919 E188.21979
G0 F9000 X104.803 Y118.919
G1 F3000 X118.918 Y115.137 E188.70582
G0 F9000 X118.919 Y108.926
G1 F3000 X101.08 Y113.705 E189.32007
G0 F9000 X101.079 Y107.765
G1 F3000 X112.232 Y118.919 E189.8447
G0 F9000 X112.503 Y118.92
G1 F3000 X117.284 Y101.079 E190.45903
G0 F9000 X118.918 Y102.714
G1 F3000 X101.079 Y107.494 E191.07329
G0 F9000 X111.072 Y101.078
G1 F3000 X106.292 Y118.919 E191.68761
G0 F9000 X118.919 Y108.635
G1 F3000 X111.364 Y101.08 E192.04297
;MESH:NONMESH
G0 F300 X111.364 Y101.08 Z2
G0 F9000 X119 Y119
;TIME_ELAPSED:272.975310
;LAYER:9
;TYPE:WALL-INNER
;MESH:xyzCalibration_cube.stl
G1 F1500 X101 Y119 E192.64166
G1 X101 Y101 E193.24034
G1 X119 Y101 E193.83902
G1 X119 Y119 E194.4377
G0 F9000 X119.4 Y119.4
G1 F1500 X100.6 Y119.4 E195.06299
G1 X100.6 Y100.6 E195.68828
G1 X119.4 Y100.6 E196.31357
G1 X119.4 Y119.4 E196.93887
G0 F9000 X119.8 Y119.8
;TYPE:WALL-OUTER
G1 F1500 X100.2 Y119.8 E197.59076
G1 X100.2 Y100.2 E198.24266
G1 X119.8 Y100.2 E198.89456
G1 X119.8 Y119.8 E199.54646
G0 F9000 X119.53 Y119.53
G0 X118.568 Y118.919
;TYPE:FILL
G1 F3000 X118.919 Y117.61 E199.59154
G0 F9000 X118.919 Y116.92
G1 F3000 X103.079 Y101.08 E200.3366
G0 F9000 X102.386 Y101.079
G1 F3000 X101.08 Y101.429 E200.38157
G0 F9000 X104.713 Y101.079
G1 F3000 X101.079 Y114.641 E200.84856
G0 F9000 X101.08 Y113.852
G1 F3000 X118.919 Y109.073 E201.46281
G0 F9000 X118.919 Y108.434
G1 F3000 X111.565 Y101.08 E201.80872
G0 F9000 X110.925 Y101.078
G1 F3000 X106.144 Y118.92 E202.42308
G0 F9000 X105.352 Y118.919
G1 F3000 X118.918 Y115.284 E202.8902
G0 F9000 X112.433 Y118.919
G1 F3000 X101.079 Y107.565 E203.42426
G1 X101.079 Y107.641
G1 X118.918 Y102.861 E204.03852
G0 F9000 X117.137 Y101.079
G1 F3000 X112.356 Y118.92 E204.65285
G0 F9000 X103.948 Y118.919
G1 F3000 X101.079 Y116.05 E204.7878
;MESH:NONMESH
G0 F300 X101.079 Y116.05 Z2.2
G0 F9000 X119 Y119
;TIME_ELAPSED:288.020440
;LAYER:10
;TYPE:WALL-INNER
;MESH:xyzCalibration_cube.stl
G1 F1500 X101 Y119 E205.38648
G1 X101 Y101 E205.98517
G1 X119 Y101 E206.58385
G1 X119 Y119 E207.18253
G0 F9000 X119.4 Y119.4
G1 F1500 X100.6 Y119.4 E207.80782
G1 X100.6 Y100.6 E208.43311
G1 X119.4 Y100.6 E209.0584
G1 X119.4 Y119.4 E209.68369
G0 F9000 X119.8 Y119.8
;TYPE:WALL-OUTER
G1 F1500 X100.2 Y119.8 E210.33559
G1 X100.2 Y100.2 E210.98749
G1 X119.8 Y100.2 E211.63939
G1 X119.8 Y119.8 E212.29129
G0 F9000 X119.53 Y119.53
G0 X118.422 Y118.92
;TYPE:FILL
G1 F3000 X118.919 Y117.065 E212.35516
G0 F9000 X118.919 Y116.72
G1 F3000 X103.279 Y101.08 E213.09082
G0 F9000 X102.93 Y101.079
G1 F3000 X101.079 Y101.575 E213.15455
G0 F9000 X104.567 Y101.079
G1 F3000 X101.079 Y114.097 E213.60281
G1 X101.08 Y113.998
G1 X118.919 Y109.219 E214.21706
G0 F9000 X118.919 Y108.235
G1 F3000 X111.764 Y101.08 E214.55361
G0 F9000 X110.779 Y101.079
G1 F3000 X105.999 Y118.919 E215.1679
G1 X105.898 Y118.919
G1 X118.918 Y115.43 E215.61622
G0 F9000 X112.632 Y118.919
G1 F3000 X101.079 Y107.365 E216.15966
G0 F9000 X101.08 Y107.787
G1 F3000 X118.919 Y103.007 E216.77392
G0 F9000 X116.991 Y101.079
G1 F3000 X112.21 Y118.92 E217.38825
G0 F9000 X104.147 Y118.919
G1 F3000 X101.079 Y115.85 E217.53259
;MESH:NONMESH
G0 F300 X101.079 Y115.85 Z2.4
G0 F9000 X119 Y119
;TIME_ELAPSED:303.006962
;LAYER:11
;TYPE:WALL-INNER
;MESH:xyzCalibration_cube.stl
G1 F1500 X101 Y119 E218.13127
G1 X101 Y101 E218.72995
G1 X119 Y101 E219.32863
G1 X119 Y119 E219.92732
G0 F9000 X119.4 Y119.4
G1 F1500 X100.6 Y119.4 E220.55261
G1 X100.6 Y100.6 E221.1779
G1 X119.4 Y100.6 E221.80319
G1 X119.4 Y119.4 E222.42848
G0 F9000 X119.8 Y119.8
;TYPE:WALL-OUTER
G1 F1500 X100.2 Y119.8 E223.08038
G1 X100.2 Y100.2 E223.73228
G1 X119.8 Y100.2 E224.38417
G1 X119.8 Y119.8 E225.03607
G0 F9000 X119.53 Y119.53
G0 X118.275 Y118.92
;TYPE:FILL
G1 F3000 X118.919 Y116.516 E225.11885
G1 X118.919 Y116.519
G1 X103.48 Y101.08 E225.84505
G1 X103.479 Y101.079
G1 X101.079 Y101.722 E225.92769
G0 F9000 X104.42 Y101.079
G1 F3000 X101.079 Y113.548 E226.35704
G0 F9000 X101.08 Y114.145
G1 F3000 X118.919 Y109.366 E226.97129
G0 F9000 X118.919 Y108.034
G1 F3000 X111.965 Y101.08 E227.29839
G0 F9000 X110.632 Y101.078
G1 F3000 X105.852 Y118.919 E227.91271
G0 F9000 X106.446 Y118.919
G1 F3000 X118.918 Y115.577 E228.34216
G0 F9000 X112.833 Y118.919
G1 F3000 X101.079 Y107.164 E228.89506
G0 F9000 X101.08 Y107.934
G1 F3000 X118.919 Y103.154 E229.50932
G0 F9000 X116.844 Y101.079
G1 F3000 X112.063 Y118.92 E230.12365
G0 F9000 X104.348 Y118.919
G1 F3000 X101.079 Y115.65 E230.27741
;MESH:NONMESH
G0 F300 X101.079 Y115.65 Z2.6
G0 F9000 X119 Y119
;TIME_ELAPSED:318.057247
;LAYER:12
;TYPE:WALL-INNER
;MESH:xyzCalibration_cube.stl
G1 F1500 X101 Y119 E230.8761
G1 X101 Y101 E231.47478
G1 X119 Y101 E232.07346
G1 X119 Y119 E232.67214
G0 F9000 X119.4 Y119.4
G1 F1500 X100.6 Y119.4 E233.29743
G1 X100.6 Y100.6 E233.92272
G1 X119.4 Y100.6 E234.54801
G1 X119.4 Y119.4 E235.17331
G0 F9000 X119.8 Y119.8
;TYPE:WALL-OUTER
G1 F1500 X100.2 Y119.8 E235.8252
G1 X100.2 Y100.2 E236.4771
G1 X119.8 Y100.2 E237.129
G1 X119.8 Y119.8 E237.7809
G0 F9000 X119.53 Y119.53
G0 X118.129 Y118.92
;TYPE:FILL
G1 F3000 X118.919 Y115.972 E237.88241
G0 F9000 X118.919 Y115.723
G1 F3000 X106.991 Y118.919 E238.29313
G0 F9000 X105.706 Y118.919
G1 F3000 X110.486 Y101.079 E238.90742
G0 F9000 X112.164 Y101.08
G1 F3000 X118.919 Y107.835 E239.22516
G0 F9000 X118.918 Y109.512
G1 F3000 X101.08 Y114.291 E239.83937
G0 F9000 X101.079 Y115.45
G1 F3000 X104.547 Y118.919 E240.00252
G0 F9000 X101.079 Y113.002
G1 F3000 X104.274 Y101.079 E240.41307
G0 F9000 X104.024 Y101.079
G1 F3000 X101.079 Y101.868 E240.51448
G0 F9000 X103.679 Y101.08
G1 F3000 X118.919 Y116.32 E241.23132
G0 F9000 X113.033 Y118.919
G1 F3000 X101.079 Y106.965 E241.7936
G0 F9000 X101.08 Y108.08
G1 F3000 X118.919 Y103.3 E242.40786
G0 F9000 X116.698 Y101.078
G1 F3000 X111.917 Y118.92 E243.02222
;MESH:NONMESH
G0 F300 X111.917 Y118.92 Z2.8
G0 F9000 X119 Y119
;TIME_ELAPSED:333.086428
;LAYER:13
;TYPE:WALL-INNER
;MESH:xyzCalibration_cube.stl
G1 F1500 X101 Y119 E243.62091
G1 X101 Y101 E244.21959
G1 X119 Y101 E244.81827
G1 X119 Y119 E245.41695
G0 F9000 X119.4 Y119.4
G1 F1500 X100.6 Y119.4 E246.04224
G1 X100.6 Y100.6 E246.66753
G1 X119.4 Y100.6 E247.29282
G1 X119.4 Y119.4 E247.91811
G0 F9000 X119.8 Y119.8
;TYPE:WALL-OUTER
G1 F1500 X100.2 Y119.8 E248.57001
G1 X100.2 Y100.2 E249.22191
G1 X119.8 Y100.2 E249.87381
G1 X119.8 Y119.8 E250.52571
G0 F9000 X119.53 Y119.53
G0 X117.983 Y118.92
;TYPE:FILL
G1 F3000 X118.919 Y115.427 E250.64599
G0 F9000 X118.919 Y115.869
G1 F3000 X107.535 Y118.919 E251.03797
G0 F9000 X105.56 Y118.92
G1 F3000 X110.34 Y101.079 E251.6523
G0 F9000 X112.364 Y101.08
G1 F3000 X118.919 Y107.635 E251.96062
G0 F9000 X118.918 Y109.658
G1 F3000 X101.079 Y114.437 E252.57487
G0 F9000 X101.079 Y115.251
G1 F3000 X104.747 Y118.919 E252.7474
G0 F9000 X111.771 Y118.919
G1 F3000 X116.552 Y101.079 E253.3617
G0 F9000 X118.918 Y103.446
G1 F3000 X101.08 Y108.226 E253.97593
G0 F9000 X101.079 Y106.766
G1 F3000 X113.232 Y118.919 E254.54757
G0 F9000 X118.919 Y116.121
G1 F3000 X103.878 Y101.08 E255.25505
G0 F9000 X104.129 Y101.078
G1 F3000 X101.079 Y112.458 E255.64691
G0 F9000 X101.08 Y102.014
G1 F3000 X104.569 Y101.079 E255.76705
;MESH:NONMESH
G0 F300 X104.569 Y101.079 Z3
G0 F9000 X119 Y119
;TIME_ELAPSED:348.520750
;LAYER:14
;TYPE:WALL-INNER
;MESH:xyzCalibration_cube.stl
G1 F1500 X101 Y119 E256.36573
G1 X101 Y101 E256.96441
G1 X119 Y101 E257.5631
G1 X119 Y119 E258.16178
G0 F9000 X119.4 Y119.4
G1 F1500 X100.6 Y119.4 E258.78707
G1 X100.6 Y100.6 E259.41236
G1 X119.4 Y100.6 E260.03765
G1 X119.4 Y119.4 E260.66294
G0 F9000 X119.8 Y119.8
;TYPE:WALL-OUTER
G1 F1500 X100.2 Y119.8 E261.31484
G1 X100.2 Y100.2 E261.96674
G1 X119.8 Y100.2 E262.61864
G1 X119.8 Y119.8 E263.27054
G0 F9000 X119.53 Y119.53
G0 X117.836 Y118.92
;TYPE:FILL
G1 F3000 X118.919 Y114.878 E263.40972
G0 F9000 X118.919 Y115.92
G1 F3000 X104.079 Y101.08 E264.10774
G1 X103.982 Y101.078
G1 X101.079 Y111.909 E264.4807
G0 F9000 X101.079 Y114.584
G1 F3000 X118.918 Y109.805 E265.09495
G0 F9000 X118.919 Y107.434
G1 F3000 X112.565 Y101.08 E265.39382
G0 F9000 X110.193 Y101.079
G1 F3000 X105.413 Y118.92 E266.00814
G0 F9000 X104.948 Y118.919
G1 F3000 X101.079 Y115.05 E266.19013
G0 F9000 X101.08 Y108.373
G1 F3000 X118.919 Y103.593 E266.80439
G0 F9000 X116.405 Y101.079
G1 F3000 X111.624 Y118.919 E267.41869
G0 F9000 X113.433 Y118.919
G1 F3000 X101.079 Y106.565 E267.99978
G0 F9000 X101.08 Y102.161
G1 F3000 X105.118 Y101.079 E268.13882
G0 F9000 X108.084 Y118.919
G1 F3000 X118.919 Y116.016 E268.51191
;MESH:NONMESH
G0 F300 X118.919 Y116.016 Z3.2
G0 F9000 X119 Y119
;TIME_ELAPSED:363.759638
;LAYER:15
;TYPE:WALL-INNER
;MESH:xyzCalibration_cube.stl
G1 F1500 X101 Y119 E269.11059
G1 X101 Y101 E269.70927
G1 X119 Y101 E270.30796
G1 X119 Y119 E270.90664
G0 F9000 X119.4 Y119.4
G1 F1500 X100.6 Y119.4 E271.53193
G1 X100.6 Y100.6 E272.15722
G1 X119.4 Y100.6 E272.78251
G1 X119.4 Y119.4 E273.4078
G0 F9000 X119.8 Y119.8
;TYPE:WALL-OUTER
G1 F1500 X100.2 Y119.8 E274.0597
G1 X100.2 Y100.2 E274.7116
G1 X119.8 Y100.2 E275.3635
G1 X119.8 Y119.8 E276.01539
G0 F9000 X119.53 Y119.53
G0 X117.69 Y118.92
;TYPE:FILL
G1 F3000 X118.919 Y114.333 E276.17334
G0 F9000 X118.919 Y115.72
G1 F3000 X106.17 Y102.971 E276.77301
G0 F9000 X106.17 Y103.192
G0 X103.827 Y103.121
G0 X103.751 Y101.533
G0 X103.97 Y101.533
G1 F3000 X101.08 Y102.307 E276.87252
G0 F9000 X103.835 Y101.078
G1 F3000 X101.079 Y111.365 E277.22674
G0 F9000 X101.08 Y108.519
G1 F3000 X118.918 Y103.739 E277.84096
G0 F9000 X118.919 Y107.235
G1 F3000 X114.656 Y102.972 E278.04148
G0 F9000 X114.656 Y103.192
G0 X115.528 Y103.12
G0 X116.259 Y101.079
G1 F3000 X111.478 Y118.919 E278.65578
G0 F9000 X113.632 Y118.919
G1 F3000 X101.079 Y106.365 E279.24626
G0 F9000 X101.08 Y114.73
G1 F3000 X118.919 Y109.95 E279.86052
G0 F9000 X118.919 Y116.162
G1 F3000 X108.629 Y118.919 E280.21484
G0 F9000 X105.267 Y118.92
G1 F3000 X110.047 Y101.078 E280.82919
G0 F9000 X101.079 Y114.851
G1 F3000 X105.147 Y118.919 E281.02054
G0 F9000 X104.045 Y103.193
G0 X104.045 Y102.903
;TYPE:SKIN
G1 F1500 X104.041 Y101.39 E281.07086
G1 X107.675 Y101.39 E281.19173
G1 X107.675 Y102.9 E281.24195
G1 X104.045 Y102.903 E281.36268
G0 F9000 X104.045 Y103.193
G0 X103.752 Y101.707
G0 X104.202 Y101.707
G1 F1500 X104.359 Y101.549 E281.37009
G0 F9000 X104.925 Y101.549
G1 F1500 X104.202 Y102.272 E281.4041
G0 F9000 X104.298 Y102.742
G1 F1500 X105.491 Y101.549 E281.46021
G0 F9000 X106.056 Y101.549
G1 F1500 X104.863 Y102.742 E281.51633
G0 F9000 X105.43 Y102.741
G1 F1500 X106.622 Y101.549 E281.5724
G0 F9000 X107.188 Y101.549
G1 F1500 X105.996 Y102.741 E281.62847
G0 F9000 X106.562 Y102.741
G1 F1500 X107.514 Y101.789 E281.67324
G0 F9000 X107.514 Y102.355
G1 F1500 X107.128 Y102.74 E281.69138
G0 F9000 X107.128 Y103.191
G0 X111.219 Y102.901
G0 X111.508 Y102.902
G1 F1500 X111.512 Y101.39 E281.74167
G1 X115.314 Y101.39 E281.86812
G1 X115.31 Y102.902 E281.91841
G1 X111.508 Y102.902 E282.04487
G0 F9000 X111.219 Y102.901
G0 X111.294 Y101.182
G0 X112.278 Y101.11
G0 X112.278 Y101.55
G1 F1500 X111.669 Y102.159 E282.07351
G0 F9000 X111.669 Y102.725
G1 F1500 X112.844 Y101.55 E282.12878
G0 F9000 X113.41 Y101.55
G1 F1500 X112.218 Y102.741 E282.18483
G0 F9000 X112.784 Y102.741
G1 F1500 X113.975 Y101.55 E282.24085
G0 F9000 X114.541 Y101.55
G1 F1500 X113.349 Y102.741 E282.29689
G0 F9000 X113.915 Y102.741
G1 F1500 X115.107 Y101.55 E282.35294
G0 F9000 X115.15 Y102.072
G1 F1500 X114.481 Y102.741 E282.3844
G0 F9000 X115.046 Y102.741
G1 F1500 X115.15 Y102.638 E282.38927
G0 F9000 X115.9 Y102.639
;MESH:NONMESH
G0 F300 X115.9 Y102.639 Z3.4
G0 F9000 X119 Y119
;TIME_ELAPSED:383.648311
;LAYER:16
;TYPE:WALL-INNER
;MESH:xyzCalibration_cube.stl
G1 F1500 X101 Y119 E282.98795
G1 X101 Y101 E283.58664
G1 X119 Y101 E284.18532
G1 X119 Y119 E284.784
G0 F9000 X119.4 Y119.4
G1 F1500 X100.6 Y119.4 E285.40929
G1 X100.6 Y100.6 E286.03458
G1 X119.4 Y100.6 E286.65987
G1 X119.4 Y119.4 E287.28516
G0 F9000 X119.8 Y119.8
;TYPE:WALL-OUTER
G1 F1500 X100.2 Y119.8 E287.93706
G1 X100.2 Y100.2 E288.58896
G1 X119.8 Y100.2 E289.24086
G1 X119.8 Y119.8 E289.89276
G0 F9000 X119.53 Y119.53
G0 X117.543 Y118.92
;TYPE:FILL
G1 F3000 X118.919 Y113.785 E290.06957
G0 F9000 X118.919 Y115.52
G1 F3000 X106.371 Y102.971 E290.65982
G0 F9000 X106.371 Y103.192
G0 X103.827 Y103.12
G0 X103.751 Y101.679
G0 X103.971 Y101.679
G1 F3000 X101.08 Y102.454 E290.75937
G0 F9000 X103.688 Y101.078
G1 F3000 X101.079 Y110.816 E291.09468
G0 F9000 X101.08 Y108.666
G1 F3000 X118.918 Y103.886 E291.7089
G0 F9000 X118.919 Y107.034
G1 F3000 X114.857 Y102.972 E291.89997
G0 F9000 X114.857 Y103.192
G0 X115.528 Y103.12
G0 X116.112 Y101.079
G1 F3000 X111.331 Y118.919 E292.51427
G0 F9000 X109.177 Y118.919
G1 F3000 X118.919 Y116.309 E292.84971
G0 F9000 X113.833 Y118.919
G1 F3000 X101.079 Y106.165 E293.44962
G0 F9000 X101.079 Y114.65
G1 F3000 X105.348 Y118.919 E293.65042
G0 F9000 X105.12 Y118.92
G1 F3000 X109.9 Y101.079 E294.26475
G0 F9000 X110.929 Y102.731
G0 X116.755 Y110.619
G0 X116.974 Y110.619
G1 F3000 X101.08 Y114.877 E294.81202
G0 F9000 X104.045 Y103.192
G0 X104.045 Y102.902
;TYPE:SKIN
G1 F1500 X104.041 Y101.39 E294.86231
G1 X107.794 Y101.39 E294.98714
G1 X107.794 Y102.9 E295.03736
G1 X104.045 Y102.902 E295.16205
G0 F9000 X104.438 Y102.741
G1 F1500 X104.202 Y102.505 E295.17315
G0 F9000 X104.201 Y101.938
G1 F1500 X105.003 Y102.741 E295.2109
G0 F9000 X105.568 Y102.74
G1 F1500 X104.378 Y101.549 E295.2669
G0 F9000 X104.943 Y101.549
G1 F1500 X106.134 Y102.74 E295.32292
G0 F9000 X106.699 Y102.739
G1 F1500 X105.509 Y101.549 E295.37889
G0 F9000 X106.075 Y101.549
G1 F1500 X107.265 Y102.739 E295.43487
G0 F9000 X107.633 Y102.542
G1 F1500 X106.64 Y101.549 E295.48158
G0 F9000 X107.206 Y101.549
G1 F1500 X107.633 Y101.976 E295.50166
G0 F9000 X108.084 Y101.976
G0 X111.39 Y101.11
G0 X111.39 Y101.39
G1 F1500 X115.314 Y101.39 E295.63217
G1 X115.31 Y102.902 E295.68246
G1 X111.39 Y102.902 E295.81284
G1 X111.39 Y101.39 E295.86313
G0 F9000 X111.39 Y101.11
G0 X111.172 Y103.12
G0 X111.792 Y103.192
G0 X111.792 Y102.741
G1 F1500 X111.549 Y102.498 E295.87456
G0 F9000 X111.549 Y101.932
G1 F1500 X112.358 Y102.741 E295.91262
G0 F9000 X112.924 Y102.741
G1 F1500 X111.732 Y101.55 E295.96866
G0 F9000 X112.298 Y101.55
G1 F1500 X113.489 Y102.741 E296.02468
G0 F9000 X114.055 Y102.741
G1 F1500 X112.864 Y101.55 E296.0807
G0 F9000 X113.429 Y101.55
G1 F1500 X114.621 Y102.741 E296.13675
G0 F9000 X115.15 Y102.705
G1 F1500 X113.995 Y101.55 E296.19107
G0 F9000 X114.561 Y101.55
G1 F1500 X115.151 Y102.14 E296.21883
G0 F9000 X115.602 Y102.141
G0 X117.045 Y107.527
G0 X117.045 Y107.817
G1 F1500 X118.61 Y107.817 E296.27088
G1 X118.61 Y111.517 E296.39394
G1 X117.045 Y111.517 E296.44599
G1 X117.045 Y107.817 E296.56905
G0 F9000 X117.045 Y107.527
G0 X118.818 Y107.599
G0 X118.89 Y108.267
G0 X118.449 Y108.267
G1 F1500 X118.159 Y107.977 E296.5827
G0 F9000 X117.593 Y107.977
G1 F1500 X118.449 Y108.832 E296.62294
G0 F9000 X118.449 Y109.398
G1 F1500 X117.204 Y108.153 E296.6815
G0 F9000 X117.204 Y108.719
G1 F1500 X118.449 Y109.964 E296.74006
G0 F9000 X118.449 Y110.529
G1 F1500 X117.204 Y109.284 E296.79862
G0 F9000 X117.204 Y109.85
G1 F1500 X118.449 Y111.095 E296.85718
G0 F9000 X118.144 Y111.356
G1 F1500 X117.204 Y110.416 E296.90139
G0 F9000 X117.204 Y110.981
G1 F1500 X117.579 Y111.356 E296.91903
G0 F9000 X117.579 Y112.107
;MESH:NONMESH
G0 F300 X117.579 Y112.107 Z3.6
G0 F9000 X119 Y119
;TIME_ELAPSED:405.009555
;LAYER:17
;TYPE:WALL-INNER
;MESH:xyzCalibration_cube.stl
G1 F1500 X101 Y119 E297.51772
G1 X101 Y101 E298.1164
G1 X119 Y101 E298.71508
G1 X119 Y119 E299.31376
G0 F9000 X119.4 Y119.4
G1 F1500 X100.6 Y119.4 E299.93905
G1 X100.6 Y100.6 E300.56434
G1 X119.4 Y100.6 E301.18963
G1 X119.4 Y119.4 E301.81492
G0 F9000 X119.8 Y119.8
;TYPE:WALL-OUTER
G1 F1500 X100.2 Y119.8 E302.46682
G1 X100.2 Y100.2 E303.11872
G1 X119.8 Y100.2 E303.77062
G1 X119.8 Y119.8 E304.42252
G0 F9000 X119.53 Y119.53
G0 X117.397 Y118.919
;TYPE:FILL
G1 F3000 X118.919 Y113.241 E304.61804
G0 F9000 X118.919 Y115.32
G1 F3000 X106.57 Y102.971 E305.1989
G0 F9000 X106.57 Y103.192
G0 X103.827 Y103.12
G0 X103.752 Y101.825
G0 X103.971 Y101.825
G1 F3000 X101.08 Y102.6 E305.29845
G0 F9000 X103.542 Y101.079
G1 F3000 X101.079 Y110.271 E305.61496
G0 F9000 X101.079 Y108.812
G1 F3000 X118.918 Y104.032 E306.22922
G0 F9000 X118.919 Y106.834
G1 F3000 X115.056 Y102.972 E306.4109
G0 F9000 X115.056 Y103.192
G0 X115.528 Y103.12
G0 X115.966 Y101.079
G1 F3000 X111.185 Y118.92 E307.02523
G0 F9000 X109.723 Y118.919
G1 F3000 X118.919 Y116.455 E307.34188
G0 F9000 X114.032 Y118.919
G1 F3000 X101.079 Y105.965 E307.95117
G0 F9000 X101.079 Y114.45
G1 F3000 X105.547 Y118.919 E308.16136
G0 F9000 X104.974 Y118.92
G1 F3000 X109.754 Y101.078 E308.77571
G0 F9000 X110.803 Y102.731
G0 X116.755 Y110.765
G0 X116.973 Y110.765
G1 F3000 X101.08 Y115.023 E309.32296
G0 F9000 X104.045 Y103.192
G0 X104.045 Y102.902
;TYPE:SKIN
G1 F1500 X104.041 Y101.39 E309.37325
G1 X107.912 Y101.39 E309.502
G1 X107.912 Y102.9 E309.55222
G1 X104.045 Y102.902 E309.68084
G0 F9000 X104.045 Y103.192
G0 X103.752 Y101.707
G0 X104.202 Y101.707
G1 F1500 X104.359 Y101.549 E309.68824
G0 F9000 X104.925 Y101.549
G1 F1500 X104.202 Y102.272 E309.72225
G0 F9000 X104.298 Y102.741
G1 F1500 X105.491 Y101.549 E309.77834
G0 F9000 X106.056 Y101.549
G1 F1500 X104.864 Y102.741 E309.83441
G0 F9000 X105.431 Y102.741
G1 F1500 X106.622 Y101.549 E309.89046
G0 F9000 X107.188 Y101.549
G1 F1500 X105.996 Y102.741 E309.94652
G0 F9000 X106.562 Y102.741
G1 F1500 X107.751 Y101.552 E310.00245
G0 F9000 X107.751 Y102.118
G1 F1500 X107.128 Y102.74 E310.03173
G0 F9000 X107.694 Y102.74
G1 F1500 X107.751 Y102.683 E310.03441
G0 F9000 X108.202 Y102.683
G0 X110.978 Y102.902
G0 X111.268 Y102.902
G1 F1500 X111.268 Y101.39 E310.0847
G1 X115.314 Y101.39 E310.21927
G1 X115.31 Y102.902 E310.26956
G1 X111.268 Y102.902 E310.404
G0 F9000 X110.978 Y102.902
G0 X111.05 Y101.182
G0 X111.712 Y101.11
G0 X111.712 Y101.55
G1 F1500 X111.427 Y101.836 E310.41743
G0 F9000 X111.427 Y102.401
G1 F1500 X112.278 Y101.55 E310.45746
G0 F9000 X112.844 Y101.55
G1 F1500 X111.652 Y102.742 E310.51352
G0 F9000 X112.217 Y102.742
G1 F1500 X113.41 Y101.55 E310.56962
G0 F9000 X113.975 Y101.55
G1 F1500 X112.783 Y102.742 E310.62568
G0 F9000 X113.349 Y102.742
G1 F1500 X114.541 Y101.55 E310.68175
G0 F9000 X115.107 Y101.55
G1 F1500 X113.914 Y102.742 E310.73784
G0 F9000 X114.48 Y102.742
G1 F1500 X115.15 Y102.072 E310.76936
G0 F9000 X115.15 Y102.638
G1 F1500 X115.046 Y102.742 E310.77425
G0 F9000 X115.046 Y103.192
G0 X117.045 Y107.525
G0 X117.045 Y107.815
G1 F1500 X118.61 Y107.815 E310.8263
G1 X118.61 Y111.517 E310.94943
G1 X117.045 Y111.517 E311.00148
G1 X117.045 Y107.815 E311.12461
G0 F9000 X117.733 Y107.975
G1 F1500 X117.204 Y108.504 E311.14949
G0 F9000 X117.204 Y109.069
G1 F1500 X118.298 Y107.975 E311.20095
G0 F9000 X118.448 Y108.39
G1 F1500 X117.204 Y109.635 E311.25949
G0 F9000 X117.204 Y110.201
G1 F1500 X118.448 Y108.956 E311.31803
G0 F9000 X118.448 Y109.522
G1 F1500 X117.204 Y110.766 E311.37654
G0 F9000 X117.204 Y111.332
G1 F1500 X118.448 Y110.088 E311.43506
G0 F9000 X118.448 Y110.653
G1 F1500 X117.745 Y111.357 E311.46815
G0 F9000 X118.31 Y111.357
G1 F1500 X118.448 Y111.219 E311.47464
G0 F9000 X119.19 Y111.219
;MESH:NONMESH
G0 F300 X119.19 Y111.219 Z3.8
G0 F9000 X119 Y119
;TIME_ELAPSED:426.410890
;LAYER:18
;TYPE:WALL-INNER
;MESH:xyzCalibration_cube.stl
G1 F1500 X101 Y119 E312.07332
G1 X101 Y101 E312.672
G1 X104.05 Y101 E312.77345
G1 X104.052 Y102.892 E312.83637
G1 X107.665 Y102.891 E312.95654
G1 X107.664 Y101 E313.01944
G1 X111.523 Y101 E313.14779
G1 X111.521 Y102.892 E313.21072
G1 X115.303 Y102.892 E313.33651
G1 X115.305 Y101 E313.39944
G1 X119 Y101 E313.52233
G1 X119 Y107.831 E313.74953
G1 X118.422 Y107.832 E313.76876
G1 X118.287 Y109.688 E313.83065
G1 X119 Y109.79 E313.85461
G1 X119 Y119 E314.16093
G0 F9000 X119.4 Y119.4
G1 F1500 X100.6 Y119.4 E314.78622
G1 X100.6 Y100.6 E315.41151
G1 X104.45 Y100.6 E315.53956
G1 X104.452 Y102.492 E315.60249
G1 X107.265 Y102.491 E315.69605
G1 X107.264 Y100.6 E315.75895
G1 X111.923 Y100.6 E315.91391
G1 X111.921 Y102.492 E315.97684
G1 X114.903 Y102.492 E316.07602
G1 X114.905 Y100.6 E316.13894
G1 X119.4 Y100.6 E316.28845
G1 X119.4 Y108.23 E316.54222
G1 X118.794 Y108.231 E316.56238
G1 X118.713 Y109.345 E316.59953
G1 X119.4 Y109.443 E316.62261
G1 X119.4 Y119.4 E316.95378
G0 F9000 X119.8 Y119.8
;TYPE:WALL-OUTER
G1 F1500 X100.2 Y119.8 E317.60568
G1 X100.2 Y100.2 E318.25758
G1 X104.85 Y100.2 E318.41224
G1 X104.852 Y102.092 E318.47517
G1 X106.865 Y102.091 E318.54212
G1 X106.864 Y100.2 E318.60501
G1 X112.323 Y100.2 E318.78658
G1 X112.321 Y102.092 E318.84951
G1 X114.503 Y102.092 E318.92208
G1 X114.505 Y100.2 E318.98501
G1 X119.8 Y100.2 E319.16112
G1 X119.8 Y108.629 E319.44147
G1 X119.166 Y108.63 E319.46256
G1 X119.139 Y109.002 E319.47497
G1 X119.8 Y109.096 E319.49717
G1 X119.8 Y119.8 E319.85319
G0 F9000 X119.53 Y119.53
G0 X117.25 Y118.919
;TYPE:FILL
G1 F3000 X118.919 Y112.692 E320.06761
G0 F9000 X118.919 Y115.119
G1 F3000 X106.771 Y102.971 E320.63901
G0 F9000 X104.839 Y102.386
G0 X103.97 Y101.973
G1 F3000 X101.08 Y102.747 E320.73852
G0 F9000 X103.395 Y101.079
G1 F3000 X101.079 Y109.723 E321.03616
G0 F9000 X101.079 Y108.959
G1 F3000 X118.918 Y104.179 E321.65042
G0 F9000 X118.919 Y106.633
G1 F3000 X115.257 Y102.972 E321.82265
G1 X115.312 Y102.97
G1 X111.038 Y118.92 E322.37186
G0 F9000 X110.272 Y118.919
G1 F3000 X118.919 Y116.602 E322.66961
G0 F9000 X114.233 Y118.919
G1 F3000 X101.079 Y105.764 E323.28836
G0 F9000 X101.079 Y114.25
G1 F3000 X105.748 Y118.919 E323.50797
G0 F9000 X104.827 Y118.92
G1 F3000 X109.607 Y101.078 E324.12233
G0 F9000 X112.093 Y102.32
G0 X115.383 Y102.706
G1 F3000 X115.819 Y101.078 E324.17838
G0 F9000 X116.755 Y110.912
G0 X116.973 Y110.912
G1 F3000 X101.08 Y115.17 E324.72563
G0 F9000 X116.755 Y111.517
G0 X117.045 Y111.517
;TYPE:SKIN
G1 F1500 X117.045 Y108.493 E324.82621
G1 X117.974 Y108.624 E324.85741
G1 X117.872 Y110.023 E324.90407
G1 X118.61 Y110.128 E324.92886
G1 X118.61 Y111.517 E324.97506
G1 X117.045 Y111.517 E325.02711
G0 F9000 X117.579 Y111.356
G1 F1500 X117.204 Y110.981 E325.04475
G0 F9000 X117.204 Y110.416
G1 F1500 X118.144 Y111.356 E325.08896
G0 F9000 X118.449 Y111.095
G1 F1500 X117.204 Y109.85 E325.14752
G0 F9000 X117.726 Y109.807
G1 F1500 X117.204 Y109.284 E325.1721
G0 F9000 X117.765 Y109.28
G1 F1500 X117.204 Y108.719 E325.19849
G0 F9000 X116.755 Y108.719
G0 X116.829 Y108.244
G0 X118.197 Y108.435
G0 X118.206 Y109.788
G0 X118.143 Y110.223
G1 F1500 X118.449 Y110.529 E325.21288
G0 F9000 X119.19 Y110.529
;MESH:NONMESH
G0 F300 X119.19 Y110.529 Z4
G0 F9000 X119 Y119
;TIME_ELAPSED:445.586038
;LAYER:19
;TYPE:WALL-INNER
;MESH:xyzCalibration_cube.stl
G1 F1500 X101 Y119 E325.81157
G1 X101 Y101 E326.41025
G1 X104.161 Y101 E326.51538
G1 X104.163 Y102.892 E326.57831
G1 X107.784 Y102.891 E326.69875
G1 X107.784 Y101 E326.76164
G1 X111.401 Y101 E326.88194
G1 X111.4 Y102.892 E326.94487
G1 X115.174 Y102.892 E327.07039
G1 X115.177 Y101 E327.13332
G1 X119 Y101 E327.26048
G1 X119 Y107.827 E327.48754
G1 X117.055 Y107.827 E327.55223
G1 X117.055 Y111.507 E327.67463
G1 X119 Y111.508 E327.73932
G1 X119 Y119 E327.98851
G0 F9000 X119.4 Y119.4
G1 F1500 X100.6 Y119.4 E328.6138
G1 X100.6 Y100.6 E329.23909
G1 X104.561 Y100.6 E329.37083
G1 X104.563 Y102.492 E329.43376
G1 X107.384 Y102.491 E329.52759
G1 X107.384 Y100.6 E329.59048
G1 X111.801 Y100.6 E329.73739
G1 X111.8 Y102.492 E329.80032
G1 X114.775 Y102.492 E329.89927
G1 X114.778 Y100.6 E329.9622
G1 X119.4 Y100.6 E330.11593
G1 X119.4 Y108.227 E330.3696
G1 X117.455 Y108.227 E330.43429
G1 X117.455 Y111.107 E330.53008
G1 X119.4 Y111.108 E330.59477
G1 X119.4 Y119.4 E330.87056
G0 F9000 X119.8 Y119.8
;TYPE:WALL-OUTER
G1 F1500 X100.2 Y119.8 E331.52246
G1 X100.2 Y100.2 E332.17436
G1 X104.961 Y100.2 E332.33271
G1 X104.963 Y102.092 E332.39564
G1 X106.984 Y102.091 E332.46286
G1 X106.984 Y100.2 E332.52576
G1 X112.201 Y100.2 E332.69927
G1 X112.2 Y102.092 E332.7622
G1 X114.376 Y102.092 E332.83458
G1 X114.379 Y100.2 E332.8975
G1 X119.8 Y100.2 E333.07781
G1 X119.8 Y108.627 E333.35809
G1 X117.855 Y108.627 E333.42278
G1 X117.855 Y110.707 E333.49196
G1 X119.8 Y110.708 E333.55665
G1 X119.8 Y119.8 E333.85905
G0 F9000 X119.53 Y119.53
G0 X117.104 Y118.919
;TYPE:FILL
G1 F3000 X118.919 Y112.147 E334.09224
G0 F9000 X116.973 Y111.058
G1 F3000 X101.08 Y115.316 E334.63949
G0 F9000 X101.079 Y114.05
G1 F3000 X105.947 Y118.919 E334.86849
G0 F9000 X104.681 Y118.919
G1 F3000 X109.461 Y101.078 E335.48281
G0 F9000 X106.971 Y102.971
G1 F3000 X118.919 Y114.92 E336.04483
G0 F9000 X118.918 Y116.748
G1 F3000 X110.816 Y118.919 E336.32381
G1 X110.892 Y118.92
G1 X115.166 Y102.97 E336.87303
G0 F9000 X115.253 Y102.768
G1 F3000 X118.919 Y106.434 E337.04546
G0 F9000 X118.918 Y104.325
G1 F3000 X101.079 Y109.105 E337.65972
G1 X101.079 Y109.177
G1 X103.249 Y101.079 E337.93856
G0 F9000 X104.081 Y102.089
G1 F3000 X101.08 Y102.893 E338.0419
G0 F9000 X101.079 Y105.565
G1 F3000 X114.433 Y118.919 E338.67003
G0 F9000 X115.253 Y102.644
G1 F3000 X115.673 Y101.079 E338.72392
;MESH:NONMESH
G0 F300 X115.673 Y101.079 Z4.2
G0 F9000 X119 Y119
;TIME_ELAPSED:462.997715
;LAYER:20
;TYPE:WALL-INNER
;MESH:xyzCalibration_cube.stl
G1 F1500 X101 Y119 E339.32261
G1 X101 Y101 E339.92129
G1 X104.272 Y101 E340.03012
G1 X104.274 Y102.892 E340.09304
G1 X107.902 Y102.891 E340.21371
G1 X107.901 Y101 E340.27661
G1 X111.279 Y101 E340.38896
G1 X111.278 Y102.892 E340.45189
G1 X115.05 Y102.892 E340.57734
G1 X115.052 Y101 E340.64027
G1 X119 Y101 E340.77158
G1 X119 Y107.825 E340.99858
G1 X117.055 Y107.825 E341.06328
G1 X117.055 Y111.505 E341.18567
G1 X119 Y111.506 E341.25036
G1 X119 Y119 E341.49961
G0 F9000 X119.4 Y119.4
G1 F1500 X100.6 Y119.4 E342.12491
G1 X100.6 Y100.6 E342.7502
G1 X104.672 Y100.6 E342.88563
G1 X104.674 Y102.492 E342.94856
G1 X107.502 Y102.491 E343.04262
G1 X107.501 Y100.6 E343.10551
G1 X111.679 Y100.6 E343.24447
G1 X111.678 Y102.492 E343.3074
G1 X114.65 Y102.492 E343.40625
G1 X114.652 Y100.6 E343.46918
G1 X119.4 Y100.6 E343.6271
G1 X119.4 Y108.225 E343.88071
G1 X117.455 Y108.225 E343.9454
G1 X117.455 Y111.105 E344.04119
G1 X119.4 Y111.106 E344.10588
G1 X119.4 Y119.4 E344.38174
G0 F9000 X119.8 Y119.8
;TYPE:WALL-OUTER
G1 F1500 X100.2 Y119.8 E345.03364
G1 X100.2 Y100.2 E345.68554
G1 X105.072 Y100.2 E345.84758
G1 X105.074 Y102.092 E345.91051
G1 X107.102 Y102.091 E345.97796
G1 X107.101 Y100.2 E346.04085
G1 X112.079 Y100.2 E346.20642
G1 X112.078 Y102.092 E346.26935
G1 X114.25 Y102.092 E346.34159
G1 X114.252 Y100.2 E346.40452
G1 X119.8 Y100.2 E346.58905
G1 X119.8 Y108.625 E346.86926
G1 X117.855 Y108.625 E346.93396
G1 X117.855 Y110.705 E347.00314
G1 X119.8 Y110.706 E347.06783
G1 X119.8 Y119.8 E347.37029
G0 F9000 X119.53 Y119.53
G0 X116.958 Y118.92
;TYPE:FILL
G1 F3000 X118.919 Y111.601 E347.62231
G0 F9000 X116.973 Y111.204
G1 F3000 X101.08 Y115.462 E348.16956
G0 F9000 X101.079 Y113.851
G1 F3000 X106.147 Y118.919 E348.40794
G0 F9000 X104.535 Y118.919
G1 F3000 X109.315 Y101.079 E349.02223
G0 F9000 X108.394 Y101.079
G1 F3000 X107.981 Y101.19 E349.03646
G0 F9000 X107.17 Y102.971
G1 F3000 X118.919 Y114.721 E349.58912
G0 F9000 X118.919 Y116.894
G1 F3000 X111.361 Y118.919 E349.84936
G0 F9000 X110.746 Y118.92
G1 F3000 X115.02 Y102.971 E350.39855
G0 F9000 X115.13 Y102.559
G1 F3000 X115.527 Y101.078 E350.44954
G0 F9000 X115.129 Y102.445
G1 F3000 X118.919 Y106.235 E350.62781
G0 F9000 X118.919 Y104.471
G1 F3000 X101.08 Y109.251 E351.24207
G0 F9000 X101.079 Y108.632
G1 F3000 X103.104 Y101.078 E351.50219
G0 F9000 X104.192 Y102.205
G1 F3000 X101.079 Y103.039 E351.60938
G0 F9000 X101.079 Y105.365
G1 F3000 X114.632 Y118.919 E352.24689
;MESH:NONMESH
G0 F300 X114.632 Y118.919 Z4.4
G0 F9000 X119 Y119
;TIME_ELAPSED:480.119343
;LAYER:21
;TYPE:WALL-INNER
;MESH:xyzCalibration_cube.stl
G1 F1500 X101 Y119 E352.84558
G1 X101 Y101 E353.44426
G1 X104.385 Y101 E353.55684
G1 X104.388 Y102.892 E353.61977
G1 X108.021 Y102.891 E353.74061
G1 X108.021 Y101 E353.8035
G1 X111.157 Y101 E353.90781
G1 X111.156 Y102.892 E353.97073
G1 X114.924 Y102.892 E354.09606
G1 X114.926 Y101 E354.15899
G1 X119 Y101 E354.29449
G1 X119 Y107.823 E354.52142
G1 X117.056 Y107.823 E354.58608
G1 X117.056 Y111.503 E354.70848
G1 X119 Y111.504 E354.77313
G1 X119 Y119 E355.02245
G0 F9000 X119.4 Y119.4
G1 F1500 X100.6 Y119.4 E355.64774
G1 X100.6 Y100.6 E356.27303
G1 X104.784 Y100.6 E356.41219
G1 X104.787 Y102.492 E356.47512
G1 X107.621 Y102.491 E356.56938
G1 X107.621 Y100.6 E356.63228
G1 X111.557 Y100.6 E356.76319
G1 X111.556 Y102.492 E356.82612
G1 X114.524 Y102.492 E356.92483
G1 X114.526 Y100.6 E356.98776
G1 X119.4 Y100.6 E357.14987
G1 X119.4 Y108.223 E357.40341
G1 X117.456 Y108.223 E357.46807
G1 X117.456 Y111.103 E357.56386
G1 X119.4 Y111.104 E357.62852
G1 X119.4 Y119.4 E357.90444
G0 F9000 X119.8 Y119.8
;TYPE:WALL-OUTER
G1 F1500 X100.2 Y119.8 E358.55634
G1 X100.2 Y100.2 E359.20824
G1 X105.183 Y100.2 E359.37398
G1 X105.186 Y102.092 E359.4369
G1 X107.221 Y102.091 E359.50459
G1 X107.221 Y100.2 E359.56748
G1 X111.957 Y100.2 E359.725
G1 X111.956 Y102.092 E359.78793
G1 X114.124 Y102.092 E359.86004
G1 X114.126 Y100.2 E359.92297
G1 X119.8 Y100.2 E360.11169
G1 X119.8 Y108.623 E360.39184
G1 X117.856 Y108.623 E360.45649
G1 X117.856 Y110.703 E360.52567
G1 X119.8 Y110.704 E360.59033
G1 X119.8 Y119.8 E360.89287
G0 F9000 X119.53 Y119.53
G0 X118.918 Y117.041
;TYPE:FILL
G1 F3000 X111.909 Y118.919 E361.13421
G0 F9000 X110.599 Y118.92
G1 F3000 X114.873 Y102.971 E361.68339
G0 F9000 X115.004 Y102.483
G1 F3000 X115.38 Y101.079 E361.73174
G0 F9000 X115.003 Y102.118
G1 F3000 X118.919 Y106.034 E361.91593
G0 F9000 X118.918 Y104.618
G1 F3000 X101.08 Y109.398 E362.53016
G0 F9000 X101.079 Y108.084
G1 F3000 X102.956 Y101.079 E362.77137
G0 F9000 X104.306 Y102.322
G1 F3000 X101.079 Y103.186 E362.88248
G0 F9000 X101.079 Y105.165
G1 F3000 X114.833 Y118.919 E363.52942
G0 F9000 X116.811 Y118.92
G1 F3000 X118.777 Y111.582 E363.78209
G0 F9000 X116.975 Y111.35
G1 F3000 X101.08 Y115.609 E364.32941
G0 F9000 X101.079 Y113.65
G1 F3000 X106.348 Y118.919 E364.57725
G0 F9000 X104.388 Y118.919
G1 F3000 X109.168 Y101.079 E365.19154
G0 F9000 X108.943 Y101.079
G1 F3000 X108.101 Y101.305 E365.22054
G0 F9000 X107.371 Y102.971
G1 F3000 X118.919 Y114.52 E365.76374
;MESH:NONMESH
G0 F300 X118.919 Y114.52 Z4.6
G0 F9000 X119 Y119
;TIME_ELAPSED:497.255714
;LAYER:22
;TYPE:WALL-INNER
;MESH:xyzCalibration_cube.stl
G1 F1500 X101 Y119 E366.36242
G1 X101 Y101 E366.96111
G1 X104.495 Y101 E367.07735
G1 X104.497 Y102.893 E367.14031
G1 X106.907 Y102.893 E367.22047
G1 X108.139 Y102.881 E367.26145
G1 X108.138 Y101 E367.32401
G1 X111.035 Y101 E367.42036
G1 X111.034 Y102.892 E367.48329
G1 X114.797 Y102.893 E367.60845
G1 X114.799 Y101 E367.67141
G1 X119 Y101 E367.81114
G1 X119 Y107.821 E368.03801
G1 X117.056 Y107.821 E368.10266
G1 X117.056 Y111.501 E368.22506
G1 X119 Y111.502 E368.28972
G1 X119 Y119 E368.5391
G0 F9000 X119.4 Y119.4
G1 F1500 X100.6 Y119.4 E369.16439
G1 X100.6 Y100.6 E369.78968
G1 X104.895 Y100.6 E369.93254
G1 X104.897 Y102.493 E369.9955
G1 X106.905 Y102.493 E370.06228
G1 X107.739 Y102.485 E370.09002
G1 X107.738 Y100.6 E370.15272
G1 X111.435 Y100.6 E370.27568
G1 X111.434 Y102.492 E370.33861
G1 X114.397 Y102.493 E370.43716
G1 X114.399 Y100.6 E370.50012
G1 X119.4 Y100.6 E370.66646
G1 X119.4 Y108.221 E370.91993
G1 X117.456 Y108.221 E370.98459
G1 X117.456 Y111.101 E371.08038
G1 X119.4 Y111.102 E371.14504
G1 X119.4 Y119.4 E371.42103
G0 F9000 X119.8 Y119.8
;TYPE:WALL-OUTER
G1 F1500 X100.2 Y119.8 E372.07293
G1 X100.2 Y100.2 E372.72483
G1 X105.295 Y100.2 E372.89429
G1 X105.297 Y102.093 E372.95725
G1 X106.903 Y102.093 E373.01066
G1 X107.339 Y102.089 E373.02517
G1 X107.338 Y100.2 E373.08799
G1 X111.835 Y100.2 E373.23756
G1 X111.834 Y102.092 E373.30049
G1 X113.997 Y102.093 E373.37243
G1 X113.999 Y100.2 E373.4354
G1 X119.8 Y100.2 E373.62834
G1 X119.8 Y108.621 E373.90842
G1 X117.856 Y108.621 E373.97308
G1 X117.856 Y110.701 E374.04226
G1 X119.8 Y110.702 E374.10692
G1 X119.8 Y119.8 E374.40952
G0 F9000 X119.53 Y119.53
G0 X118.919 Y117.187
;TYPE:FILL
G1 F3000 X112.454 Y118.919 E374.63213
G0 F9000 X110.453 Y118.919
G1 F3000 X114.727 Y102.971 E375.18128
G0 F9000 X114.877 Y102.409
G1 F3000 X115.234 Y101.079 E375.22708
G0 F9000 X114.877 Y101.792
G1 F3000 X118.919 Y105.834 E375.4172
G0 F9000 X118.919 Y104.764
G1 F3000 X101.08 Y109.544 E376.03146
G0 F9000 X101.079 Y107.539
G1 F3000 X102.81 Y101.079 E376.2539
G0 F9000 X104.415 Y102.438
G1 F3000 X101.079 Y103.332 E376.36877
G0 F9000 X101.079 Y104.965
G1 F3000 X115.032 Y118.919 E377.0251
G0 F9000 X116.665 Y118.92
G1 F3000 X118.631 Y111.581 E377.27781
G0 F9000 X116.974 Y111.496
G1 F3000 X101.08 Y115.755 E377.82509
G0 F9000 X101.079 Y113.451
G1 F3000 X106.547 Y118.919 E378.08229
G0 F9000 X104.242 Y118.919
G1 F3000 X109.022 Y101.078 E378.69661
G0 F9000 X109.488 Y101.079
G1 F3000 X108.217 Y101.419 E378.74037
G0 F9000 X107.565 Y102.966
G1 F3000 X118.919 Y114.32 E379.27443
;MESH:NONMESH
G0 F300 X118.919 Y114.32 Z4.8
G0 F9000 X119 Y119
;TIME_ELAPSED:514.436855
;LAYER:23
;TYPE:WALL-INNER
;MESH:xyzCalibration_cube.stl
G1 F1500 X101 Y119 E379.87311
G1 X101 Y101 E380.4718
G1 X104.606 Y101 E380.59173
G1 X104.608 Y102.893 E380.65469
G1 X108.258 Y102.892 E380.77609
G1 X108.257 Y101 E380.83902
G1 X110.913 Y101 E380.92736
G1 X110.912 Y102.893 E380.99032
G1 X114.671 Y102.893 E381.11535
G1 X114.673 Y101 E381.17831
G1 X119 Y101 E381.32222
G1 X119 Y107.818 E381.54899
G1 X117.056 Y107.818 E381.61365
G1 X117.056 Y111.499 E381.73608
G1 X119 Y111.5 E381.80074
G1 X119 Y119 E382.05019
G0 F9000 X119.4 Y119.4
G1 F1500 X100.6 Y119.4 E382.67548
G1 X100.6 Y100.6 E383.30077
G1 X105.006 Y100.6 E383.44731
G1 X105.008 Y102.493 E383.51028
G1 X107.858 Y102.492 E383.60507
G1 X107.857 Y100.6 E383.668
G1 X111.313 Y100.6 E383.78294
G1 X111.312 Y102.493 E383.8459
G1 X114.271 Y102.493 E383.94432
G1 X114.273 Y100.6 E384.00728
G1 X119.4 Y100.6 E384.17781
G1 X119.4 Y108.218 E384.43118
G1 X117.456 Y108.218 E384.49584
G1 X117.456 Y111.099 E384.59166
G1 X119.4 Y111.1 E384.65632
G1 X119.4 Y119.4 E384.93238
G0 F9000 X119.8 Y119.8
;TYPE:WALL-OUTER
G1 F1500 X100.2 Y119.8 E385.58428
G1 X100.2 Y100.2 E386.23618
G1 X105.406 Y100.2 E386.40933
G1 X105.408 Y102.093 E386.47229
G1 X107.458 Y102.092 E386.54047
G1 X107.457 Y100.2 E386.6034
G1 X111.713 Y100.2 E386.74496
G1 X111.712 Y102.093 E386.80792
G1 X113.871 Y102.093 E386.87973
G1 X113.873 Y100.2 E386.94269
G1 X119.8 Y100.2 E387.13982
G1 X119.8 Y108.618 E387.4198
G1 X117.856 Y108.618 E387.48446
G1 X117.856 Y110.699 E387.55368
G1 X119.8 Y110.7 E387.61833
G1 X119.8 Y119.8 E387.921
G0 F9000 X119.53 Y119.53
G0 X118.919 Y117.334
;TYPE:FILL
G1 F3000 X113.003 Y118.919 E388.12471
G0 F9000 X115.233 Y118.919
G1 F3000 X101.079 Y104.764 E388.79049
G0 F9000 X101.079 Y103.479
G1 F3000 X104.526 Y102.556 E388.90918
G0 F9000 X102.664 Y101.078
G1 F3000 X101.079 Y106.991 E389.11279
G0 F9000 X101.08 Y109.691
G1 F3000 X118.919 Y104.911 E389.72705
G0 F9000 X118.919 Y105.633
G1 F3000 X114.751 Y101.466 E389.92307
G0 F9000 X115.087 Y101.078
G1 F3000 X114.751 Y102.331 E389.96622
G0 F9000 X114.58 Y102.972
G1 F3000 X110.306 Y118.919 E390.51534
G0 F9000 X106.748 Y118.919
G1 F3000 X101.079 Y113.25 E390.78199
G0 F9000 X101.08 Y115.902
G1 F3000 X117.218 Y111.578 E391.33768
G0 F9000 X118.485 Y111.579
G1 F3000 X116.518 Y118.92 E391.59045
G0 F9000 X118.919 Y114.119
G1 F3000 X107.772 Y102.972 E392.11477
G0 F9000 X108.337 Y101.534
G1 F3000 X110.037 Y101.079 E392.17331
G0 F9000 X108.875 Y101.079
G1 F3000 X104.095 Y118.919 E392.7876
;MESH:NONMESH
G0 F300 X104.095 Y118.919 Z5
G0 F9000 X119 Y119
;TIME_ELAPSED:531.925350
;LAYER:24
;TYPE:WALL-INNER
;MESH:xyzCalibration_cube.stl
G1 F1500 X101 Y119 E393.38628
G1 X101 Y101 E393.98496
G1 X104.717 Y101 E394.10859
G1 X104.719 Y102.893 E394.17155
G1 X108.376 Y102.892 E394.29318
G1 X108.375 Y101 E394.35611
G1 X110.792 Y101 E394.4365
G1 X110.791 Y102.893 E394.49946
G1 X114.544 Y102.893 E394.62429
G1 X114.546 Y101 E394.68725
G1 X119 Y101 E394.83539
G1 X119 Y107.816 E395.06209
G1 X117.056 Y107.816 E395.12675
G1 X117.056 Y111.491 E395.24898
G1 X118.468 Y111.498 E395.29594
G1 X119 Y111.497 E395.31364
G1 X119 Y119 E395.56319
G0 F9000 X119.4 Y119.4
G1 F1500 X100.6 Y119.4 E396.18848
G1 X100.6 Y100.6 E396.81377
G1 X105.117 Y100.6 E396.96401
G1 X105.119 Y102.493 E397.02697
G1 X107.976 Y102.492 E397.12199
G1 X107.975 Y100.6 E397.18492
G1 X111.192 Y100.6 E397.29192
G1 X111.191 Y102.493 E397.35488
G1 X114.144 Y102.493 E397.4531
G1 X114.146 Y100.6 E397.51606
G1 X119.4 Y100.6 E397.69081
G1 X119.4 Y108.216 E397.94412
G1 X117.456 Y108.216 E398.00877
G1 X117.456 Y111.093 E398.10446
G1 X118.469 Y111.098 E398.13816
G1 X119.4 Y111.097 E398.16912
G1 X119.4 Y119.4 E398.44528
G0 F9000 X119.8 Y119.8
;TYPE:WALL-OUTER
G1 F1500 X100.2 Y119.8 E399.09718
G1 X100.2 Y100.2 E399.74908
G1 X105.517 Y100.2 E399.92592
G1 X105.519 Y102.093 E399.98888
G1 X107.576 Y102.092 E400.0573
G1 X107.575 Y100.2 E400.12023
G1 X111.592 Y100.2 E400.25383
G1 X111.591 Y102.093 E400.31679
G1 X113.744 Y102.093 E400.3884
G1 X113.746 Y100.2 E400.45137
G1 X119.8 Y100.2 E400.65272
G1 X119.8 Y108.616 E400.93264
G1 X117.856 Y108.616 E400.9973
G1 X117.856 Y110.695 E401.06645
G1 X118.47 Y110.698 E401.08687
G1 X119.8 Y110.697 E401.1311
G1 X119.8 Y119.8 E401.43387
G0 F9000 X119.53 Y119.53
G0 X118.919 Y117.48
;TYPE:FILL
G1 F3000 X113.548 Y118.919 E401.61881
G0 F9000 X115.433 Y118.919
G1 F3000 X101.079 Y104.565 E402.29398
G0 F9000 X101.08 Y103.625
G1 F3000 X104.637 Y102.672 E402.41646
G0 F9000 X102.518 Y101.078
G1 F3000 X101.079 Y106.446 E402.6013
G0 F9000 X101.08 Y109.837
G1 F3000 X118.918 Y105.057 E403.21553
G0 F9000 X118.919 Y105.434
G1 F3000 X114.624 Y101.14 E403.41753
G0 F9000 X114.941 Y101.079
G1 F3000 X114.624 Y102.262 E403.45826
G0 F9000 X114.434 Y102.972
G1 F3000 X110.16 Y118.919 E404.00738
G0 F9000 X106.947 Y118.919
G1 F3000 X101.079 Y113.05 E404.28342
G0 F9000 X101.079 Y116.048
G1 F3000 X117.779 Y111.574 E404.85845
G0 F9000 X118.34 Y111.575
G1 F3000 X116.372 Y118.92 E405.11136
G0 F9000 X118.919 Y113.92
G1 F3000 X107.971 Y102.972 E405.62632
G0 F9000 X108.222 Y102.97
G1 F3000 X103.949 Y118.92 E406.17553
G0 F9000 X108.455 Y102.103
G1 F3000 X108.729 Y101.078 E406.21082
G0 F9000 X108.455 Y101.649
G1 F3000 X110.581 Y101.079 E406.28403
;MESH:NONMESH
G0 F300 X110.581 Y101.079 Z5.2
G0 F9000 X119 Y119
;TIME_ELAPSED:549.731920
;LAYER:25
;TYPE:WALL-INNER
;MESH:xyzCalibration_cube.stl
G1 F1500 X101 Y119 E406.88271
G1 X101 Y101 E407.48139
G1 X104.828 Y101 E407.60871
G1 X104.83 Y102.893 E407.67167
G1 X108.494 Y102.892 E407.79354
G1 X108.494 Y101 E407.85647
G1 X110.67 Y101 E407.92884
G1 X110.669 Y102.893 E407.9918
G1 X114.418 Y102.893 E408.11649
G1 X114.42 Y101 E408.17945
G1 X119 Y101 E408.33179
G1 X119 Y107.814 E408.55842
G1 X117.057 Y107.814 E408.62305
G1 X117.057 Y111.494 E408.74544
G1 X119 Y111.495 E408.81007
G1 X119 Y119 E409.05968
G0 F9000 X119.4 Y119.4
G1 F1500 X100.6 Y119.4 E409.68497
G1 X100.6 Y100.6 E410.31027
G1 X105.228 Y100.6 E410.46419
G1 X105.23 Y102.493 E410.52715
G1 X108.094 Y102.492 E410.62241
G1 X108.094 Y100.6 E410.68534
G1 X111.07 Y100.6 E410.78432
G1 X111.069 Y102.493 E410.84728
G1 X114.018 Y102.493 E410.94537
G1 X114.02 Y100.6 E411.00833
G1 X119.4 Y100.6 E411.18727
G1 X119.4 Y108.214 E411.44051
G1 X117.457 Y108.214 E411.50514
G1 X117.457 Y111.094 E411.60093
G1 X119.4 Y111.095 E411.66555
G1 X119.4 Y119.4 E411.94177
G0 F9000 X119.8 Y119.8
;TYPE:WALL-OUTER
G1 F1500 X100.2 Y119.8 E412.59367
G1 X100.2 Y100.2 E413.24557
G1 X105.628 Y100.2 E413.42611
G1 X105.63 Y102.093 E413.48907
G1 X107.694 Y102.092 E413.55772
G1 X107.694 Y100.2 E413.62065
G1 X111.47 Y100.2 E413.74624
G1 X111.469 Y102.093 E413.8092
G1 X113.618 Y102.093 E413.88067
G1 X113.62 Y100.2 E413.94364
G1 X119.8 Y100.2 E414.14918
G1 X119.8 Y108.614 E414.42903
G1 X117.857 Y108.614 E414.49366
G1 X117.857 Y110.694 E414.56284
G1 X119.8 Y110.695 E414.62746
G1 X119.8 Y119.8 E414.9303
G0 F9000 X119.53 Y119.53
G0 X118.919 Y117.626
;TYPE:FILL
G1 F3000 X114.093 Y118.919 E415.09647
G0 F9000 X115.632 Y118.919
G1 F3000 X101.079 Y104.366 E415.781
G0 F9000 X101.08 Y103.771
G1 F3000 X104.748 Y102.788 E415.9073
G0 F9000 X102.372 Y101.079
G1 F3000 X101.08 Y105.9 E416.07331
G0 F9000 X101.079 Y109.983
G1 F3000 X118.918 Y105.203 E416.68757
G1 X118.919 Y105.235
G1 X114.764 Y101.08 E416.88301
G1 X114.795 Y101.079
G1 X114.498 Y102.188 E416.92119
G0 F9000 X114.287 Y102.972
G1 F3000 X110.014 Y118.92 E417.47033
G0 F9000 X107.147 Y118.919
G1 F3000 X101.079 Y112.851 E417.75575
G0 F9000 X101.08 Y116.194
G1 F3000 X118.325 Y111.573 E418.34956
G1 X118.194 Y111.573
G1 X116.226 Y118.919 E418.60251
G0 F9000 X118.919 Y113.721
G1 F3000 X108.171 Y102.972 E419.10808
G1 X108.076 Y102.97
G1 X103.803 Y118.92 E419.65729
G0 F9000 X108.573 Y101.763
G1 F3000 X110.588 Y101.223 E419.72667
;MESH:NONMESH
G0 F300 X110.588 Y101.223 Z5.4
G0 F9000 X119 Y119
;TIME_ELAPSED:567.278951
;LAYER:26
;TYPE:WALL-INNER
;MESH:xyzCalibration_cube.stl
G1 F1500 X101 Y119 E420.32535
G1 X101 Y101 E420.92404
G1 X104.939 Y101 E421.05505
G1 X104.941 Y102.893 E421.11801
G1 X108.613 Y102.892 E421.24014
G1 X108.612 Y101 E421.30307
G1 X110.548 Y101 E421.36746
G1 X110.547 Y102.893 E421.43042
G1 X114.291 Y102.893 E421.55495
G1 X114.293 Y101 E421.61791
G1 X119 Y101 E421.77447
G1 X119 Y107.812 E422.00103
G1 X117.057 Y107.812 E422.06566
G1 X117.057 Y111.492 E422.18806
G1 X119 Y111.493 E422.25268
G1 X119 Y119 E422.50236
G0 F9000 X119.4 Y119.4
G1 F1500 X100.6 Y119.4 E423.12765
G1 X100.6 Y100.6 E423.75294
G1 X105.339 Y100.6 E423.91056
G1 X105.341 Y102.493 E423.97353
G1 X108.213 Y102.492 E424.06905
G1 X108.212 Y100.6 E424.13198
G1 X110.948 Y100.6 E424.22298
G1 X110.947 Y102.493 E424.28594
G1 X113.891 Y102.493 E424.38386
G1 X113.893 Y100.6 E424.44682
G1 X119.4 Y100.6 E424.62998
G1 X119.4 Y108.212 E424.88316
G1 X117.457 Y108.212 E424.94778
G1 X117.457 Y111.092 E425.04357
G1 X119.4 Y111.093 E425.1082
G1 X119.4 Y119.4 E425.38449
G0 F9000 X119.8 Y119.8
;TYPE:WALL-OUTER
G1 F1500 X100.2 Y119.8 E426.03639
G1 X100.2 Y100.2 E426.68828
G1 X105.739 Y100.2 E426.87251
G1 X105.741 Y102.093 E426.93547
G1 X107.813 Y102.092 E427.00439
G1 X107.812 Y100.2 E427.06732
G1 X111.348 Y100.2 E427.18493
G1 X111.347 Y102.093 E427.24789
G1 X113.491 Y102.093 E427.3192
G1 X113.493 Y100.2 E427.38216
G1 X119.8 Y100.2 E427.59193
G1 X119.8 Y108.612 E427.87171
G1 X117.857 Y108.612 E427.93634
G1 X117.857 Y110.692 E428.00552
G1 X119.8 Y110.693 E428.07014
G1 X119.8 Y119.8 E428.37304
G0 F9000 X119.53 Y119.53
G0 X118.919 Y117.773
;TYPE:FILL
G1 F3000 X114.641 Y118.919 E428.52035
G0 F9000 X115.833 Y118.919
G1 F3000 X101.079 Y104.165 E429.21433
G0 F9000 X101.08 Y103.918
G1 F3000 X104.859 Y102.905 E429.34446
G0 F9000 X107.929 Y102.97
G1 F3000 X103.656 Y118.92 E429.89366
G0 F9000 X101.08 Y116.341
G1 F3000 X118.877 Y111.572 E430.50648
G0 F9000 X118.048 Y111.571
G1 F3000 X116.079 Y118.919 E430.7595
G0 F9000 X118.919 Y113.52
G1 F3000 X108.371 Y102.972 E431.25564
G0 F9000 X108.691 Y101.878
G1 F3000 X110.467 Y101.403 E431.31679
G0 F9000 X111.119 Y102.321
G0 X113.719 Y102.321
G0 X114.372 Y102.109
G1 F3000 X114.648 Y101.078 E431.35229
G0 F9000 X114.964 Y101.08
G1 F3000 X118.919 Y105.035 E431.53832
G0 F9000 X118.918 Y105.35
G1 F3000 X101.08 Y110.13 E432.15254
G0 F9000 X101.079 Y112.65
G1 F3000 X107.348 Y118.919 E432.44742
G0 F9000 X109.867 Y118.92
G1 F3000 X114.141 Y102.971 E432.9966
G0 F9000 X105.513 Y102.321
G0 X102.225 Y101.078
G1 F3000 X101.08 Y105.352 E433.14377
;MESH:NONMESH
G0 F300 X101.08 Y105.352 Z5.6
G0 F9000 X119 Y119
;TIME_ELAPSED:585.019366
;LAYER:27
;TYPE:WALL-INNER
;MESH:xyzCalibration_cube.stl
G1 F1500 X101 Y119 E433.74245
G1 X101 Y101 E434.34113
G1 X105.05 Y101 E434.47584
G1 X105.052 Y102.893 E434.5388
G1 X108.731 Y102.892 E434.66116
G1 X108.731 Y101 E434.72409
G1 X110.426 Y101 E434.78047
G1 X110.425 Y102.893 E434.84343
G1 X114.165 Y102.893 E434.96782
G1 X114.167 Y101 E435.03078
G1 X119 Y101 E435.19153
G1 X119 Y107.81 E435.41803
G1 X117.057 Y107.81 E435.48265
G1 X117.057 Y111.49 E435.60505
G1 X119 Y111.491 E435.66968
G1 X119 Y119 E435.91943
G0 F9000 X119.4 Y119.4
G1 F1500 X100.6 Y119.4 E436.54472
G1 X100.6 Y100.6 E437.17001
G1 X105.45 Y100.6 E437.33132
G1 X105.452 Y102.493 E437.39428
G1 X108.331 Y102.492 E437.49004
G1 X108.331 Y100.6 E437.55296
G1 X110.826 Y100.6 E437.63595
G1 X110.825 Y102.493 E437.69891
G1 X113.765 Y102.493 E437.79669
G1 X113.767 Y100.6 E437.85966
G1 X119.4 Y100.6 E438.04701
G1 X119.4 Y108.21 E438.30012
G1 X117.457 Y108.21 E438.36474
G1 X117.457 Y111.09 E438.46053
G1 X119.4 Y111.091 E438.52516
G1 X119.4 Y119.4 E438.80152
G0 F9000 X119.8 Y119.8
;TYPE:WALL-OUTER
G1 F1500 X100.2 Y119.8 E439.45342
G1 X100.2 Y100.2 E440.10531
G1 X105.85 Y100.2 E440.29323
G1 X105.852 Y102.093 E440.3562
G1 X107.931 Y102.092 E440.42534
G1 X107.931 Y100.2 E440.48827
G1 X111.226 Y100.2 E440.59786
G1 X111.225 Y102.093 E440.66082
G1 X113.365 Y102.093 E440.732
G1 X113.367 Y100.2 E440.79496
G1 X119.8 Y100.2 E441.00893
G1 X119.8 Y108.61 E441.28864
G1 X117.857 Y108.61 E441.35327
G1 X117.857 Y110.69 E441.42245
G1 X119.8 Y110.691 E441.48707
G1 X119.8 Y119.8 E441.79004
G0 F9000 X119.53 Y119.53
G0 X118.918 Y117.919
;TYPE:FILL
G1 F3000 X115.186 Y118.919 E441.91855
G0 F9000 X115.933 Y118.919
G1 F3000 X117.903 Y111.569 E442.17164
G0 F9000 X117.169 Y111.57
G1 F3000 X118.919 Y113.32 E442.25395
G0 F9000 X118.919 Y111.707
G1 F3000 X101.08 Y116.487 E442.86821
G0 F9000 X103.51 Y118.919
G1 F3000 X107.783 Y102.971 E443.41735
G0 F9000 X108.572 Y102.973
G1 F3000 X116.976 Y111.377 E443.81265
G0 F9000 X117.629 Y108.382
G0 X118.918 Y105.496
G1 F3000 X101.079 Y110.276 E444.42691
G0 F9000 X101.079 Y112.451
G1 F3000 X107.547 Y118.919 E444.73114
G0 F9000 X109.721 Y118.92
G1 F3000 X113.995 Y102.971 E445.28033
G0 F9000 X114.245 Y102.036
G1 F3000 X114.502 Y101.078 E445.31332
G0 F9000 X115.164 Y101.08
G1 F3000 X118.919 Y104.834 E445.48992
G0 F9000 X110.997 Y102.321
G0 X110.344 Y101.582
G1 F3000 X108.81 Y101.993 E445.54274
G0 F9000 X108.225 Y102.287
G0 X105.153 Y102.973
G1 F3000 X101.08 Y104.064 E445.68298
G1 X101.079 Y103.965
G1 X116.032 Y118.919 E446.38635
G0 F9000 X101.079 Y104.807
G1 F3000 X102.079 Y101.079 E446.51472
;MESH:NONMESH
G0 F300 X102.079 Y101.079 Z5.8
G0 F9000 X119 Y119
;TIME_ELAPSED:603.041197
;LAYER:28
;TYPE:WALL-INNER
;MESH:xyzCalibration_cube.stl
G1 F1500 X101 Y119 E447.11341
G1 X101 Y101 E447.71209
G1 X105.161 Y101 E447.85048
G1 X105.163 Y102.894 E447.91348
G1 X108.85 Y102.892 E448.03611
G1 X108.849 Y101 E448.09904
G1 X110.304 Y101 E448.14743
G1 X110.303 Y102.893 E448.21039
G1 X114.038 Y102.894 E448.33462
G1 X114.04 Y101 E448.39761
G1 X119 Y101 E448.56258
G1 X119 Y107.807 E448.78899
G1 X117.058 Y107.808 E448.85358
G1 X117.058 Y111.488 E448.97597
G1 X119 Y111.489 E449.04057
G1 X119 Y119 E449.29038
G0 F9000 X119.4 Y119.4
G1 F1500 X100.6 Y119.4 E449.91567
G1 X100.6 Y100.6 E450.54096
G1 X105.561 Y100.6 E450.70597
G1 X105.563 Y102.494 E450.76896
G1 X108.45 Y102.492 E450.86498
G1 X108.449 Y100.6 E450.92791
G1 X110.704 Y100.6 E451.00291
G1 X110.703 Y102.493 E451.06588
G1 X113.638 Y102.494 E451.16349
G1 X113.64 Y100.6 E451.22649
G1 X119.4 Y100.6 E451.41807
G1 X119.4 Y108.207 E451.67108
G1 X117.458 Y108.208 E451.73567
G1 X117.458 Y111.088 E451.83146
G1 X119.4 Y111.089 E451.89605
G1 X119.4 Y119.4 E452.17247
G0 F9000 X119.8 Y119.8
;TYPE:WALL-OUTER
G1 F1500 X100.2 Y119.8 E452.82437
G1 X100.2 Y100.2 E453.47627
G1 X105.961 Y100.2 E453.66788
G1 X105.963 Y102.094 E453.73088
G1 X108.05 Y102.092 E453.80029
G1 X108.049 Y100.2 E453.86322
G1 X111.104 Y100.2 E453.96483
G1 X111.103 Y102.093 E454.02779
G1 X113.238 Y102.094 E454.0988
G1 X113.24 Y100.2 E454.1618
G1 X119.8 Y100.2 E454.37998
G1 X119.8 Y108.607 E454.6596
G1 X117.858 Y108.608 E454.72419
G1 X117.858 Y110.688 E454.79337
G1 X119.8 Y110.689 E454.85796
G1 X119.8 Y119.8 E455.161
G0 F9000 X119.53 Y119.53
G0 X118.918 Y118.066
;TYPE:FILL
G1 F3000 X115.735 Y118.919 E455.2706
G1 X115.786 Y118.919
G1 X117.756 Y111.567 E455.52375
G0 F9000 X117.368 Y111.568
G1 F3000 X118.919 Y113.12 E455.59673
G0 F9000 X118.919 Y111.854
G1 F3000 X101.08 Y116.634 E456.21099
G0 F9000 X103.363 Y118.919
G1 F3000 X107.636 Y102.972 E456.7601
G0 F9000 X108.772 Y102.973
G1 F3000 X116.977 Y111.177 E457.14601
G0 F9000 X117.63 Y108.38
G0 X118.785 Y107.726
G1 F3000 X118.919 Y107.228 E457.16317
G0 F9000 X118.919 Y105.643
G1 F3000 X101.079 Y110.423 E457.77746
G0 F9000 X101.079 Y112.25
G1 F3000 X107.748 Y118.919 E458.09115
G0 F9000 X109.574 Y118.92
G1 F3000 X113.847 Y102.972 E458.64029
G0 F9000 X114.118 Y101.962
G1 F3000 X114.355 Y101.078 E458.67073
G0 F9000 X115.365 Y101.08
G1 F3000 X118.919 Y104.634 E458.8379
G0 F9000 X110.875 Y102.321
G0 X110.222 Y101.761
G1 F3000 X108.929 Y102.108 E458.88243
G0 F9000 X105.702 Y102.973
G1 F3000 X101.08 Y104.211 E459.04157
G1 X101.08 Y104.258
G1 X101.932 Y101.079 E459.15104
G0 F9000 X101.079 Y103.765
G1 F3000 X116.233 Y118.919 E459.86384
;MESH:NONMESH
G0 F300 X116.233 Y118.919 Z6
G0 F9000 X119 Y119
;TIME_ELAPSED:620.475293
;LAYER:29
;TYPE:WALL-INNER
;MESH:xyzCalibration_cube.stl
G1 F1500 X101 Y119 E460.46252
G1 X101 Y101 E461.0612
G1 X105.272 Y101 E461.20329
G1 X105.274 Y102.894 E461.26628
G1 X108.968 Y102.893 E461.38915
G1 X108.968 Y101 E461.45211
G1 X110.182 Y101 E461.49249
G1 X110.182 Y102.894 E461.55548
G1 X113.912 Y102.894 E461.67954
G1 X113.914 Y101 E461.74253
G1 X119 Y101 E461.9117
G1 X119 Y107.805 E462.13803
G1 X117.058 Y107.805 E462.20262
G1 X117.058 Y111.486 E462.32505
G1 X119 Y111.486 E462.38964
G1 X119 Y119 E462.63956
G0 F9000 X119.4 Y119.4
G1 F1500 X100.6 Y119.4 E463.26485
G1 X100.6 Y100.6 E463.89014
G1 X105.672 Y100.6 E464.05884
G1 X105.674 Y102.494 E464.12183
G1 X108.568 Y102.493 E464.21809
G1 X108.568 Y100.6 E464.28105
G1 X110.582 Y100.6 E464.34803
G1 X110.582 Y102.494 E464.41103
G1 X113.512 Y102.494 E464.50848
G1 X113.514 Y100.6 E464.57148
G1 X119.4 Y100.6 E464.76724
G1 X119.4 Y108.205 E465.02019
G1 X117.458 Y108.205 E465.08478
G1 X117.458 Y111.086 E465.1806
G1 X119.4 Y111.086 E465.24519
G1 X119.4 Y119.4 E465.52172
G0 F9000 X119.8 Y119.8
;TYPE:WALL-OUTER
G1 F1500 X100.2 Y119.8 E466.17362
G1 X100.2 Y100.2 E466.82552
G1 X106.072 Y100.2 E467.02082
G1 X106.074 Y102.094 E467.08381
G1 X108.168 Y102.093 E467.15346
G1 X108.169 Y100.86 E467.19447
G1 X108.167 Y100.2 E467.21642
G1 X110.982 Y100.2 E467.31005
G1 X110.982 Y102.094 E467.37304
G1 X113.112 Y102.094 E467.44389
G1 X113.114 Y100.2 E467.50688
G1 X119.8 Y100.2 E467.72926
G1 X119.8 Y108.605 E468.00881
G1 X117.858 Y108.605 E468.0734
G1 X117.858 Y110.686 E468.14262
G1 X119.8 Y110.686 E468.20721
G1 X119.8 Y119.8 E468.51034
G0 F9000 X119.53 Y119.53
G0 X118.918 Y118.212
;TYPE:FILL
G1 F3000 X116.279 Y118.919 E468.60121
G1 X116.432 Y118.919
G1 X101.079 Y103.565 E469.32339
G1 X101.079 Y103.714
G1 X101.786 Y101.079 E469.41413
G0 F9000 X101.079 Y104.357
G1 F3000 X106.245 Y102.973 E469.59201
G0 F9000 X107.49 Y102.972
G1 F3000 X103.217 Y118.919 E470.14112
G0 F9000 X101.08 Y116.78
G1 F3000 X118.919 Y112 E470.75538
G0 F9000 X118.919 Y112.92
G1 F3000 X117.565 Y111.566 E470.81907
G1 X117.611 Y111.564
G1 X115.64 Y118.92 E471.07236
G0 F9000 X109.428 Y118.92
G1 F3000 X113.701 Y102.972 E471.6215
G0 F9000 X113.993 Y101.886
G1 F3000 X114.209 Y101.078 E471.64932
G0 F9000 X115.564 Y101.08
G1 F3000 X118.919 Y104.435 E471.80713
G0 F9000 X118.919 Y105.789
G1 F3000 X101.08 Y110.568 E472.42138
G0 F9000 X101.079 Y112.05
G1 F3000 X107.947 Y118.919 E472.74445
G0 F9000 X116.977 Y110.978
G1 F3000 X108.972 Y102.973 E473.12098
G0 F9000 X109.047 Y102.222
G1 F3000 X110.1 Y101.94 E473.15724
G0 F9000 X118.919 Y106.681
G1 F3000 X118.64 Y107.725 E473.19318
;MESH:NONMESH
G0 F300 X118.64 Y107.725 Z6.2
G0 F9000 X117.63 Y108.377
G0 X117.63 Y110.914
G0 X119 Y119
;TIME_ELAPSED:638.210255
;LAYER:30
;TYPE:WALL-INNER
;MESH:xyzCalibration_cube.stl
G1 F1500 X101 Y119 E473.79186
G1 X101 Y101 E474.39055
G1 X105.383 Y101 E474.53633
G1 X105.385 Y102.894 E474.59932
G1 X109.087 Y102.893 E474.72245
G1 X109.086 Y101 E474.78541
G1 X110.061 Y101 E474.81784
G1 X110.06 Y102.894 E474.88084
G1 X113.785 Y102.894 E475.00473
G1 X113.787 Y101 E475.06772
G1 X119 Y101 E475.24111
G1 X119 Y107.803 E475.46738
G1 X117.058 Y107.803 E475.53197
G1 X117.058 Y111.481 E475.6543
G1 X119 Y111.485 E475.71889
G1 X119 Y119 E475.96884
G0 F9000 X119.4 Y119.4
G1 F1500 X100.6 Y119.4 E476.59413
G1 X100.6 Y100.6 E477.21942
G1 X105.783 Y100.6 E477.39181
G1 X105.785 Y102.494 E477.4548
G1 X108.687 Y102.493 E477.55132
G1 X108.686 Y100.6 E477.61429
G1 X110.461 Y100.6 E477.67332
G1 X110.46 Y102.494 E477.73632
G1 X113.385 Y102.494 E477.8336
G1 X113.387 Y100.6 E477.8966
G1 X119.4 Y100.6 E478.09659
G1 X119.4 Y108.203 E478.34947
G1 X117.458 Y108.203 E478.41406
G1 X117.458 Y111.082 E478.50982
G1 X118.894 Y111.085 E478.55758
G1 X119.4 Y111.084 E478.57441
G1 X119.4 Y119.4 E478.851
G0 F9000 X119.8 Y119.8
;TYPE:WALL-OUTER
G1 F1500 X100.2 Y119.8 E479.5029
G1 X100.2 Y100.2 E480.1548
G1 X106.183 Y100.2 E480.35379
G1 X106.185 Y102.094 E480.41679
G1 X108.287 Y102.093 E480.4867
G1 X108.286 Y100.2 E480.54966
G1 X110.861 Y100.2 E480.6353
G1 X110.86 Y102.094 E480.6983
G1 X112.985 Y102.094 E480.76898
G1 X112.987 Y100.2 E480.83197
G1 X119.8 Y100.2 E481.05857
G1 X119.8 Y108.603 E481.33806
G1 X117.858 Y108.603 E481.40265
G1 X117.858 Y110.683 E481.47183
G1 X118.894 Y110.685 E481.50629
G1 X119.8 Y110.684 E481.53642
G1 X119.8 Y119.8 E481.83962
G0 F9000 X119.53 Y119.53
G0 X118.918 Y118.359
;TYPE:FILL
G1 F3000 X116.828 Y118.919 E481.91159
G1 X116.633 Y118.919
G1 X101.079 Y103.364 E482.64322
G1 X101.079 Y103.165
G1 X101.639 Y101.079 E482.71506
G0 F9000 X101.079 Y104.504
G1 F3000 X106.794 Y102.973 E482.91184
G0 F9000 X107.343 Y102.972
G1 F3000 X103.07 Y118.919 E483.46095
G0 F9000 X101.08 Y116.927
G1 F3000 X118.919 Y112.147 E484.07521
G0 F9000 X118.919 Y112.719
G1 F3000 X117.762 Y111.563 E484.12961
G0 F9000 X117.465 Y111.56
G1 F3000 X115.493 Y118.92 E484.38304
G0 F9000 X109.281 Y118.92
G1 F3000 X113.554 Y102.972 E484.93218
G0 F9000 X113.866 Y101.811
G1 F3000 X114.062 Y101.078 E484.95742
G0 F9000 X115.765 Y101.08
G1 F3000 X118.919 Y104.233 E485.10575
G0 F9000 X118.919 Y105.936
G1 F3000 X101.08 Y110.715 E485.72
G0 F9000 X101.079 Y111.85
G1 F3000 X108.148 Y118.919 E486.0525
G0 F9000 X116.977 Y110.777
G1 F3000 X109.165 Y102.965 E486.41996
G0 F9000 X109.165 Y102.337
G1 F3000 X109.979 Y102.119 E486.44798
G0 F9000 X118.919 Y106.134
G1 F3000 X118.493 Y107.723 E486.5027
;MESH:NONMESH
G0 F300 X118.493 Y107.723 Z6.4
G0 F9000 X117.63 Y108.375
G0 X117.63 Y110.911
G0 X119 Y119
;TIME_ELAPSED:655.806026
;LAYER:31
;TYPE:WALL-INNER
;MESH:xyzCalibration_cube.stl
G1 F1500 X101 Y119 E487.10138
G1 X101 Y101 E487.70006
G1 X105.494 Y101 E487.84954
G1 X105.496 Y102.894 E487.91253
G1 X109.205 Y102.893 E488.03589
G1 X109.205 Y101 E488.09885
G1 X109.939 Y101 E488.12327
G1 X109.938 Y102.894 E488.18626
G1 X113.659 Y102.894 E488.31002
G1 X113.661 Y101 E488.37302
G1 X119 Y101 E488.55059
G1 X119 Y107.801 E488.7768
G1 X117.059 Y107.801 E488.84135
G1 X117.058 Y111.479 E488.96368
G1 X119 Y111.483 E489.02828
G1 X119 Y119 E489.27829
G0 F9000 X119.4 Y119.4
G1 F1500 X100.6 Y119.4 E489.90358
G1 X100.6 Y100.6 E490.52887
G1 X105.894 Y100.6 E490.70495
G1 X105.896 Y102.494 E490.76795
G1 X108.805 Y102.493 E490.8647
G1 X108.805 Y100.6 E490.92766
G1 X110.339 Y100.6 E490.97868
G1 X110.338 Y102.494 E491.04168
G1 X113.259 Y102.494 E491.13883
G1 X113.261 Y100.6 E491.20183
G1 X119.4 Y100.6 E491.40601
G1 X119.4 Y108.201 E491.65882
G1 X117.459 Y108.201 E491.72338
G1 X117.458 Y111.08 E491.81913
G1 X118.965 Y111.083 E491.86926
G1 X119.4 Y111.082 E491.88372
G1 X119.4 Y119.4 E492.16038
G0 F9000 X119.8 Y119.8
;TYPE:WALL-OUTER
G1 F1500 X100.2 Y119.8 E492.81228
G1 X100.2 Y100.2 E493.46418
G1 X106.294 Y100.2 E493.66687
G1 X106.296 Y102.094 E493.72986
G1 X108.405 Y102.093 E493.80001
G1 X108.406 Y101.015 E493.83586
G1 X108.404 Y100.2 E493.86297
G1 X110.739 Y100.2 E493.94063
G1 X110.738 Y102.094 E494.00363
G1 X112.859 Y102.094 E494.07417
G1 X112.861 Y100.2 E494.13717
G1 X119.8 Y100.2 E494.36796
G1 X119.8 Y108.601 E494.64738
G1 X117.859 Y108.601 E494.71193
G1 X117.858 Y110.681 E494.78111
G1 X118.965 Y110.683 E494.81793
G1 X119.8 Y110.682 E494.84571
G1 X119.8 Y119.8 E495.14897
G0 F9000 X119.53 Y119.53
G0 X118.919 Y118.505
;TYPE:FILL
G1 F3000 X117.374 Y118.919 E495.20217
G0 F9000 X116.833 Y118.919
G1 F3000 X101.079 Y103.165 E495.94319
G0 F9000 X101.079 Y102.621
G1 F3000 X101.492 Y101.079 E495.99629
G0 F9000 X101.079 Y104.65
G1 F3000 X107.34 Y102.972 E496.21188
G1 X107.197 Y102.972
G1 X102.924 Y118.919 E496.76099
G0 F9000 X101.08 Y117.073
G1 F3000 X118.918 Y112.293 E497.37521
G0 F9000 X118.919 Y112.52
G1 F3000 X117.96 Y111.561 E497.42032
G0 F9000 X117.32 Y111.558
G1 F3000 X115.347 Y118.92 E497.67382
G0 F9000 X109.136 Y118.919
G1 F3000 X113.408 Y102.973 E498.22289
G0 F9000 X113.739 Y101.737
G1 F3000 X113.916 Y101.078 E498.24559
G0 F9000 X113.74 Y101.258
G1 F3000 X114.405 Y101.079 E498.26849
G0 F9000 X115.964 Y101.08
G1 F3000 X118.919 Y104.034 E498.40746
G0 F9000 X118.919 Y105.588
G1 F3000 X118.348 Y107.721 E498.48091
G0 F9000 X118.919 Y106.082
G1 F3000 X101.08 Y110.861 E499.09516
G0 F9000 X101.079 Y111.65
G1 F3000 X108.347 Y118.919 E499.43704
G0 F9000 X116.978 Y110.578
G1 F3000 X109.373 Y102.973 E499.79476
;TYPE:SKIN
G1 F1500 X109.379 Y103.035
G1 X109.762 Y102.652 E499.80377
G0 F9000 X109.663 Y103.033
G1 F1500 X109.57 Y102.56 E499.81797
G1 X109.57 Y101.429 E499.85129
G1 X109.46 Y101.256 E499.85733
G0 F9000 X109.379 Y101.338
;MESH:NONMESH
G0 F300 X109.379 Y101.338 Z6.6
G0 F9000 X119 Y119
;TIME_ELAPSED:673.519349
;LAYER:32
;TYPE:WALL-INNER
;MESH:xyzCalibration_cube.stl
G1 F1500 X101 Y119 E500.45601
G1 X101 Y101 E501.0547
G1 X105.605 Y101 E501.20786
G1 X105.607 Y102.894 E501.27085
G1 X109.324 Y102.893 E501.39448
G1 X109.323 Y101 E501.45744
G1 X109.818 Y101 E501.47391
G1 X109.814 Y102.894 E501.5369
G1 X113.53 Y102.894 E501.6605
G1 X113.533 Y101 E501.72349
G1 X119 Y101 E501.90533
G1 X119 Y107.799 E502.13146
G1 X117.059 Y107.799 E502.19602
G1 X117.059 Y111.479 E502.31842
G1 X119 Y111.48 E502.38297
G1 X119 Y119 E502.63309
G0 F9000 X119.4 Y119.4
G1 F1500 X100.6 Y119.4 E503.25838
G1 X100.6 Y100.6 E503.88367
G1 X106.005 Y100.6 E504.06344
G1 X106.007 Y102.494 E504.12644
G1 X108.924 Y102.493 E504.22346
G1 X108.923 Y100.6 E504.28642
G1 X110.217 Y100.6 E504.32946
G1 X110.218 Y101.09 E504.34575
G1 X110.215 Y102.494 E504.39245
G1 X113.131 Y102.494 E504.48944
G1 X113.134 Y100.6 E504.55243
G1 X119.4 Y100.6 E504.76084
G1 X119.4 Y108.199 E505.01358
G1 X117.459 Y108.199 E505.07814
G1 X117.459 Y111.079 E505.17393
G1 X119.4 Y111.08 E505.23849
G1 X119.4 Y119.4 E505.51521
G0 F9000 X119.8 Y119.8
;TYPE:WALL-OUTER
G1 F1500 X100.2 Y119.8 E506.16711
G1 X100.2 Y100.2 E506.81901
G1 X106.405 Y100.2 E507.02539
G1 X106.407 Y102.094 E507.08839
G1 X108.524 Y102.093 E507.1588
G1 X108.523 Y100.2 E507.22176
G1 X110.617 Y100.2 E507.29141
G1 X110.618 Y101.091 E507.32104
G1 X110.616 Y102.094 E507.3544
G1 X112.732 Y102.094 E507.42478
G1 X112.735 Y100.2 E507.48777
G1 X119.8 Y100.2 E507.72276
G1 X119.8 Y108.599 E508.00211
G1 X117.859 Y108.599 E508.06667
G1 X117.859 Y110.679 E508.13585
G1 X119.8 Y110.68 E508.2004
G1 X119.8 Y119.8 E508.50374
G0 F9000 X119.53 Y119.53
G0 X118.919 Y118.651
;TYPE:FILL
G1 F3000 X117.918 Y118.919 E508.5382
G0 F9000 X117.032 Y118.919
G1 F3000 X101.079 Y102.966 E509.28858
G0 F9000 X101.08 Y102.075
G1 F3000 X101.347 Y101.078 E509.32291
G0 F9000 X101.08 Y104.796
G1 F3000 X107.885 Y102.972 E509.55724
G0 F9000 X107.051 Y102.972
G1 F3000 X102.778 Y118.92 E510.10638
G0 F9000 X101.079 Y117.219
G1 F3000 X118.919 Y112.439 E510.72067
G1 X118.919 Y112.321
G1 X118.158 Y111.559 E510.75649
G0 F9000 X117.174 Y111.558
G1 F3000 X115.201 Y118.92 E511.00999
G0 F9000 X108.99 Y118.919
G1 F3000 X113.263 Y102.972 E511.5591
G0 F9000 X113.612 Y101.67
G1 F3000 X113.77 Y101.079 E511.57945
G0 F9000 X113.612 Y101.438
G1 F3000 X114.953 Y101.079 E511.62562
G0 F9000 X116.164 Y101.08
G1 F3000 X118.919 Y103.835 E511.75521
G0 F9000 X118.919 Y105.044
G1 F3000 X118.203 Y107.718 E511.84728
G0 F9000 X118.918 Y106.228
G1 F3000 X101.08 Y111.008 E512.4615
G0 F9000 X101.079 Y111.451
G1 F3000 X108.547 Y118.919 E512.81278
G0 F9000 X116.978 Y110.379
G1 F3000 X109.572 Y102.973 E513.16113
;TYPE:SKIN
G1 F1500 X109.497 Y102.992
G1 X109.638 Y103.132 E513.16444
G0 F9000 X109.568 Y102.779
G1 F1500 X109.568 Y102.497 E513.16859
G1 X109.569 Y101.367 E513.18522
G0 F9000 X109.497 Y101.295
;MESH:NONMESH
G0 F300 X109.497 Y101.295 Z6.8
G0 F9000 X119 Y119
;TIME_ELAPSED:691.206682
;LAYER:33
;TYPE:WALL-INNER
;MESH:xyzCalibration_cube.stl
G1 F1500 X101 Y119 E513.7839
G1 X101 Y101 E514.38259
G1 X105.716 Y101 E514.53944
G1 X105.718 Y102.895 E514.60247
G1 X109.442 Y102.893 E514.72633
G1 X109.441 Y101 E514.78929
G1 X109.696 Y101 E514.79777
G1 X109.692 Y102.894 E514.83764
G1 X113.406 Y102.895 E514.96117
G1 X113.408 Y101 E515.0242
G1 X119 Y101 E515.21019
G1 X119 Y107.797 E515.43626
G1 X117.059 Y107.797 E515.50082
G1 X117.059 Y111.477 E515.62322
G1 X119 Y111.478 E515.68777
G1 X119 Y119 E515.93796
G0 F9000 X119.4 Y119.4
G1 F1500 X100.6 Y119.4 E516.56325
G1 X100.6 Y100.6 E517.18854
G1 X106.116 Y100.6 E517.372
G1 X106.118 Y102.495 E517.43503
G1 X109.042 Y102.493 E517.53228
G1 X109.041 Y100.6 E517.59524
G1 X110.095 Y100.6 E517.6303
G1 X110.096 Y101.168 E517.64919
G1 X110.093 Y102.494 E517.69329
G1 X113.006 Y102.495 E517.79018
G1 X113.008 Y100.6 E517.85321
G1 X119.4 Y100.6 E518.06581
G1 X119.4 Y108.197 E518.31848
G1 X117.459 Y108.197 E518.38304
G1 X117.459 Y111.077 E518.47883
G1 X119.4 Y111.078 E518.54339
G1 X119.4 Y119.4 E518.82018
G0 F9000 X119.8 Y119.8
;TYPE:WALL-OUTER
G1 F1500 X100.2 Y119.8 E519.47208
G1 X100.2 Y100.2 E520.12398
G1 X106.516 Y100.2 E520.33405
G1 X106.518 Y102.095 E520.39708
G1 X108.642 Y102.093 E520.46772
G1 X108.641 Y100.2 E520.53068
G1 X110.495 Y100.2 E520.59235
G1 X110.496 Y101.169 E520.62458
G1 X110.494 Y102.094 E520.65534
G1 X112.606 Y102.095 E520.72559
G1 X112.608 Y100.2 E520.78861
G1 X119.8 Y100.2 E521.02782
G1 X119.8 Y108.597 E521.30711
G1 X117.859 Y108.597 E521.37166
G1 X117.859 Y110.677 E521.44085
G1 X119.8 Y110.678 E521.5054
G1 X119.8 Y119.8 E521.8088
G0 F9000 X119.53 Y119.53
G0 X118.919 Y118.798
;TYPE:FILL
G1 F3000 X118.467 Y118.919 E521.82437
G0 F9000 X117.233 Y118.919
G1 F3000 X101.079 Y102.765 E522.5842
G0 F9000 X101.08 Y101.526
G1 F3000 X101.2 Y101.078 E522.59963
G0 F9000 X101.08 Y104.943
G1 F3000 X108.434 Y102.972 E522.85285
G0 F9000 X109.774 Y102.975
G1 F3000 X116.978 Y110.179 E523.19171
G0 F9000 X117.027 Y111.556
G1 F3000 X115.054 Y118.92 E523.44527
G0 F9000 X108.843 Y118.919
G1 F3000 X113.115 Y102.973 E523.99434
G0 F9000 X113.486 Y101.619
G1 F3000 X115.5 Y101.079 E524.0637
G0 F9000 X116.365 Y101.08
G1 F3000 X118.919 Y103.634 E524.18383
G0 F9000 X118.919 Y104.495
G1 F3000 X118.056 Y107.716 E524.29474
G0 F9000 X118.918 Y106.375
G1 F3000 X101.08 Y111.155 E524.90896
G1 X101.079 Y111.25
G1 X108.748 Y118.919 E525.26969
G0 F9000 X102.631 Y118.92
G1 F3000 X106.904 Y102.973 E525.8188
G0 F9000 X112.834 Y102.323
G0 X113.487 Y101.587
G1 F3000 X113.623 Y101.078 E525.83632
G0 F9000 X117.631 Y110.905
G0 X118.357 Y111.558
G1 F3000 X118.919 Y112.12 E525.86276
G0 F9000 X118.918 Y112.586
G1 F3000 X101.079 Y117.366 E526.47702
;MESH:NONMESH
G0 F300 X101.079 Y117.366 Z7
G0 F9000 X119 Y119
;TIME_ELAPSED:708.959563
;LAYER:34
;TYPE:WALL-INNER
;MESH:xyzCalibration_cube.stl
G1 F1500 X101 Y119 E527.0757
G1 X101 Y101 E527.67438
G1 X105.827 Y101 E527.83493
G1 X105.829 Y102.895 E527.89796
G1 X109.561 Y102.893 E528.02208
G1 X109.56 Y101 E528.08504
G1 X109.574 Y101 E528.08551
G1 X109.57 Y102.894 E528.08734
G1 X113.277 Y102.895 E528.21064
G1 X113.28 Y101 E528.27366
G1 X119 Y101 E528.46391
G1 X119 Y107.794 E528.68988
G1 X117.059 Y107.794 E528.75444
G1 X117.059 Y111.475 E528.87687
G1 X119 Y111.476 E528.94143
G1 X119 Y119 E529.19168
G0 F9000 X119.4 Y119.4
G1 F1500 X100.6 Y119.4 E529.81697
G1 X100.6 Y100.6 E530.44226
G1 X106.227 Y100.6 E530.62941
G1 X106.229 Y102.495 E530.69244
G1 X109.161 Y102.493 E530.78996
G1 X109.16 Y100.6 E530.85292
G1 X109.973 Y100.6 E530.87996
G1 X109.974 Y101.245 E530.90142
G1 X109.971 Y102.494 E530.94296
G1 X112.878 Y102.495 E531.03964
G1 X112.881 Y100.6 E531.10267
G1 X119.4 Y100.6 E531.3195
G1 X119.4 Y108.194 E531.57207
G1 X117.459 Y108.194 E531.63663
G1 X117.459 Y111.075 E531.73245
G1 X119.4 Y111.076 E531.79701
G1 X119.4 Y119.4 E532.07387
G0 F9000 X119.8 Y119.8
;TYPE:WALL-OUTER
G1 F1500 X100.2 Y119.8 E532.72577
G1 X100.2 Y100.2 E533.37767
G1 X106.627 Y100.2 E533.59143
G1 X106.629 Y102.095 E533.65446
G1 X108.761 Y102.093 E533.72537
G1 X108.76 Y100.2 E533.78833
G1 X110.373 Y100.2 E533.84198
G1 X110.374 Y101.246 E533.87677
G1 X110.372 Y102.094 E533.90497
G1 X112.479 Y102.095 E533.97505
G1 X112.482 Y100.2 E534.03808
G1 X119.8 Y100.2 E534.28148
G1 X119.8 Y108.594 E534.56066
G1 X117.859 Y108.594 E534.62522
G1 X117.859 Y110.675 E534.69443
G1 X119.8 Y110.676 E534.75899
G1 X119.8 Y119.8 E535.06246
G0 F9000 X119.53 Y119.53
G0 X117.432 Y118.919
;TYPE:FILL
G1 F3000 X101.079 Y102.565 E535.83168
G0 F9000 X101.08 Y105.089
G1 F3000 X108.978 Y102.972 E536.10364
G0 F9000 X109.973 Y102.974
G1 F3000 X116.978 Y109.979 E536.43313
G0 F9000 X116.978 Y111.195
G1 F3000 X114.908 Y118.919 E536.6991
G0 F9000 X108.947 Y118.919
G1 F3000 X101.079 Y111.051 E537.06919
G0 F9000 X101.08 Y111.301
G1 F3000 X118.918 Y106.521 E537.68341
G0 F9000 X117.911 Y107.713
G1 F3000 X118.919 Y103.95 E537.81298
G0 F9000 X118.919 Y103.434
G1 F3000 X116.564 Y101.08 E537.92373
G0 F9000 X116.045 Y101.079
G1 F3000 X113.358 Y101.799 E538.01625
G0 F9000 X113.358 Y101.521
G1 F3000 X113.477 Y101.079 E538.03148
G0 F9000 X112.969 Y102.974
G1 F3000 X108.697 Y118.919 E538.58051
G0 F9000 X102.485 Y118.92
G1 F3000 X106.758 Y102.973 E539.12962
G0 F9000 X118.554 Y111.555
G1 F3000 X118.919 Y111.92 E539.14679
G0 F9000 X118.919 Y112.732
G1 F3000 X101.08 Y117.512 E539.76105
;MESH:NONMESH
G0 F300 X101.08 Y117.512 Z7.2
G0 F9000 X119 Y119
;TIME_ELAPSED:726.355386
;LAYER:35
;TYPE:WALL-INNER
;MESH:xyzCalibration_cube.stl
G1 F1500 X101 Y119 E540.35973
G1 X101 Y101 E540.95842
G1 X105.938 Y101 E541.12265
G1 X105.94 Y102.895 E541.18568
G1 X113.153 Y102.895 E541.42559
G1 X113.155 Y101 E541.48862
G1 X119 Y101 E541.68302
G1 X119 Y107.792 E541.90892
G1 X117.06 Y107.792 E541.97345
G1 X117.06 Y111.472 E542.09585
G1 X119 Y111.473 E542.16037
G1 X119 Y119 E542.41072
G0 F9000 X119.4 Y119.4
G1 F1500 X100.6 Y119.4 E543.03601
G1 X100.6 Y100.6 E543.6613
G1 X106.338 Y100.6 E543.85215
G1 X106.34 Y102.495 E543.91518
G1 X109.279 Y102.494 E544.01293
G1 X109.278 Y100.6 E544.07592
G1 X109.851 Y100.6 E544.09498
G1 X109.851 Y102.495 E544.15801
G1 X112.753 Y102.495 E544.25453
G1 X112.755 Y100.6 E544.31756
G1 X119.4 Y100.6 E544.53857
G1 X119.4 Y108.192 E544.79108
G1 X117.46 Y108.192 E544.85561
G1 X117.46 Y111.072 E544.9514
G1 X119.4 Y111.073 E545.01592
G1 X119.4 Y119.4 E545.29288
G0 F9000 X119.8 Y119.8
;TYPE:WALL-OUTER
G1 F1500 X100.2 Y119.8 E545.94478
G1 X100.2 Y100.2 E546.59667
G1 X106.738 Y100.2 E546.81413
G1 X106.74 Y102.095 E546.87716
G1 X108.879 Y102.094 E546.9483
G1 X108.878 Y100.2 E547.0113
G1 X110.251 Y100.2 E547.05696
G1 X110.251 Y102.095 E547.11999
G1 X112.353 Y102.095 E547.1899
G1 X112.355 Y100.2 E547.25293
G1 X119.8 Y100.2 E547.50055
G1 X119.8 Y108.592 E547.77967
G1 X117.86 Y108.592 E547.8442
G1 X117.86 Y110.672 E547.91338
G1 X119.8 Y110.673 E547.9779
G1 X119.8 Y119.8 E548.28147
G0 F9000 X119.53 Y119.53
G0 X117.633 Y118.919
;TYPE:FILL
G1 F3000 X101.079 Y102.365 E549.06012
G0 F9000 X101.08 Y105.236
G1 F3000 X109.521 Y102.974 E549.35077
G0 F9000 X110.175 Y102.975
G1 F3000 X116.979 Y109.779 E549.67081
G0 F9000 X116.979 Y110.644
G1 F3000 X114.761 Y118.92 E549.95579
G0 F9000 X109.148 Y118.919
G1 F3000 X101.079 Y110.85 E550.33533
G0 F9000 X101.08 Y111.448
G1 F3000 X118.918 Y106.668 E550.94955
G0 F9000 X117.764 Y107.711
G1 F3000 X118.919 Y103.402 E551.09793
G1 X118.919 Y103.234
G1 X116.765 Y101.08 E551.19925
G1 X116.593 Y101.079
G1 X113.233 Y101.979 E551.31494
G0 F9000 X113.234 Y101.436
G1 F3000 X113.33 Y101.079 E551.32724
G0 F9000 X112.822 Y102.974
G1 F3000 X108.55 Y118.919 E551.87627
G0 F9000 X102.338 Y118.92
G1 F3000 X106.611 Y102.973 E552.42538
G0 F9000 X117.632 Y110.9
G0 X118.752 Y111.553
G1 F3000 X118.919 Y111.72 E552.43324
G0 F9000 X118.918 Y112.879
G1 F3000 X101.08 Y117.659 E553.04746
G0 F9000 X109.453 Y102.678
G0 X109.564 Y102.567
;TYPE:SKIN
G1 F1500 X109.564 Y102.284 E553.05381
G1 X109.556 Y100.877 E553.08534
G0 F9000 X109.651 Y100.8
;MESH:NONMESH
G0 F300 X109.651 Y100.8 Z7.4
G0 F9000 X110.023 Y102.323
G0 X119 Y119
;TIME_ELAPSED:743.957643
;LAYER:36
;TYPE:WALL-INNER
;MESH:xyzCalibration_cube.stl
G1 F1500 X101 Y119 E553.68402
G1 X101 Y101 E554.2827
G1 X106.049 Y101 E554.45063
G1 X106.051 Y102.895 E554.51366
G1 X113.024 Y102.895 E554.74558
G1 X113.027 Y101 E554.80861
G1 X119 Y101 E555.00727
G1 X119 Y107.79 E555.23311
G1 X117.06 Y107.79 E555.29763
G1 X117.06 Y111.47 E555.42003
G1 X119 Y111.471 E555.48456
G1 X119 Y119 E555.73497
G0 F9000 X119.4 Y119.4
G1 F1500 X100.6 Y119.4 E556.36026
G1 X100.6 Y100.6 E556.98555
G1 X106.449 Y100.6 E557.18009
G1 X106.451 Y102.495 E557.24312
G1 X109.398 Y102.494 E557.34114
G1 X109.397 Y100.6 E557.40413
G1 X109.73 Y100.6 E557.41521
G1 X109.729 Y102.495 E557.46765
G1 X112.625 Y102.495 E557.56398
G1 X112.628 Y100.6 E557.627
G1 X119.4 Y100.6 E557.85224
G1 X119.4 Y108.19 E558.10469
G1 X117.46 Y108.19 E558.16921
G1 X117.46 Y111.07 E558.265
G1 X119.4 Y111.071 E558.32952
G1 X119.4 Y119.4 E558.60655
G0 F9000 X119.8 Y119.8
;TYPE:WALL-OUTER
G1 F1500 X100.2 Y119.8 E559.25845
G1 X100.2 Y100.2 E559.91034
G1 X106.849 Y100.2 E560.13149
G1 X106.851 Y102.095 E560.19452
G1 X108.998 Y102.094 E560.26593
G1 X108.997 Y100.2 E560.32892
G1 X110.13 Y100.2 E560.36661
G1 X110.129 Y102.095 E560.42964
G1 X112.226 Y102.095 E560.49938
G1 X112.229 Y100.2 E560.56241
G1 X119.8 Y100.2 E560.81422
G1 X119.8 Y108.59 E561.09327
G1 X117.86 Y108.59 E561.1578
G1 X117.86 Y110.67 E561.22698
G1 X119.8 Y110.671 E561.29151
G1 X119.8 Y119.8 E561.59514
G0 F9000 X119.53 Y119.53
G0 X117.832 Y118.919
;TYPE:FILL
G1 F3000 X101.079 Y102.165 E562.38317
G0 F9000 X101.08 Y105.382
G1 F3000 X110.067 Y102.974 E562.69262
G0 F9000 X110.374 Y102.975
G1 F3000 X116.979 Y109.58 E563.0033
G0 F9000 X116.979 Y110.097
G1 F3000 X114.615 Y118.919 E563.30708
G0 F9000 X109.347 Y118.919
G1 F3000 X101.079 Y110.65 E563.696
G0 F9000 X101.079 Y111.594
G1 F3000 X118.918 Y106.814 E564.31026
G0 F9000 X117.619 Y107.71
G1 F3000 X118.919 Y102.857 E564.47736
G1 X118.919 Y103.034
G1 X116.964 Y101.08 E564.56929
G1 X117.137 Y101.079
G1 X113.104 Y102.16 E564.70817
G0 F9000 X113.106 Y101.37
G1 F3000 X113.184 Y101.078 E564.71822
G0 F9000 X112.676 Y102.973
G1 F3000 X108.403 Y118.92 E565.26733
G0 F9000 X102.192 Y118.919
G1 F3000 X106.465 Y102.973 E565.81641
G0 F9000 X101.08 Y117.805
G1 F3000 X118.919 Y113.025 E566.43067
;MESH:NONMESH
G0 F300 X118.919 Y113.025 Z7.6
G0 F9000 X119 Y119
;TIME_ELAPSED:760.956697
;LAYER:37
;TYPE:WALL-INNER
;MESH:xyzCalibration_cube.stl
G1 F1500 X101 Y119 E567.02935
G1 X101 Y101 E567.62803
G1 X106.16 Y101 E567.79965
